;FLAVOR:Marlin
;TIME:1350
;Filament used: 0.558213m
;Layer height: 0.12
;MINX:90.6
;MINY:85.3
;MINZ:0.12
;MAXX:139.4
;MAXY:134.1
;MAXZ:10.44
;Generated with Cura_SteamEngine 5.4.0-alpha+testing_1
M140 S60
M105
M190 S60
M104 S200
M105
M109 S200
M82 ;absolute extrusion mode
 G28 ; home all axes
 M420 S1
 M117 ; Purge extruder
 G92 E0 ; reset extruder
 G1 Z1.0 F3000 ; move z up little to prevent scratching of surface
 G1 X2 Y20 Z0.3 F5000.0 ; move to start-line position
 G1 X2 Y200.0 Z0.3 F1500.0 E15 ; draw 1st line
 G1 X2 Y200.0 Z0.4 F5000.0 ; move to side a little
 G1 X2 Y20 Z0.4 F1500.0 E30 ; draw 2nd line
 G92 E0 ; reset extruder
 G1 Z1.0 F3000 ; move z up little to prevent scratching of surface
G92 E0
G92 E0
G1 F2400 E-2
;LAYER_COUNT:87
;LAYER:0
M107
G0 F1800 X93.419 Y89.214 Z0.12
;TYPE:SKIRT
G1 F2400 E0
G1 F1200 X94.192 Y88.411 E0.02669
G1 X94.873 Y87.818 E0.04832
G1 X95.719 Y87.202 E0.07338
G1 X96.648 Y86.65 E0.09926
G1 X97.525 Y86.229 E0.12255
G1 X98.401 Y85.896 E0.14499
G1 X99.441 Y85.604 E0.17086
G1 X100.482 Y85.412 E0.19621
G1 X101.621 Y85.316 E0.22358
G1 X102.303 Y85.3 E0.23992
G1 X127.31 Y85.3 E0.83877
G1 X128.208 Y85.314 E0.86028
G1 X129.214 Y85.376 E0.88441
G1 X130.143 Y85.515 E0.90691
G1 X131.126 Y85.75 E0.93111
G1 X132.115 Y86.083 E0.9561
G1 X133.072 Y86.504 E0.98114
G1 X133.864 Y86.939 E1.00278
G1 X134.731 Y87.517 E1.02773
G1 X135.573 Y88.197 E1.05365
G1 X136.247 Y88.849 E1.07611
G1 X136.909 Y89.61 E1.10026
G1 X137.543 Y90.486 E1.12616
G1 X138.005 Y91.262 E1.14778
G1 X138.49 Y92.269 E1.17455
G1 X138.83 Y93.18 E1.19784
G1 X139.099 Y94.152 E1.22199
G1 X139.289 Y95.191 E1.24728
G1 X139.384 Y96.321 E1.27444
G1 X139.4 Y97.03 E1.29142
G1 X139.399 Y122.106 E1.89192
G1 X139.387 Y122.886 E1.9106
G1 X139.327 Y123.893 E1.93476
G1 X139.196 Y124.787 E1.9564
G1 X138.957 Y125.802 E1.98137
G1 X138.614 Y126.828 E2.00728
G1 X138.253 Y127.656 E2.02891
G1 X137.737 Y128.604 E2.05476
G1 X137.155 Y129.473 E2.0798
G1 X136.589 Y130.177 E2.10143
G1 X135.869 Y130.93 E2.12638
G1 X135.052 Y131.641 E2.15232
G1 X134.321 Y132.172 E2.17396
G1 X133.428 Y132.71 E2.19892
G1 X132.455 Y133.18 E2.2248
G1 X131.578 Y133.511 E2.24725
G1 X130.606 Y133.786 E2.27144
G1 X129.53 Y133.986 E2.29764
G1 X128.379 Y134.084 E2.32531
G1 X127.679 Y134.1 E2.34208
G1 X102.558 Y134.099 E2.94366
G1 X101.808 Y134.087 E2.96162
G1 X100.802 Y134.027 E2.98575
G1 X99.908 Y133.895 E3.00739
G1 X98.857 Y133.645 E3.03326
G1 X97.867 Y133.312 E3.05828
G1 X97.04 Y132.951 E3.07989
G1 X96.091 Y132.434 E3.10577
G1 X95.223 Y131.852 E3.13079
G1 X94.519 Y131.286 E3.15242
G1 X93.715 Y130.513 E3.17913
G1 X93.122 Y129.832 E3.20076
G1 X92.487 Y128.957 E3.22665
G1 X91.97 Y128.09 E3.25082
G1 X91.518 Y127.15 E3.2758
G1 X91.187 Y126.273 E3.29825
G1 X90.913 Y125.301 E3.32243
G1 X90.713 Y124.221 E3.34873
G1 X90.614 Y123.018 E3.37764
G1 X90.6 Y122.358 E3.39345
G1 X90.601 Y97.219 E3.99546
G1 X90.613 Y96.501 E4.01266
G1 X90.674 Y95.495 E4.03679
G1 X90.806 Y94.602 E4.05841
G1 X91.046 Y93.587 E4.08338
G1 X91.378 Y92.594 E4.10846
G1 X91.768 Y91.702 E4.13177
G1 X92.251 Y90.816 E4.15594
G1 X92.852 Y89.918 E4.18181
G1 X93.419 Y89.214 E4.20346
G0 F1800 X93.731 Y89.465
G1 F1200 X94.455 Y88.713 E4.22846
G1 X95.136 Y88.12 E4.25008
G1 X95.924 Y87.546 E4.27343
G1 X96.821 Y87.011 E4.29844
G1 X97.698 Y86.59 E4.32174
G1 X98.543 Y86.27 E4.34337
G1 X99.549 Y85.989 E4.36839
G1 X100.516 Y85.811 E4.39193
G1 X101.655 Y85.715 E4.41931
G1 X102.312 Y85.7 E4.43504
G1 X127.304 Y85.7 E5.03353
G1 X128.184 Y85.713 E5.05461
G1 X129.155 Y85.772 E5.07791
G1 X130.084 Y85.911 E5.1004
G1 X131.032 Y86.139 E5.12375
G1 X131.954 Y86.449 E5.14704
G1 X132.879 Y86.855 E5.17124
G1 X133.671 Y87.29 E5.19287
G1 X134.48 Y87.828 E5.21614
G1 X135.295 Y88.485 E5.24121
G1 X135.945 Y89.112 E5.26284
G1 X136.607 Y89.873 E5.28699
G1 X137.199 Y90.691 E5.31117
G1 X137.661 Y91.467 E5.3328
G1 X138.115 Y92.409 E5.35784
G1 X138.444 Y93.287 E5.38029
G1 X138.713 Y94.259 E5.40445
G1 X138.89 Y95.225 E5.42796
G1 X138.985 Y96.355 E5.45512
G1 X139 Y97.03 E5.47129
G1 X138.999 Y122.1 E6.07165
G1 X138.988 Y122.863 E6.08992
G1 X138.931 Y123.835 E6.11324
G1 X138.8 Y124.729 E6.13487
G1 X138.577 Y125.676 E6.15817
G1 X138.247 Y126.668 E6.18321
G1 X137.886 Y127.496 E6.20484
G1 X137.386 Y128.412 E6.22983
G1 X136.843 Y129.222 E6.25318
G1 X136.277 Y129.926 E6.27482
G1 X135.606 Y130.629 E6.29809
G1 X134.817 Y131.317 E6.32316
G1 X134.086 Y131.848 E6.34479
G1 X133.254 Y132.35 E6.36806
G1 X132.313 Y132.806 E6.3931
G1 X131.469 Y133.126 E6.41472
G1 X130.497 Y133.401 E6.43891
G1 X129.496 Y133.587 E6.46329
G1 X128.345 Y133.685 E6.49095
G1 X127.67 Y133.7 E6.50712
G1 X102.564 Y133.699 E7.10834
G1 X101.831 Y133.688 E7.1259
G1 X100.86 Y133.631 E7.14919
G1 X99.966 Y133.499 E7.17083
G1 X98.984 Y133.266 E7.195
G1 X98.027 Y132.945 E7.21917
G1 X97.2 Y132.584 E7.24078
G1 X96.313 Y132.101 E7.26497
G1 X95.474 Y131.54 E7.28914
G1 X94.77 Y130.974 E7.31077
G1 X94.017 Y130.25 E7.33579
G1 X93.424 Y129.569 E7.35741
G1 X92.831 Y128.752 E7.38159
G1 X92.314 Y127.885 E7.40576
G1 X91.892 Y127.008 E7.42907
G1 X91.572 Y126.164 E7.45068
G1 X91.298 Y125.192 E7.47487
G1 X91.112 Y124.188 E7.49932
G1 X91.014 Y123.009 E7.52765
G1 X91 Y122.358 E7.54324
G1 X91.001 Y97.225 E8.14511
G1 X91.012 Y96.525 E8.16188
G1 X91.07 Y95.553 E8.18519
G1 X91.202 Y94.66 E8.20681
G1 X91.426 Y93.713 E8.23011
G1 X91.745 Y92.754 E8.25432
G1 X92.135 Y91.862 E8.27763
G1 X92.602 Y91.008 E8.30094
G1 X93.164 Y90.169 E8.32512
G1 X93.731 Y89.465 E8.34677
G0 F1800 X94.043 Y89.716
G1 F1200 X94.718 Y89.015 E8.37007
G1 X95.399 Y88.422 E8.3917
G1 X96.159 Y87.87 E8.41419
G1 X96.995 Y87.371 E8.43751
G1 X97.84 Y86.964 E8.45997
G1 X98.685 Y86.644 E8.48161
G1 X99.622 Y86.382 E8.5049
G1 X100.55 Y86.21 E8.52751
G1 X101.689 Y86.114 E8.55488
G1 X102.321 Y86.1 E8.57002
G1 X127.298 Y86.1 E9.16815
G1 X128.16 Y86.112 E9.18879
G1 X129.097 Y86.168 E9.21127
G1 X129.99 Y86.3 E9.23289
G1 X130.938 Y86.528 E9.25624
G1 X131.794 Y86.816 E9.27787
G1 X132.686 Y87.206 E9.30118
G1 X133.478 Y87.641 E9.32282
G1 X134.258 Y88.161 E9.34527
G1 X135.017 Y88.773 E9.36862
G1 X135.667 Y89.4 E9.39024
G1 X136.305 Y90.135 E9.41355
G1 X136.855 Y90.896 E9.43604
G1 X137.317 Y91.672 E9.45766
G1 X137.74 Y92.549 E9.48098
G1 X138.069 Y93.427 E9.50343
G1 X138.32 Y94.332 E9.52592
G1 X138.491 Y95.259 E9.5485
G1 X138.586 Y96.389 E9.57565
G1 X138.6 Y97.03 E9.59101
G1 X138.599 Y122.095 E10.19125
G1 X138.589 Y122.84 E10.20909
G1 X138.535 Y123.777 E10.23157
G1 X138.404 Y124.671 E10.2532
G1 X138.188 Y125.584 E10.27567
G1 X137.88 Y126.508 E10.29899
G1 X137.519 Y127.336 E10.32063
G1 X137.053 Y128.19 E10.34392
G1 X136.531 Y128.971 E10.36642
G1 X135.965 Y129.675 E10.38805
G1 X135.317 Y130.352 E10.41049
G1 X134.582 Y130.993 E10.43385
G1 X133.851 Y131.524 E10.45548
G1 X133.048 Y132.007 E10.47792
G1 X132.171 Y132.432 E10.50126
G1 X131.327 Y132.752 E10.52288
G1 X130.389 Y133.016 E10.54621
G1 X129.462 Y133.188 E10.56879
G1 X128.311 Y133.286 E10.59645
G1 X127.67 Y133.3 E10.61181
G1 X102.57 Y133.299 E11.21289
G1 X101.854 Y133.289 E11.23003
G1 X100.918 Y133.235 E11.25248
G1 X100.024 Y133.103 E11.27413
G1 X99.111 Y132.887 E11.29659
G1 X98.187 Y132.578 E11.31993
G1 X97.36 Y132.217 E11.34153
G1 X96.505 Y131.75 E11.36486
G1 X95.725 Y131.228 E11.38734
G1 X95.021 Y130.662 E11.40897
G1 X94.319 Y129.987 E11.43229
G1 X93.726 Y129.306 E11.45392
G1 X93.174 Y128.547 E11.47639
G1 X92.674 Y127.711 E11.49972
G1 X92.266 Y126.866 E11.52219
G1 X91.946 Y126.022 E11.54381
G1 X91.683 Y125.084 E11.56714
G1 X91.511 Y124.155 E11.58976
G1 X91.413 Y122.976 E11.61809
G1 X91.4 Y122.358 E11.63289
G1 X91.401 Y97.231 E12.23462
G1 X91.411 Y96.548 E12.25098
G1 X91.466 Y95.611 E12.27345
G1 X91.598 Y94.718 E12.29507
G1 X91.815 Y93.805 E12.31754
G1 X92.112 Y92.914 E12.34003
G1 X92.502 Y92.022 E12.36335
G1 X92.953 Y91.2 E12.3858
G1 X93.476 Y90.42 E12.40829
G1 X94.043 Y89.716 E12.42994
G0 F1800 X94.355 Y89.967
G1 F1200 X94.981 Y89.317 E12.45155
G1 X95.662 Y88.724 E12.47317
G1 X96.394 Y88.194 E12.49481
G1 X97.169 Y87.731 E12.51643
G1 X97.982 Y87.338 E12.53806
G1 X98.827 Y87.018 E12.5597
G1 X99.696 Y86.775 E12.5813
G1 X100.584 Y86.609 E12.60294
G1 X101.723 Y86.513 E12.63031
G1 X102.33 Y86.5 E12.64485
G1 X127.293 Y86.5 E13.24265
G1 X128.137 Y86.511 E13.26286
G1 X129.039 Y86.564 E13.2845
G1 X129.932 Y86.696 E13.30611
G1 X130.81 Y86.907 E13.32774
G1 X131.666 Y87.195 E13.34937
G1 X132.493 Y87.557 E13.37098
G1 X133.285 Y87.992 E13.39262
G1 X134.036 Y88.494 E13.41426
G1 X134.739 Y89.061 E13.43588
G1 X135.389 Y89.688 E13.45751
G1 X135.981 Y90.37 E13.47914
G1 X136.511 Y91.101 E13.50076
G1 X136.973 Y91.877 E13.52239
G1 X137.366 Y92.69 E13.54401
G1 X137.684 Y93.535 E13.56563
G1 X137.927 Y94.405 E13.58726
G1 X138.092 Y95.293 E13.60889
G1 X138.187 Y96.423 E13.63605
G1 X138.2 Y97.03 E13.65059
G1 X138.199 Y122.09 E14.25071
G1 X138.19 Y122.817 E14.26812
G1 X138.139 Y123.719 E14.28975
G1 X138.008 Y124.613 E14.31139
G1 X137.799 Y125.491 E14.33301
G1 X137.513 Y126.348 E14.35464
G1 X137.152 Y127.176 E14.37627
G1 X136.72 Y127.968 E14.39788
G1 X136.219 Y128.72 E14.41951
G1 X135.653 Y129.424 E14.44115
G1 X135.028 Y130.075 E14.46276
G1 X134.347 Y130.669 E14.4844
G1 X133.616 Y131.2 E14.50603
G1 X132.842 Y131.664 E14.52765
G1 X132.029 Y132.058 E14.54928
G1 X131.185 Y132.378 E14.5709
G1 X130.315 Y132.623 E14.59254
G1 X129.428 Y132.789 E14.61415
G1 X128.277 Y132.887 E14.64181
G1 X127.67 Y132.9 E14.65635
G1 X102.575 Y132.899 E15.25731
G1 X101.877 Y132.89 E15.27403
G1 X100.976 Y132.839 E15.29564
G1 X100.082 Y132.707 E15.31728
G1 X99.204 Y132.498 E15.33889
G1 X98.347 Y132.211 E15.36054
G1 X97.52 Y131.85 E15.38214
G1 X96.727 Y131.417 E15.40378
G1 X95.976 Y130.916 E15.4254
G1 X95.272 Y130.35 E15.44703
G1 X94.621 Y129.724 E15.46866
G1 X94.028 Y129.043 E15.49028
G1 X93.498 Y128.312 E15.51191
G1 X93.034 Y127.537 E15.53354
G1 X92.64 Y126.724 E15.55517
G1 X92.32 Y125.88 E15.57679
G1 X92.076 Y125.01 E15.59843
G1 X91.91 Y124.122 E15.62006
G1 X91.813 Y122.967 E15.64782
G1 X91.8 Y122.358 E15.6624
G1 X91.801 Y97.236 E16.26401
G1 X91.81 Y96.571 E16.27993
G1 X91.862 Y95.669 E16.30157
G1 X91.994 Y94.776 E16.32319
G1 X92.204 Y93.898 E16.34481
G1 X92.491 Y93.041 E16.36645
G1 X92.853 Y92.214 E16.38807
G1 X93.286 Y91.422 E16.40968
G1 X93.788 Y90.671 E16.43132
G1 X94.355 Y89.967 E16.45296
G1 F2400 E14.45296
;MESH:talking book-dummy button 3.stl
G0 F1800 X101.347 Y123.353
G0 X114.643 Y123.365
G0 X114.643 Y114.63
;TYPE:WALL-INNER
G1 F2400 E16.45296
G1 F1200 X114.47 Y114.616 E16.45712
G1 X114.317 Y114.576 E16.46091
G1 X114.17 Y114.512 E16.46475
G1 X114.04 Y114.429 E16.46844
G1 X113.93 Y114.332 E16.47195
G1 X113.84 Y114.228 E16.47525
G1 X113.77 Y114.119 E16.47835
G1 X113.718 Y114.011 E16.48122
G1 X113.677 Y113.89 E16.48428
G1 X113.651 Y113.762 E16.48741
G1 X113.643 Y113.63 E16.49057
G1 X113.643 Y108.162 E16.62152
G1 X112.773 Y108.587 E16.6447
G1 X112.337 Y108.688 E16.65542
G1 X112.028 Y108.641 E16.66291
G1 X111.828 Y108.552 E16.66815
G1 X111.698 Y108.461 E16.67195
G1 X111.601 Y108.371 E16.67512
G1 X111.513 Y108.262 E16.67847
G1 X111.438 Y108.136 E16.68198
G1 X111.381 Y107.996 E16.6856
G1 X111.347 Y107.861 E16.68894
G1 X111.333 Y107.688 E16.69309
G1 X111.333 Y106.578 E16.71967
G1 X111.347 Y106.405 E16.72383
G1 X111.378 Y106.278 E16.72696
G1 X111.433 Y106.141 E16.7305
G1 X111.504 Y106.018 E16.7339
G1 X111.588 Y105.91 E16.73717
G1 X111.706 Y105.798 E16.74107
G1 X111.848 Y105.702 E16.74517
G1 X112.687 Y105.238 E16.76813
G1 X113.36 Y104.727 E16.78837
G1 X113.858 Y104.216 E16.80546
G1 X114.213 Y103.676 E16.82093
G1 X114.322 Y103.539 E16.82513
G1 X114.463 Y103.415 E16.82962
G1 X114.637 Y103.315 E16.83443
G1 X114.836 Y103.249 E16.83945
G1 X115.049 Y103.227 E16.84458
G1 X115.785 Y103.227 E16.8622
G1 X115.984 Y103.246 E16.86699
G1 X116.171 Y103.304 E16.87168
G1 X116.337 Y103.392 E16.87618
G1 X116.476 Y103.503 E16.88044
G1 X116.586 Y103.628 E16.88442
G1 X116.669 Y103.757 E16.8881
G1 X116.726 Y103.886 E16.89147
G1 X116.771 Y104.054 E16.89564
G1 X116.786 Y104.227 E16.8998
G1 X116.786 Y113.63 E17.12497
G1 X116.771 Y113.803 E17.12913
G1 X116.744 Y113.916 E17.13192
G1 X116.694 Y114.048 E17.1353
G1 X116.63 Y114.167 E17.13853
G1 X116.543 Y114.284 E17.14202
G1 X116.431 Y114.394 E17.14578
G1 X116.296 Y114.49 E17.14975
G1 X116.14 Y114.566 E17.1539
G1 X115.958 Y114.616 E17.15842
G1 X115.785 Y114.63 E17.16258
G1 X114.643 Y114.63 E17.18993
G0 F1800 X114.643 Y114.23
G1 F1200 X114.539 Y114.222 E17.19243
G1 X114.447 Y114.198 E17.1947
G1 X114.359 Y114.159 E17.19701
G1 X114.281 Y114.11 E17.19921
G1 X114.215 Y114.052 E17.20132
G1 X114.161 Y113.989 E17.20331
G1 X114.088 Y113.859 E17.20688
G1 X114.051 Y113.734 E17.21
G1 X114.043 Y113.63 E17.2125
G1 X114.043 Y107.478 E17.35982
G1 X113.901 Y107.581 E17.36402
G1 X113.813 Y107.634 E17.36648
G1 X112.597 Y108.228 E17.39889
G1 X112.335 Y108.288 E17.40533
G1 X112.15 Y108.26 E17.40981
G1 X112.03 Y108.207 E17.41295
G1 X111.952 Y108.152 E17.41523
G1 X111.894 Y108.098 E17.41713
G1 X111.841 Y108.033 E17.41914
G1 X111.796 Y107.957 E17.42125
G1 X111.762 Y107.873 E17.42342
G1 X111.741 Y107.792 E17.42543
G1 X111.733 Y107.688 E17.42793
G1 X111.733 Y106.578 E17.45451
G1 X111.739 Y106.486 E17.45672
G1 X111.76 Y106.398 E17.45888
G1 X111.793 Y106.316 E17.461
G1 X111.835 Y106.242 E17.46304
G1 X111.886 Y106.177 E17.46502
G1 X111.956 Y106.11 E17.46734
G1 X112.042 Y106.052 E17.46982
G1 X112.906 Y105.574 E17.49347
G1 X113.626 Y105.028 E17.5151
G1 X114.171 Y104.468 E17.53382
G1 X114.547 Y103.896 E17.55021
G1 X114.612 Y103.814 E17.55272
G1 X114.697 Y103.74 E17.55541
G1 X114.802 Y103.68 E17.55831
G1 X114.945 Y103.635 E17.5619
G1 X115.049 Y103.627 E17.5644
G1 X115.785 Y103.627 E17.58202
G1 X115.905 Y103.638 E17.58491
G1 X116.017 Y103.673 E17.58772
G1 X116.116 Y103.726 E17.59041
G1 X116.2 Y103.792 E17.59297
G1 X116.266 Y103.867 E17.59536
G1 X116.315 Y103.945 E17.59757
G1 X116.35 Y104.022 E17.59959
G1 X116.377 Y104.123 E17.60209
G1 X116.386 Y104.227 E17.60459
G1 X116.386 Y113.63 E17.82977
G1 X116.377 Y113.734 E17.83227
G1 X116.361 Y113.802 E17.83394
G1 X116.331 Y113.881 E17.83597
G1 X116.292 Y113.952 E17.83791
G1 X116.24 Y114.022 E17.83999
G1 X116.173 Y114.089 E17.84226
G1 X116.092 Y114.146 E17.84464
G1 X115.998 Y114.192 E17.84714
G1 X115.889 Y114.222 E17.84985
G1 X115.785 Y114.23 E17.85235
G1 X114.643 Y114.23 E17.87969
G1 F2400 E15.87969
G0 F1800 X127 Y121.7
G1 F2400 E17.87969
G1 F1200 X127 Y97.7 E18.45443
G1 X103 Y97.7 E19.02917
G1 X103.001 Y121.699 E19.60388
G1 X127 Y121.7 E20.17859
G0 F1800 X127.4 Y122.1
G1 F1200 X127.4 Y97.3 E20.77248
G1 X102.6 Y97.3 E21.36637
G1 X102.601 Y122.099 E21.96024
G1 X127.4 Y122.1 E22.55411
G0 F1800 X127.8 Y122.5
;TYPE:WALL-OUTER
G1 F1200 X127.8 Y96.9 E23.13651
G1 X102.2 Y96.9 E23.71891
G1 X102.201 Y122.499 E24.30128
G1 X127.8 Y122.5 E24.88366
G1 F2400 E22.88366
G0 F1800 X114.608 Y113.828
G1 F2400 E24.88366
G1 F1200 X114.548 Y113.807 E24.88511
G1 X114.5 Y113.771 E24.88647
G1 X114.468 Y113.728 E24.88769
G1 X114.444 Y113.657 E24.88939
G1 X114.443 Y106.695 E25.04778
G1 X113.667 Y107.257 E25.06958
G1 X112.421 Y107.868 E25.10115
G1 X112.334 Y107.888 E25.10318
G1 X112.251 Y107.876 E25.10509
G1 X112.186 Y107.825 E25.10697
G1 X112.154 Y107.778 E25.10826
G1 X112.135 Y107.72 E25.10965
G1 X112.135 Y106.543 E25.13643
G1 X112.153 Y106.49 E25.1377
G1 X112.184 Y106.444 E25.13896
G1 X112.236 Y106.402 E25.14048
G1 X113.125 Y105.91 E25.1636
G1 X113.892 Y105.328 E25.1855
G1 X114.484 Y104.72 E25.20481
G1 X114.881 Y104.116 E25.22125
G1 X114.931 Y104.064 E25.22289
G1 X115.014 Y104.029 E25.22494
G1 X115.845 Y104.03 E25.24385
G1 X115.924 Y104.082 E25.246
G1 X115.983 Y104.172 E25.24845
G1 X115.983 Y113.665 E25.46441
G1 X115.967 Y113.714 E25.46558
G1 X115.915 Y113.783 E25.46755
G1 X115.839 Y113.828 E25.46956
G1 X114.608 Y113.828 E25.49756
G1 F2400 E23.49756
G0 F1800 X126.64 Y121.339
;TYPE:SKIN
G1 F2400 E25.49756
G1 F1200 X103.362 Y121.338 E26.05501
G1 X103.36 Y98.06 E26.61245
G1 X126.64 Y98.06 E27.16995
G1 X126.64 Y121.339 E27.72742
G1 F2400 E25.72742
G0 F1800 X126.64 Y123.365
G0 X111.593 Y123.365
G0 X111.593 Y115.655
G1 F2400 E27.72742
G1 F1200 X118.442 Y115.653 E27.89143
