;FLAVOR:Marlin
;TIME:8702
;Filament used: 5.58298m
;Layer height: 0.2
;MINX:42.1
;MINY:76.086
;MINZ:0.2
;MAXX:187.899
;MAXY:175.885
;MAXZ:2
;Generated with Cura_SteamEngine 5.4.0-alpha+testing_1
M140 S60
M105
M190 S60
M104 S200
M105
M109 S200
M82 ;absolute extrusion mode
 G28 ; home all axes
 M420 S1
 M117 ; Purge extruder
 G92 E0 ; reset extruder
 G1 Z1.0 F3000 ; move z up little to prevent scratching of surface
 G1 X2 Y20 Z0.3 F5000.0 ; move to start-line position
 G1 X2 Y200.0 Z0.3 F1500.0 E15 ; draw 1st line
 G1 X2 Y200.0 Z0.4 F5000.0 ; move to side a little
 G1 X2 Y20 Z0.4 F1500.0 E30 ; draw 2nd line
 G92 E0 ; reset extruder
 G1 Z1.0 F3000 ; move z up little to prevent scratching of surface
G92 E0
G92 E0
G1 F2400 E-2
;LAYER_COUNT:10
;LAYER:0
M107
G0 F3600 X47.292 Y77.939 Z0.2
;TYPE:SKIRT
G1 F2400 E0
G1 F600 X48.068 Y77.477 E0.03605
G1 X49.042 Y77.009 E0.07917
G1 X50.021 Y76.642 E0.1209
G1 X50.925 Y76.392 E0.15834
G1 X52.001 Y76.196 E0.20199
G1 X53.172 Y76.1 E0.24888
G1 X53.83 Y76.086 E0.27515
G1 X170.277 Y76.087 E4.9228
G1 X171.032 Y76.1 E4.95294
G1 X172.038 Y76.162 E4.99317
G1 X172.967 Y76.301 E5.03066
G1 X173.95 Y76.536 E5.071
G1 X174.873 Y76.844 E5.10984
G1 X175.895 Y77.29 E5.15434
G1 X176.717 Y77.742 E5.19178
G1 X177.526 Y78.28 E5.23056
G1 X178.368 Y78.957 E5.27368
G1 X179.041 Y79.602 E5.31089
G1 X179.671 Y80.26 E5.34725
G1 X180.342 Y80.981 E5.38656
G1 X182.066 Y82.731 E5.4846
G1 X184.405 Y84.967 E5.61375
G1 X185.074 Y85.671 E5.65251
G1 X185.661 Y86.401 E5.6899
G1 X186.28 Y87.331 E5.73449
G1 X186.728 Y88.157 E5.77199
G1 X187.13 Y89.082 E5.81225
G1 X187.46 Y90.073 E5.85394
G1 X187.698 Y91.091 E5.89566
G1 X187.827 Y91.984 E5.93167
G1 X187.884 Y92.794 E5.96408
G1 X187.898 Y93.405 E5.98847
G1 X187.899 Y158.263 E8.5771
G1 X187.886 Y159.018 E8.60724
G1 X187.824 Y160.024 E8.64746
G1 X187.685 Y160.953 E8.68495
G1 X187.45 Y161.936 E8.72529
G1 X187.142 Y162.859 E8.76413
G1 X186.696 Y163.881 E8.80864
G1 X186.244 Y164.703 E8.84608
G1 X185.706 Y165.512 E8.88485
G1 X185.029 Y166.354 E8.92797
G1 X184.383 Y167.029 E8.96526
G1 X182.967 Y168.366 E9.04299
G1 X181.136 Y170.172 E9.14564
G1 X179.041 Y172.368 E9.26677
G1 X178.351 Y173.03 E9.30494
G1 X177.509 Y173.704 E9.34798
G1 X176.757 Y174.205 E9.38405
G1 X175.775 Y174.739 E9.42866
G1 X174.947 Y175.099 E9.4647
G1 X173.89 Y175.451 E9.50916
G1 X172.909 Y175.681 E9.54938
G1 X172.015 Y175.811 E9.58544
G1 X171.225 Y175.868 E9.61705
G1 X170.604 Y175.884 E9.64184
G1 X54.026 Y175.885 E14.29472
G1 X53.275 Y175.871 E14.3247
G1 X52.27 Y175.808 E14.36489
G1 X51.377 Y175.674 E14.40093
G1 X50.396 Y175.441 E14.44118
G1 X49.37 Y175.096 E14.48438
G1 X48.415 Y174.674 E14.52605
G1 X47.623 Y174.239 E14.56212
G1 X46.784 Y173.678 E14.6024
G1 X45.916 Y172.978 E14.6469
G1 X45.267 Y172.351 E14.68292
G1 X44.604 Y171.59 E14.7232
G1 X43.948 Y170.683 E14.76788
G1 X43.453 Y169.844 E14.80676
G1 X43.032 Y168.968 E14.84555
G1 X42.665 Y167.99 E14.88724
G1 X42.405 Y167.051 E14.92613
G1 X42.209 Y165.977 E14.9697
G1 X42.114 Y164.803 E15.01671
G1 X42.1 Y164.144 E15.04302
G1 X42.101 Y87.988 E18.08257
G1 X42.114 Y87.269 E18.11127
G1 X42.177 Y86.263 E18.15151
G1 X42.31 Y85.37 E18.18754
G1 X42.552 Y84.354 E18.22922
G1 X42.874 Y83.396 E18.26956
G1 X43.308 Y82.41 E18.31256
G1 X43.742 Y81.619 E18.34857
G1 X44.366 Y80.687 E18.39334
G1 X44.98 Y79.933 E18.43215
G1 X45.679 Y79.21 E18.47228
G1 X46.387 Y78.594 E18.50974
G1 X47.292 Y77.939 E18.55433
G0 F3600 X47.497 Y78.283
G1 F600 X48.273 Y77.821 E18.59037
G1 X49.183 Y77.383 E18.63068
G1 X50.128 Y77.028 E18.67097
G1 X51.032 Y76.778 E18.70841
G1 X52.034 Y76.595 E18.74906
G1 X53.181 Y76.5 E18.795
G1 X53.83 Y76.486 E18.82091
G1 X170.27 Y76.487 E23.46828
G1 X171.008 Y76.499 E23.49774
G1 X171.979 Y76.558 E23.53656
G1 X172.908 Y76.697 E23.57405
G1 X173.856 Y76.925 E23.61297
G1 X174.746 Y77.223 E23.65043
G1 X175.702 Y77.641 E23.69207
G1 X176.524 Y78.093 E23.72951
G1 X177.304 Y78.613 E23.76693
G1 X178.117 Y79.268 E23.8086
G1 X178.752 Y79.878 E23.84374
G1 X179.378 Y80.533 E23.8799
G1 X180.049 Y81.254 E23.91921
G1 X181.781 Y83.012 E24.01771
G1 X184.115 Y85.243 E24.14658
G1 X184.762 Y85.922 E24.18401
G1 X185.349 Y86.652 E24.2214
G1 X185.928 Y87.522 E24.26311
G1 X186.376 Y88.348 E24.30062
G1 X186.75 Y89.208 E24.33804
G1 X187.08 Y90.199 E24.37973
G1 X187.302 Y91.148 E24.41863
G1 X187.431 Y92.041 E24.45464
G1 X187.484 Y92.803 E24.48513
G1 X187.498 Y93.405 E24.50916
G1 X187.499 Y158.256 E27.09751
G1 X187.487 Y158.994 E27.12697
G1 X187.428 Y159.965 E27.16579
G1 X187.289 Y160.894 E27.20328
G1 X187.061 Y161.842 E27.2422
G1 X186.763 Y162.732 E27.27966
G1 X186.345 Y163.688 E27.3213
G1 X185.893 Y164.51 E27.35874
G1 X185.373 Y165.29 E27.39616
G1 X184.718 Y166.103 E27.43783
G1 X184.106 Y166.74 E27.47309
G1 X183.505 Y167.315 E27.50628
G1 X182.686 Y168.081 E27.55104
G1 X180.855 Y169.887 E27.65369
G1 X178.764 Y172.079 E27.7746
G1 X178.074 Y172.741 E27.81276
G1 X177.287 Y173.371 E27.853
G1 X176.535 Y173.872 E27.88906
G1 X175.616 Y174.372 E27.93082
G1 X174.788 Y174.732 E27.96685
G1 X173.798 Y175.062 E28.0085
G1 X172.851 Y175.285 E28.04733
G1 X171.957 Y175.415 E28.08339
G1 X171.215 Y175.468 E28.11308
G1 X170.594 Y175.484 E28.13787
G1 X54.033 Y175.485 E32.79008
G1 X53.3 Y175.472 E32.81934
G1 X52.329 Y175.412 E32.85817
G1 X51.436 Y175.278 E32.89421
G1 X50.489 Y175.052 E32.93306
G1 X49.531 Y174.73 E32.9734
G1 X48.608 Y174.323 E33.01366
G1 X47.816 Y173.888 E33.04973
G1 X47.007 Y173.346 E33.08859
G1 X46.194 Y172.69 E33.13029
G1 X45.545 Y172.063 E33.1663
G1 X44.906 Y171.328 E33.20518
G1 X44.293 Y170.48 E33.24694
G1 X43.798 Y169.641 E33.28582
G1 X43.407 Y168.827 E33.32186
G1 X43.04 Y167.849 E33.36355
G1 X42.791 Y166.945 E33.40098
G1 X42.608 Y165.944 E33.44159
G1 X42.514 Y164.794 E33.48764
G1 X42.5 Y164.144 E33.51359
G1 X42.501 Y87.995 E36.55286
G1 X42.513 Y87.294 E36.58085
G1 X42.573 Y86.322 E36.61972
G1 X42.706 Y85.429 E36.65575
G1 X42.941 Y84.447 E36.69605
G1 X43.24 Y83.557 E36.73352
G1 X43.659 Y82.602 E36.77515
G1 X44.093 Y81.811 E36.81116
G1 X44.676 Y80.94 E36.85299
G1 X45.29 Y80.186 E36.8918
G1 X45.942 Y79.512 E36.92923
G1 X46.65 Y78.896 E36.96668
G1 X47.497 Y78.283 E37.00841
G0 F3600 X47.702 Y78.627
G1 F600 X48.478 Y78.165 E37.04446
G1 X49.324 Y77.757 E37.08195
G1 X50.235 Y77.414 E37.1208
G1 X51.139 Y77.164 E37.15823
G1 X52.067 Y76.994 E37.19589
G1 X53.214 Y76.899 E37.24182
G1 X53.83 Y76.886 E37.26641
G1 X170.264 Y76.887 E41.91355
G1 X170.984 Y76.898 E41.94229
G1 X171.921 Y76.954 E41.97975
G1 X172.814 Y77.086 E42.01578
G1 X173.762 Y77.314 E42.0547
G1 X174.618 Y77.602 E42.09074
G1 X175.509 Y77.992 E42.12956
G1 X176.331 Y78.444 E42.167
G1 X177.082 Y78.946 E42.20306
G1 X177.84 Y79.557 E42.24191
G1 X178.463 Y80.155 E42.27638
G1 X179.085 Y80.805 E42.31229
G1 X179.764 Y81.535 E42.35208
G1 X181.496 Y83.293 E42.45058
G1 X183.825 Y85.519 E42.57916
G1 X184.472 Y86.198 E42.6166
G1 X185.037 Y86.902 E42.65262
G1 X185.576 Y87.713 E42.69149
G1 X186.024 Y88.539 E42.72899
G1 X186.383 Y89.367 E42.76501
G1 X186.691 Y90.291 E42.80389
G1 X186.906 Y91.205 E42.84136
G1 X187.035 Y92.098 E42.87737
G1 X187.084 Y92.812 E42.90594
G1 X187.098 Y93.405 E42.92961
G1 X187.099 Y158.25 E45.51772
G1 X187.088 Y158.97 E45.54646
G1 X187.032 Y159.907 E45.58392
G1 X186.9 Y160.8 E45.61995
G1 X186.672 Y161.748 E45.65887
G1 X186.384 Y162.604 E45.69491
G1 X185.994 Y163.495 E45.73373
G1 X185.542 Y164.317 E45.77117
G1 X185.04 Y165.068 E45.80723
G1 X184.429 Y165.826 E45.84608
G1 X183.829 Y166.451 E45.88066
G1 X183.232 Y167.023 E45.91366
G1 X182.405 Y167.796 E45.95884
G1 X180.574 Y169.602 E46.06149
G1 X178.487 Y171.79 E46.18217
G1 X177.797 Y172.452 E46.22034
G1 X177.065 Y173.038 E46.25776
G1 X176.313 Y173.539 E46.29383
G1 X175.457 Y174.005 E46.33273
G1 X174.629 Y174.365 E46.36876
G1 X173.706 Y174.673 E46.4076
G1 X172.793 Y174.889 E46.44504
G1 X171.899 Y175.019 E46.4811
G1 X171.205 Y175.068 E46.50887
G1 X170.584 Y175.084 E46.53366
G1 X54.04 Y175.085 E51.18519
G1 X53.324 Y175.073 E51.21377
G1 X52.388 Y175.016 E51.25119
G1 X51.495 Y174.882 E51.28723
G1 X50.582 Y174.663 E51.32471
G1 X49.692 Y174.364 E51.36218
G1 X48.801 Y173.972 E51.40103
G1 X48.009 Y173.537 E51.4371
G1 X47.23 Y173.014 E51.47455
G1 X46.472 Y172.402 E51.51343
G1 X45.823 Y171.775 E51.54945
G1 X45.208 Y171.066 E51.58691
G1 X44.637 Y170.276 E51.62581
G1 X44.159 Y169.468 E51.66328
G1 X43.768 Y168.654 E51.69932
G1 X43.426 Y167.743 E51.73816
G1 X43.177 Y166.839 E51.77558
G1 X43.007 Y165.911 E51.81324
G1 X42.913 Y164.761 E51.85929
G1 X42.9 Y164.144 E51.88392
G1 X42.901 Y88.001 E54.92295
G1 X42.912 Y87.318 E54.95022
G1 X42.969 Y86.381 E54.98768
G1 X43.102 Y85.488 E55.02372
G1 X43.33 Y84.541 E55.0626
G1 X43.619 Y83.685 E55.09866
G1 X44.01 Y82.794 E55.13749
G1 X44.444 Y82.003 E55.1735
G1 X44.987 Y81.192 E55.21246
G1 X45.578 Y80.464 E55.24988
G1 X46.205 Y79.814 E55.28593
G1 X46.913 Y79.198 E55.32338
G1 X47.702 Y78.627 E55.36225
G0 F3600 X47.907 Y78.971
G1 F600 X48.683 Y78.509 E55.3983
G1 X49.497 Y78.118 E55.43434
G1 X50.342 Y77.799 E55.47039
G1 X51.212 Y77.557 E55.50643
G1 X52.1 Y77.393 E55.54247
G1 X53.223 Y77.299 E55.58745
G1 X53.83 Y77.286 E55.61168
G1 X170.258 Y77.287 E60.25858
G1 X170.961 Y77.297 E60.28664
G1 X171.863 Y77.35 E60.3227
G1 X172.756 Y77.482 E60.35873
G1 X173.634 Y77.693 E60.39477
G1 X174.49 Y77.981 E60.43082
G1 X175.317 Y78.343 E60.46685
G1 X176.109 Y78.777 E60.50289
G1 X176.86 Y79.279 E60.53895
G1 X177.563 Y79.846 E60.575
G1 X178.174 Y80.432 E60.60878
G1 X178.792 Y81.077 E60.64444
G1 X179.479 Y81.816 E60.68471
G1 X181.211 Y83.574 E60.78321
G1 X183.536 Y85.795 E60.91154
G1 X184.16 Y86.448 E60.94759
G1 X184.725 Y87.152 E60.98362
G1 X185.225 Y87.904 E61.01966
G1 X185.657 Y88.698 E61.05574
G1 X186.016 Y89.526 E61.09176
G1 X186.302 Y90.383 E61.12781
G1 X186.51 Y91.262 E61.16387
G1 X186.639 Y92.155 E61.19988
G1 X186.684 Y92.822 E61.22656
G1 X186.698 Y93.405 E61.24983
G1 X186.699 Y158.244 E63.8377
G1 X186.689 Y158.947 E63.86576
G1 X186.636 Y159.849 E63.90182
G1 X186.504 Y160.742 E63.93785
G1 X186.293 Y161.62 E63.97389
G1 X186.005 Y162.476 E64.00994
G1 X185.643 Y163.303 E64.04597
G1 X185.209 Y164.095 E64.08202
G1 X184.707 Y164.846 E64.11807
G1 X184.14 Y165.549 E64.15412
G1 X183.552 Y166.162 E64.18802
G1 X182.959 Y166.731 E64.22082
G1 X182.124 Y167.511 E64.26643
G1 X180.293 Y169.317 E64.36907
G1 X178.198 Y171.514 E64.49024
G1 X177.547 Y172.14 E64.52628
G1 X176.843 Y172.705 E64.56231
G1 X176.091 Y173.206 E64.59838
G1 X175.298 Y173.638 E64.63442
G1 X174.47 Y173.998 E64.67045
G1 X173.613 Y174.284 E64.70651
G1 X172.735 Y174.493 E64.74253
G1 X171.841 Y174.623 E64.77859
G1 X171.195 Y174.668 E64.80444
G1 X170.574 Y174.684 E64.82923
G1 X54.046 Y174.685 E69.48011
G1 X53.348 Y174.674 E69.50798
G1 X52.447 Y174.62 E69.544
G1 X51.554 Y174.486 E69.58004
G1 X50.676 Y174.274 E69.61609
G1 X49.82 Y173.985 E69.65215
G1 X48.994 Y173.621 E69.68818
G1 X48.202 Y173.186 E69.72424
G1 X47.453 Y172.682 E69.76028
G1 X46.75 Y172.114 E69.79635
G1 X46.101 Y171.487 E69.83236
G1 X45.51 Y170.804 E69.86841
G1 X44.981 Y170.072 E69.90446
G1 X44.52 Y169.295 E69.94052
G1 X44.129 Y168.481 E69.97656
G1 X43.811 Y167.636 E70.0126
G1 X43.57 Y166.766 E70.04863
G1 X43.406 Y165.878 E70.08467
G1 X43.313 Y164.752 E70.12976
G1 X43.3 Y164.144 E70.15403
G1 X43.301 Y88.007 E73.19283
G1 X43.311 Y87.342 E73.21937
G1 X43.365 Y86.44 E73.25544
G1 X43.498 Y85.547 E73.29147
G1 X43.709 Y84.669 E73.32751
G1 X43.998 Y83.813 E73.36357
G1 X44.361 Y82.986 E73.39962
G1 X44.795 Y82.195 E73.43563
G1 X45.298 Y81.444 E73.4717
G1 X45.866 Y80.742 E73.50775
G1 X46.493 Y80.092 E73.54379
G1 X47.175 Y79.5 E73.57984
G1 X47.907 Y78.971 E73.61588
G1 F2400 E71.61588
;MESH:talking book2- board button.stl
G0 F3600 X59.777 Y94.702
;TYPE:WALL-INNER
G1 F2400 E73.61588
G1 F600 X59.417 Y94.843 E73.63131
G1 X59.115 Y94.921 E73.64376
G1 X58.822 Y94.967 E73.6556
G1 X58.53 Y94.985 E73.66728
G1 X58.2 Y94.969 E73.68046
G1 X57.793 Y94.901 E73.69693
G1 X57.491 Y94.812 E73.7095
G1 X57.223 Y94.702 E73.72106
G1 X56.957 Y94.56 E73.7331
G1 X56.702 Y94.387 E73.74539
G1 X56.483 Y94.206 E73.75673
G1 X56.272 Y93.994 E73.76867
G1 X56.076 Y93.755 E73.78101
G1 X55.901 Y93.484 E73.79388
G1 X55.768 Y93.224 E73.80554
G1 X55.646 Y92.91 E73.81899
G1 X55.611 Y92.79 E73.82397
G1 X55.536 Y92.454 E73.83771
G1 X55.502 Y92.086 E73.85246
G1 X55.506 Y91.782 E73.8646
G1 X55.546 Y91.469 E73.87719
G1 X55.613 Y91.174 E73.88927
G1 X55.649 Y91.053 E73.89431
G1 X55.768 Y90.748 E73.90737
G1 X55.901 Y90.488 E73.91903
G1 X56.075 Y90.219 E73.93182
G1 X56.267 Y89.982 E73.94399
G1 X56.359 Y89.885 E73.94933
G1 X56.67 Y89.608 E73.96595
G1 X56.832 Y89.492 E73.9739
G1 X57.081 Y89.342 E73.9855
G1 X57.175 Y89.294 E73.98971
G1 X57.454 Y89.174 E74.00184
G1 F588.2 X57.753 Y89.073 E74.01468
G1 F541.8 X58.044 Y88.987 E74.0281
G1 F521.7 X58.483 Y88.961 E74.04828
G1 F529.8 X58.772 Y88.97 E74.06135
G1 F518.4 X58.976 Y88.989 E74.07082
G1 F545.5 X59.265 Y89.078 E74.08409
G1 F591.1 X59.558 Y89.179 E74.09665
G1 F600 X59.823 Y89.293 E74.10816
G1 X59.919 Y89.342 E74.11246
G1 X60.168 Y89.492 E74.12407
G1 X60.33 Y89.608 E74.13202
G1 X60.641 Y89.885 E74.14864
G1 X60.733 Y89.982 E74.15398
G1 X60.923 Y90.217 E74.16604
G1 X61.084 Y90.46 E74.17767
G1 X61.237 Y90.76 E74.19111
G1 X61.342 Y91.03 E74.20268
G1 X61.384 Y91.167 E74.20839
G1 X61.453 Y91.465 E74.2206
G1 X61.493 Y91.782 E74.23336
G1 X61.498 Y92.086 E74.24549
G1 X61.473 Y92.384 E74.25743
G1 X61.454 Y92.503 E74.26224
G1 X61.387 Y92.798 E74.27431
G1 X61.281 Y93.111 E74.2875
G1 X61.232 Y93.223 E74.29238
G1 X61.07 Y93.536 E74.30645
G1 X60.89 Y93.8 E74.3192
G1 X60.703 Y94.023 E74.33081
G1 X60.484 Y94.236 E74.34301
G1 X60.298 Y94.387 E74.35257
G1 X60.043 Y94.56 E74.36487
G1 X59.777 Y94.702 E74.3769
G0 F3600 X59.595 Y94.346
G1 F600 X59.366 Y94.438 E74.38675
G1 X59.048 Y94.527 E74.39993
G1 X58.79 Y94.569 E74.41036
G1 X58.604 Y94.584 E74.41781
G1 X58.26 Y94.574 E74.43155
G1 X57.899 Y94.515 E74.44615
G1 X57.637 Y94.44 E74.45702
G1 X57.405 Y94.346 E74.46702
G1 X57.176 Y94.225 E74.47735
G1 X57 Y94.11 E74.48574
G1 X56.762 Y93.919 E74.49792
G1 X56.615 Y93.776 E74.50611
G1 X56.445 Y93.581 E74.51643
G1 X56.295 Y93.366 E74.5269
G1 X56.124 Y93.042 E74.54152
G1 X56.022 Y92.774 E74.55296
G1 X55.93 Y92.385 E74.56892
G1 X55.902 Y92.086 E74.5809
G1 X55.904 Y91.823 E74.5914
G1 X55.924 Y91.629 E74.59919
G1 X56.003 Y91.263 E74.61413
G1 X56.124 Y90.93 E74.62827
G1 X56.257 Y90.67 E74.63993
G1 X56.405 Y90.445 E74.65068
G1 X56.63 Y90.179 E74.66458
G1 X56.903 Y89.933 E74.67925
G1 X57.065 Y89.817 E74.6872
G1 X57.282 Y89.688 E74.69728
G1 X57.526 Y89.575 E74.70801
G1 X57.763 Y89.492 E74.71803
G1 X58.146 Y89.41 E74.73366
G1 X58.408 Y89.387 E74.74416
G1 X58.72 Y89.395 E74.75662
G1 X58.922 Y89.42 E74.76474
G1 X59.239 Y89.492 E74.77772
G1 X59.476 Y89.576 E74.78775
G1 X59.718 Y89.688 E74.79839
G1 X59.935 Y89.817 E74.80847
G1 X60.097 Y89.933 E74.81642
G1 X60.37 Y90.179 E74.83109
G1 X60.594 Y90.444 E74.84494
G1 X60.732 Y90.65 E74.85484
G1 X60.864 Y90.905 E74.8663
G1 X60.969 Y91.175 E74.87786
G1 X61.063 Y91.555 E74.89348
G1 X61.095 Y91.823 E74.90425
G1 X61.098 Y92.086 E74.91475
G1 X61.064 Y92.414 E74.92791
G1 X60.997 Y92.709 E74.93999
G1 X60.905 Y92.974 E74.95118
G1 X60.727 Y93.33 E74.96707
G1 X60.572 Y93.557 E74.97804
G1 X60.432 Y93.726 E74.9868
G1 X60.218 Y93.937 E74.99879
G1 X60.025 Y94.092 E75.00867
G1 X59.798 Y94.241 E75.01951
G1 X59.595 Y94.346 E75.02863
G1 F2400 E73.02863
G0 F3600 X60.447 Y162.268
G1 F2400 E75.02863
G1 F600 X60.218 Y162.445 E75.04018
G1 X59.951 Y162.613 E75.05277
G1 X59.686 Y162.744 E75.06457
G1 F543 X59.122 Y162.963 E75.09126
G1 F505.3 X58.914 Y162.989 E75.10119
G1 F522.9 X58.638 Y163.008 E75.11386
G1 F526.3 X58.196 Y162.999 E75.13398
G1 F509.6 X57.902 Y162.966 E75.14788
G1 F544.2 X57.49 Y162.813 E75.16722
G1 F600 X57.223 Y162.702 E75.17876
G1 X56.957 Y162.56 E75.1908
G1 X56.702 Y162.387 E75.20309
G1 X56.483 Y162.206 E75.21443
G1 X56.336 Y162.062 E75.22265
G1 X56.141 Y161.84 E75.23444
G1 X55.965 Y161.591 E75.24661
G1 X55.901 Y161.484 E75.25159
G1 X55.768 Y161.224 E75.26324
G1 X55.645 Y160.907 E75.27681
G1 X55.609 Y160.786 E75.28185
G1 X55.536 Y160.454 E75.29542
