;FLAVOR:Marlin
;TIME:1783
;Filament used: 0.726918m
;Layer height: 0.12
;MINX:100.894
;MINY:91.952
;MINZ:0.12
;MAXX:128.665
;MAXY:124.149
;MAXZ:12.24
;Generated with Cura_SteamEngine 5.4.0-alpha+testing_1
M140 S60
M105
M190 S60
M104 S200
M105
M109 S200
M82 ;absolute extrusion mode
 G28 ; home all axes
 M420 S1
 M117 ; Purge extruder
 G92 E0 ; reset extruder
 G1 Z1.0 F3000 ; move z up little to prevent scratching of surface
 G1 X2 Y20 Z0.3 F5000.0 ; move to start-line position
 G1 X2 Y200.0 Z0.3 F1500.0 E15 ; draw 1st line
 G1 X2 Y200.0 Z0.4 F5000.0 ; move to side a little
 G1 X2 Y20 Z0.4 F1500.0 E30 ; draw 2nd line
 G92 E0 ; reset extruder
 G1 Z1.0 F3000 ; move z up little to prevent scratching of surface
G92 E0
G92 E0
G1 F2400 E-2
;LAYER_COUNT:102
;LAYER:0
M107
G0 F1800 X103.792 Y98.119 Z0.12
;TYPE:SKIRT
G1 F2400 E0
G1 F1200 X104.419 Y97.469 E0.02163
G1 X104.869 Y97.061 E0.03617
G1 X106.578 Y95.591 E0.09016
G1 X107.553 Y94.74 E0.12115
G1 X108.344 Y94.113 E0.14532
G1 X109.186 Y93.559 E0.16946
G1 X109.98 Y93.128 E0.19109
G1 X111.003 Y92.686 E0.21778
G1 X111.861 Y92.402 E0.23942
G1 X112.947 Y92.147 E0.26613
G1 X113.841 Y92.018 E0.28777
G1 X114.805 Y91.959 E0.31089
G1 X115.493 Y91.952 E0.32737
G1 X115.939 Y91.96 E0.33805
G1 X116.963 Y92.023 E0.36262
G1 X117.857 Y92.156 E0.38427
G1 X118.873 Y92.398 E0.40928
G1 X119.797 Y92.706 E0.4326
G1 X120.787 Y93.139 E0.45848
G1 X121.702 Y93.644 E0.4835
G1 X122.452 Y94.147 E0.50513
G1 X123.293 Y94.823 E0.53097
G1 X124.018 Y95.523 E0.5551
G1 X124.634 Y96.231 E0.57758
G1 X125.229 Y97.047 E0.60176
G1 X125.802 Y98.007 E0.62853
G1 X126.236 Y98.919 E0.65272
G1 X126.576 Y99.83 E0.67601
G1 X126.853 Y100.838 E0.70104
G1 X127.029 Y101.803 E0.72453
G1 X127.129 Y102.968 E0.75253
G1 X127.145 Y103.677 E0.76952
G1 X127.144 Y112.156 E0.97256
G1 X127.132 Y112.936 E0.99125
G1 X127.072 Y113.943 E1.0154
G1 X126.941 Y114.837 E1.03704
G1 X126.702 Y115.852 E1.06201
G1 X126.359 Y116.878 E1.08792
G1 X125.998 Y117.706 E1.10955
G1 X125.482 Y118.654 E1.1354
G1 X124.9 Y119.523 E1.16044
G1 X124.334 Y120.227 E1.18207
G1 X123.614 Y120.98 E1.20702
G1 X122.797 Y121.691 E1.23296
G1 X122.066 Y122.222 E1.2546
G1 X121.173 Y122.76 E1.27956
G1 X120.2 Y123.23 E1.30544
G1 X119.323 Y123.561 E1.32789
G1 X118.351 Y123.836 E1.35208
G1 X117.275 Y124.036 E1.37829
G1 X116.124 Y124.134 E1.40595
G1 X115.272 Y124.149 E1.42636
G1 X114.415 Y124.136 E1.44688
G1 X113.408 Y124.076 E1.47104
G1 X112.515 Y123.945 E1.49265
G1 X111.463 Y123.695 E1.51855
G1 X110.474 Y123.363 E1.54353
G1 X109.646 Y123.002 E1.56516
G1 X108.667 Y122.467 E1.59188
G1 X107.916 Y121.966 E1.6135
G1 X107.101 Y121.315 E1.63847
G1 X106.32 Y120.565 E1.66441
G1 X105.727 Y119.884 E1.68603
G1 X105.091 Y119.01 E1.71191
G1 X104.574 Y118.143 E1.73609
G1 X104.131 Y117.224 E1.76052
G1 X103.919 Y116.694 E1.77419
G1 X102.95 Y114.073 E1.84111
G1 X101.774 Y111.171 E1.91609
G1 X101.439 Y110.256 E1.93943
G1 X101.168 Y109.244 E1.96451
G1 X100.995 Y108.24 E1.98891
G1 X100.906 Y107.066 E2.01711
G1 X100.894 Y106.216 E2.03746
G1 X100.906 Y105.499 E2.05464
G1 X100.969 Y104.475 E2.0792
G1 X101.102 Y103.581 E2.10085
G1 X101.344 Y102.565 E2.12586
G1 X101.677 Y101.575 E2.15087
G1 X102.084 Y100.65 E2.17507
G1 X102.552 Y99.798 E2.19835
G1 X103.09 Y98.989 E2.22162
G1 X103.792 Y98.119 E2.24839
G0 F1800 X104.08 Y98.397
G1 F1200 X104.707 Y97.747 E2.27002
G1 X105.13 Y97.364 E2.28368
G1 X106.839 Y95.894 E2.33766
G1 X107.802 Y95.053 E2.36828
G1 X108.564 Y94.447 E2.3916
G1 X109.377 Y93.911 E2.41492
G1 X110.171 Y93.48 E2.43655
G1 X111.129 Y93.066 E2.46154
G1 X111.987 Y92.782 E2.48319
G1 X113.004 Y92.543 E2.5082
G1 X113.898 Y92.414 E2.52983
G1 X114.809 Y92.359 E2.55169
G1 X115.486 Y92.352 E2.5679
G1 X115.915 Y92.359 E2.57818
G1 X116.904 Y92.419 E2.60191
G1 X117.798 Y92.552 E2.62355
G1 X118.78 Y92.787 E2.64773
G1 X119.67 Y93.085 E2.67021
G1 X120.594 Y93.489 E2.69436
G1 X121.479 Y93.976 E2.71855
G1 X122.229 Y94.479 E2.74017
G1 X123.042 Y95.134 E2.76517
G1 X123.716 Y95.786 E2.78763
G1 X124.332 Y96.494 E2.8101
G1 X124.905 Y97.282 E2.83344
G1 X125.441 Y98.179 E2.85846
G1 X125.861 Y99.059 E2.88181
G1 X126.19 Y99.937 E2.90426
G1 X126.459 Y100.91 E2.92844
G1 X126.635 Y101.875 E2.95193
G1 X126.73 Y103.002 E2.97901
G1 X126.745 Y103.677 E2.99518
G1 X126.744 Y112.15 E3.19809
G1 X126.733 Y112.913 E3.21636
G1 X126.676 Y113.885 E3.23968
G1 X126.545 Y114.779 E3.26132
G1 X126.322 Y115.726 E3.28461
G1 X125.992 Y116.718 E3.30965
G1 X125.631 Y117.546 E3.33128
G1 X125.131 Y118.462 E3.35627
G1 X124.588 Y119.272 E3.37962
G1 X124.022 Y119.976 E3.40126
G1 X123.351 Y120.679 E3.42453
G1 X122.562 Y121.367 E3.4496
G1 X121.831 Y121.898 E3.47123
G1 X120.999 Y122.4 E3.4945
G1 X120.058 Y122.856 E3.51954
G1 X119.214 Y123.176 E3.54116
G1 X118.242 Y123.451 E3.56535
G1 X117.241 Y123.637 E3.58973
G1 X116.09 Y123.735 E3.6174
G1 X115.278 Y123.749 E3.63684
G1 X114.438 Y123.737 E3.65696
G1 X113.466 Y123.68 E3.68028
G1 X112.573 Y123.549 E3.70189
G1 X111.59 Y123.316 E3.72608
G1 X110.634 Y122.996 E3.75023
G1 X109.806 Y122.635 E3.77186
G1 X108.889 Y122.134 E3.79688
G1 X108.138 Y121.633 E3.8185
G1 X107.351 Y121.003 E3.84264
G1 X106.622 Y120.302 E3.86686
G1 X106.029 Y119.621 E3.88848
G1 X105.435 Y118.805 E3.91265
G1 X104.918 Y117.938 E3.93683
G1 X104.502 Y117.075 E3.95977
G1 X104.294 Y116.555 E3.97318
G1 X103.325 Y113.934 E4.0401
G1 X102.149 Y111.033 E4.11506
G1 X101.825 Y110.152 E4.13754
G1 X101.562 Y109.175 E4.16177
G1 X101.394 Y108.209 E4.18525
G1 X101.306 Y107.06 E4.21285
G1 X101.294 Y106.222 E4.23292
G1 X101.305 Y105.523 E4.24966
G1 X101.365 Y104.534 E4.27339
G1 X101.498 Y103.64 E4.29503
G1 X101.733 Y102.658 E4.31921
G1 X102.043 Y101.736 E4.3425
G1 X102.435 Y100.843 E4.36586
G1 X102.903 Y99.991 E4.38914
G1 X103.423 Y99.211 E4.41159
G1 X104.08 Y98.397 E4.43664
G0 F1800 X104.368 Y98.675
G1 F1200 X104.995 Y98.025 E4.45826
G1 X105.391 Y97.667 E4.47105
G1 X107.1 Y96.197 E4.52503
G1 X108.051 Y95.366 E4.55528
G1 X108.785 Y94.781 E4.57775
G1 X109.568 Y94.263 E4.60023
G1 X110.362 Y93.832 E4.62187
G1 X111.255 Y93.446 E4.64517
G1 X112.113 Y93.162 E4.66681
G1 X113.061 Y92.939 E4.69013
G1 X113.955 Y92.81 E4.71176
G1 X114.813 Y92.759 E4.73235
G1 X115.48 Y92.752 E4.74832
G1 X115.891 Y92.758 E4.75816
G1 X116.845 Y92.815 E4.78105
G1 X117.739 Y92.948 E4.80269
G1 X118.686 Y93.176 E4.82602
G1 X119.542 Y93.464 E4.84765
G1 X120.433 Y93.855 E4.87095
G1 X121.256 Y94.308 E4.89345
G1 X122.006 Y94.811 E4.91507
G1 X122.764 Y95.422 E4.93839
G1 X123.414 Y96.049 E4.96001
G1 X124.03 Y96.757 E4.98249
G1 X124.581 Y97.517 E5.00497
G1 X125.08 Y98.352 E5.02826
G1 X125.486 Y99.199 E5.05075
G1 X125.815 Y100.077 E5.07321
G1 X126.066 Y100.982 E5.0957
G1 X126.236 Y101.909 E5.11827
G1 X126.331 Y103.036 E5.14535
G1 X126.345 Y103.677 E5.16071
G1 X126.344 Y112.145 E5.36349
G1 X126.334 Y112.89 E5.38133
G1 X126.28 Y113.827 E5.40381
G1 X126.149 Y114.721 E5.42545
G1 X125.933 Y115.634 E5.44792
G1 X125.625 Y116.558 E5.47124
G1 X125.264 Y117.386 E5.49287
G1 X124.798 Y118.24 E5.51617
G1 X124.276 Y119.021 E5.53866
G1 X123.71 Y119.725 E5.5603
G1 X123.062 Y120.402 E5.58274
G1 X122.327 Y121.043 E5.60609
G1 X121.596 Y121.574 E5.62773
G1 X120.793 Y122.057 E5.65017
G1 X119.916 Y122.482 E5.67351
G1 X119.072 Y122.802 E5.69512
G1 X118.134 Y123.066 E5.71846
G1 X117.207 Y123.238 E5.74104
G1 X116.056 Y123.336 E5.7687
G1 X115.283 Y123.349 E5.78721
G1 X114.461 Y123.338 E5.8069
G1 X113.524 Y123.284 E5.82937
G1 X112.631 Y123.153 E5.85099
G1 X111.717 Y122.937 E5.87348
G1 X110.794 Y122.629 E5.89678
G1 X109.966 Y122.268 E5.91841
G1 X109.111 Y121.801 E5.94174
G1 X108.36 Y121.3 E5.96336
G1 X107.601 Y120.691 E5.98666
G1 X106.924 Y120.039 E6.00917
G1 X106.331 Y119.358 E6.0308
G1 X105.759 Y118.57 E6.05412
G1 X105.278 Y117.764 E6.07659
G1 X104.873 Y116.926 E6.09888
G1 X104.669 Y116.416 E6.11203
G1 X103.7 Y113.795 E6.17895
G1 X102.524 Y110.894 E6.25392
G1 X102.211 Y110.047 E6.27554
G1 X101.956 Y109.106 E6.29889
G1 X101.793 Y108.178 E6.32145
G1 X101.706 Y107.054 E6.34845
G1 X101.694 Y106.228 E6.36823
G1 X101.704 Y105.547 E6.38454
G1 X101.761 Y104.593 E6.40743
G1 X101.894 Y103.699 E6.42907
G1 X102.122 Y102.752 E6.4524
G1 X102.41 Y101.896 E6.47402
G1 X102.786 Y101.036 E6.4965
G1 X103.254 Y100.184 E6.51978
G1 X103.756 Y99.433 E6.54141
G1 X104.368 Y98.675 E6.56474
G0 F1800 X104.656 Y98.953
G1 F1200 X105.283 Y98.303 E6.58637
G1 X105.652 Y97.97 E6.59827
G1 X107.361 Y96.5 E6.65226
G1 X108.301 Y95.678 E6.68216
G1 X109.006 Y95.114 E6.70378
G1 X109.759 Y94.615 E6.72541
G1 X110.553 Y94.184 E6.74705
G1 X111.381 Y93.826 E6.76865
G1 X112.239 Y93.542 E6.79029
G1 X113.118 Y93.335 E6.81192
G1 X114.012 Y93.206 E6.83355
G1 X114.817 Y93.159 E6.85286
G1 X115.474 Y93.152 E6.86859
G1 X115.885 Y93.158 E6.87844
G1 X116.786 Y93.211 E6.90005
G1 X117.68 Y93.344 E6.92169
G1 X118.558 Y93.555 E6.94332
G1 X119.414 Y93.843 E6.96495
G1 X120.241 Y94.206 E6.98657
G1 X121.033 Y94.64 E7.0082
G1 X121.783 Y95.143 E7.02983
G1 X122.486 Y95.71 E7.05146
G1 X123.136 Y96.337 E7.07308
G1 X123.728 Y97.019 E7.09471
G1 X124.257 Y97.751 E7.11634
G1 X124.72 Y98.526 E7.13796
G1 X125.112 Y99.34 E7.15959
G1 X125.43 Y100.185 E7.18121
G1 X125.673 Y101.055 E7.20285
G1 X125.837 Y101.943 E7.22447
G1 X125.932 Y103.07 E7.25155
G1 X125.945 Y103.677 E7.26609
G1 X125.944 Y112.14 E7.46876
G1 X125.935 Y112.867 E7.48617
G1 X125.884 Y113.769 E7.50781
G1 X125.753 Y114.663 E7.52944
G1 X125.544 Y115.541 E7.55106
G1 X125.258 Y116.398 E7.57269
G1 X124.897 Y117.226 E7.59432
G1 X124.465 Y118.018 E7.61593
G1 X123.964 Y118.77 E7.63757
G1 X123.398 Y119.474 E7.6592
G1 X122.773 Y120.125 E7.68081
G1 X122.092 Y120.719 E7.70245
G1 X121.361 Y121.25 E7.72409
G1 X120.587 Y121.714 E7.7457
G1 X119.774 Y122.108 E7.76733
G1 X118.93 Y122.428 E7.78895
G1 X118.06 Y122.673 E7.81059
G1 X117.173 Y122.839 E7.8322
G1 X116.022 Y122.937 E7.85986
G1 X115.288 Y122.949 E7.87744
G1 X114.484 Y122.939 E7.8967
G1 X113.582 Y122.888 E7.91833
G1 X112.689 Y122.757 E7.93995
G1 X111.81 Y122.548 E7.96158
G1 X110.954 Y122.262 E7.9832
G1 X110.126 Y121.901 E8.00483
G1 X109.333 Y121.468 E8.02647
G1 X108.582 Y120.967 E8.04808
G1 X107.878 Y120.402 E8.0697
G1 X107.226 Y119.776 E8.09135
G1 X106.633 Y119.095 E8.11297
G1 X106.102 Y118.365 E8.13459
G1 X105.638 Y117.59 E8.15622
G1 X105.244 Y116.777 E8.17785
G1 X105.044 Y116.277 E8.19075
G1 X104.075 Y113.656 E8.25767
G1 X102.899 Y110.755 E8.33263
G1 X102.586 Y109.908 E8.35425
G1 X102.35 Y109.036 E8.37589
G1 X102.192 Y108.147 E8.39751
G1 X102.106 Y107.048 E8.42391
G1 X102.094 Y106.234 E8.4434
G1 X102.104 Y105.553 E8.45971
G1 X102.157 Y104.652 E8.48133
G1 X102.29 Y103.758 E8.50297
G1 X102.501 Y102.88 E8.5246
G1 X102.789 Y102.024 E8.54622
G1 X103.152 Y101.197 E8.56785
G1 X103.587 Y100.406 E8.58947
G1 X104.089 Y99.655 E8.6111
G1 X104.656 Y98.953 E8.63271
G1 F2400 E6.63271
;MESH:talking book-dummy button 2.stl
G0 F1800 X116.398 Y102.694
G0 X116.41 Y105.538
G0 X115.174 Y105.538
;TYPE:WALL-INNER
G1 F2400 E8.63271
G1 F1403.5 X115.174 Y112.179 E8.76869
G1 F2400 E6.76869
G0 F1800 X113.938 Y112.179
G0 X113.95 Y113.403
G0 X116.398 Y113.403
G0 X116.41 Y105.538
G0 X115.174 Y105.538
G1 F2400 E8.76869
G1 F1273.2 X115.139 Y104.836 E8.78455
G1 F1162.2 X115.139 Y104.25 E8.79904
G1 X115.036 Y104.388 E8.8033
G1 X114.518 Y104.922 E8.82169
G1 X114.784 Y104.949 E8.8283
G1 X114.877 Y104.997 E8.83089
G1 F1273.2 X115.174 Y105.538 E8.84482
G1 F2400 E6.84482
G0 F1800 X116.41 Y105.538
G0 X116.398 Y113.403
G0 X113.95 Y113.403
G0 X113.938 Y112.55
G0 X114.803 Y112.55
;TYPE:WALL-OUTER
G1 F2400 E8.84482
G1 F1200 X115.545 Y112.55 E8.8617
G1 X115.545 Y103.547 E9.06652
G1 X115.117 Y103.547 E9.07626
G1 X114.745 Y104.105 E9.09151
G1 X114.45 Y104.409 E9.10115
G1 F1116.3 X114.126 Y104.821 E9.11397
G1 F997.9 X113.35 Y105.399 E9.14044
G1 F939.3 X113.109 Y105.543 E9.1486
G1 F935.7 X112.547 Y105.848 E9.16725
G1 F946.7 X112.547 Y106.403 E9.18326
G1 F935.7 X113.369 Y105.995 E9.21003
G1 F939.3 X113.645 Y105.806 E9.21975
G1 F997.9 X114.419 Y105.242 E9.24595
G1 F1116.3 X114.601 Y105.312 E9.25072
G1 F1200 X114.694 Y105.359 E9.25309
G1 X114.803 Y105.538 E9.25786
G1 X114.803 Y112.55 E9.41738
G1 F2400 E7.41738
;MESH:NOMESH
G0 F300 X114.803 Y112.55 Z0.24
G0 F1800 X113.938 Y112.55
G0 X113.95 Y113.403
G0 X116.398 Y113.403
G0 X116.41 Y105.538
G0 X115.174 Y105.538
;TIME_ELAPSED:30.546322
;LAYER:1
M106 S85
;TYPE:WALL-INNER
;MESH:talking book-dummy button 2.stl
G1 F2400 E9.41738
G1 F701.8 X115.174 Y112.179 E9.5307
G1 F2400 E7.5307
G0 F3600 X113.938 Y112.179
G0 X113.95 Y113.403
G0 X116.398 Y113.403
G0 X116.41 Y105.538
G0 X115.174 Y105.538
G1 F2400 E9.5307
G1 F636.6 X115.139 Y104.836 E9.54392
G1 F581.1 X115.139 Y104.25 E9.55599
G1 X115.036 Y104.388 E9.55954
G1 X114.518 Y104.922 E9.57487
G1 X114.784 Y104.949 E9.58038
G1 X114.877 Y104.997 E9.58253
G1 F636.6 X115.174 Y105.538 E9.59414
G1 F2400 E7.59414
G0 F3600 X116.41 Y105.538
G0 X116.398 Y113.403
G0 X113.95 Y113.403
G0 X113.938 Y112.55
G0 X114.803 Y112.55
;TYPE:WALL-OUTER
G1 F2400 E9.59414
G1 F600 X115.545 Y112.55 E9.60821
G1 X115.545 Y103.547 E9.77889
G1 X115.117 Y103.547 E9.787
G1 X114.745 Y104.105 E9.79972
G1 X114.45 Y104.409 E9.80775
G1 F558.1 X114.126 Y104.821 E9.81843
G1 F499 X113.35 Y105.399 E9.84049
G1 F469.7 X113.109 Y105.543 E9.84729
G1 F467.8 X112.547 Y105.848 E9.86284
G1 F473.4 X112.547 Y106.403 E9.87617
G1 F467.8 X113.369 Y105.995 E9.89848
G1 F469.7 X113.645 Y105.806 E9.90659
G1 F499 X114.419 Y105.242 E9.92842
G1 F558.1 X114.601 Y105.312 E9.93239
G1 F600 X114.694 Y105.359 E9.93437
G1 X114.803 Y105.538 E9.93834
G1 X114.803 Y112.55 E10.07128
G1 F2400 E8.07128
;MESH:NOMESH
G0 F300 X114.803 Y112.55 Z0.36
G0 F3600 X114.803 Y113.415
G0 X127 Y121.1
;TIME_ELAPSED:36.215114
;LAYER:2
M106 S170
;TYPE:WALL-INNER
;MESH:talking book-dummy button 2.stl
G1 F2400 E10.07128
G1 F1800 X127 Y97.1 E10.55022
G1 X103 Y97.1 E11.02917
G1 X103 Y121.1 E11.50811
G1 X127 Y121.1 E11.98706
G0 F5400 X127.4 Y121.5
G1 F1800 X127.4 Y96.7 E12.48197
G1 X102.6 Y96.7 E12.97688
G1 X102.6 Y121.5 E13.47179
G1 X127.4 Y121.5 E13.9667
G0 F5400 X127.8 Y121.9
;TYPE:WALL-OUTER
G1 F1800 X127.8 Y96.3 E14.45204
G1 X102.2 Y96.3 E14.93737
G1 X102.2 Y121.9 E15.4227
G1 X127.8 Y121.9 E15.90803
G1 F2400 E13.90803
G0 F5400 X127.8 Y122.765
G0 X114.763 Y122.765
G0 X114.763 Y112.59
;TYPE:SKIN
G1 F2400 E15.90803
G1 F1800 X114.763 Y105.616 E16.04721
G1 X114.654 Y105.437 E16.05139
G1 X114.561 Y105.39 E16.05347
G1 F1632.7 X114.398 Y105.338 E16.05723
G1 F1392.6 X114.308 Y105.345 E16.05956
G1 F1316.3 X113.667 Y105.814 E16.08123
G1 F1306.7 X113.379 Y106.012 E16.09084
G1 F1304.3 X112.527 Y106.435 E16.11704
G1 F1318.7 X112.527 Y105.836 E16.13336
G1 F1304.3 X113.1 Y105.526 E16.1513
G1 F1309.1 X113.339 Y105.382 E16.15895
G1 F1316.3 X113.98 Y104.901 E16.18082
G1 F1392.6 X114.103 Y104.762 E16.18561
G1 F1548.4 X114.118 Y104.727 E16.18649
G1 F1698.1 X114.396 Y104.406 E16.19548
G1 F1800 X114.74 Y104.047 E16.2054
G1 X115.095 Y103.507 E16.2183
G1 X115.585 Y103.507 E16.22807
G1 X115.585 Y112.59 E16.40934
G1 X114.763 Y112.59 E16.42574
G1 F2400 E14.42574
G0 F5400 X115.384 Y104.07
;TYPE:SKIN
G1 F2400 E16.42574
G1 F1800 X115.129 Y103.816 E16.43292
G0 F5400 X114.905 Y104.157
G1 F1800 X115.384 Y104.636 E16.44644
G0 F5400 X115.384 Y105.201
G1 F1800 X114.631 Y104.448 E16.46769
G0 F5400 X114.373 Y104.757
G1 F1800 X115.384 Y105.767 E16.49621
G0 F5400 X114.962 Y105.911
G1 F1800 X115.384 Y106.333 E16.50812
G0 F5400 X114.962 Y106.476
G1 F1800 X115.384 Y106.898 E16.52003
G0 F5400 X114.962 Y107.042
G1 F1800 X115.384 Y107.464 E16.53194
G0 F5400 X114.962 Y107.608
G1 F1800 X115.384 Y108.03 E16.54385
G0 F5400 X114.962 Y108.173
G1 F1800 X115.384 Y108.596 E16.55577
G0 F5400 X114.962 Y108.739
G1 F1800 X115.384 Y109.161 E16.56768
G0 F5400 X114.962 Y109.305
G1 F1800 X115.384 Y109.727 E16.57959
G0 F5400 X114.962 Y109.87
G1 F1800 X115.384 Y110.293 E16.59152
G0 F5400 X114.962 Y110.436
G1 F1800 X115.384 Y110.858 E16.60343
G0 F5400 X114.962 Y111.002
G1 F1800 X115.384 Y111.424 E16.61534
G0 F5400 X114.962 Y111.568
G1 F1800 X115.384 Y111.99 E16.62725
G0 F5400 X115.218 Y112.389
G1 F1800 X114.962 Y112.133 E16.63447
G1 F2400 E14.63447
G0 F5400 X114.962 Y122.765
G0 X126.64 Y122.765
