;FLAVOR:Marlin
;TIME:1740
;Filament used: 0.972367m
;Layer height: 0.16
;MINX:86.1
;MINY:89.933
;MINZ:0.2
;MAXX:143.9
;MAXY:147.733
;MAXZ:10.32
;Generated with Cura_SteamEngine 5.4.0-alpha+testing_1
M140 S60
M105
M190 S60
M104 S200
M105
M109 S200
M82 ;absolute extrusion mode
 G28 ; home all axes
 M420 S1
 M117 ; Purge extruder
 G92 E0 ; reset extruder
 G1 Z1.0 F3000 ; move z up little to prevent scratching of surface
 G1 X2 Y20 Z0.3 F5000.0 ; move to start-line position
 G1 X2 Y200.0 Z0.3 F1500.0 E15 ; draw 1st line
 G1 X2 Y200.0 Z0.4 F5000.0 ; move to side a little
 G1 X2 Y20 Z0.4 F1500.0 E30 ; draw 2nd line
 G92 E0 ; reset extruder
 G1 Z1.0 F3000 ; move z up little to prevent scratching of surface
G92 E0
G92 E0
G1 F2400 E-2
;LAYER_COUNT:56
;LAYER:0
M107
G0 F3600 X89.692 Y93.044 Z0.2
;TYPE:SKIRT
G1 F2400 E0
G1 F600 X90.373 Y92.451 E0.03604
G1 X91.219 Y91.835 E0.07781
G1 X92.148 Y91.283 E0.12094
G1 X93.025 Y90.862 E0.15977
G1 X93.901 Y90.529 E0.19717
G1 X94.941 Y90.237 E0.24028
G1 X95.982 Y90.045 E0.28253
G1 X97.121 Y89.949 E0.32815
G1 X97.803 Y89.933 E0.35538
G1 X131.81 Y89.933 E1.71267
G1 X132.708 Y89.947 E1.74852
G1 X133.714 Y90.009 E1.78875
G1 X134.643 Y90.148 E1.82624
G1 X135.626 Y90.383 E1.86658
G1 X136.615 Y90.716 E1.90823
G1 X137.572 Y91.137 E1.94996
G1 X138.364 Y91.572 E1.98602
G1 X139.231 Y92.15 E2.02761
G1 X140.073 Y92.83 E2.07081
G1 X140.747 Y93.482 E2.10824
G1 X141.409 Y94.243 E2.14849
G1 X142.043 Y95.119 E2.19165
G1 X142.505 Y95.895 E2.2277
G1 X142.99 Y96.902 E2.27231
G1 X143.33 Y97.813 E2.31112
G1 X143.599 Y98.785 E2.35137
G1 X143.789 Y99.824 E2.39353
G1 X143.884 Y100.954 E2.43879
G1 X143.9 Y101.663 E2.46709
G1 X143.899 Y135.739 E3.82714
G1 X143.887 Y136.519 E3.85827
G1 X143.827 Y137.526 E3.89854
G1 X143.696 Y138.42 E3.9346
G1 X143.457 Y139.435 E3.97622
G1 X143.114 Y140.461 E4.01939
G1 X142.753 Y141.289 E4.05545
G1 X142.237 Y142.237 E4.09852
G1 X141.655 Y143.106 E4.14027
G1 X141.089 Y143.81 E4.17632
G1 X140.369 Y144.563 E4.2179
G1 X139.552 Y145.274 E4.26113
G1 X138.821 Y145.805 E4.29719
G1 X137.928 Y146.343 E4.3388
G1 X136.955 Y146.813 E4.38193
G1 X136.078 Y147.144 E4.41934
G1 X135.106 Y147.419 E4.45966
G1 X134.03 Y147.619 E4.50334
G1 X132.879 Y147.717 E4.54945
G1 X132.179 Y147.733 E4.57739
G1 X98.058 Y147.732 E5.93923
G1 X97.308 Y147.72 E5.96917
G1 X96.302 Y147.66 E6.0094
G1 X95.408 Y147.528 E6.04546
G1 X94.357 Y147.278 E6.08858
G1 X93.367 Y146.945 E6.13027
G1 X92.54 Y146.584 E6.16629
G1 X91.591 Y146.067 E6.20942
G1 X90.723 Y145.485 E6.25113
G1 X90.019 Y144.919 E6.28718
G1 X89.215 Y144.146 E6.3317
G1 X88.622 Y143.465 E6.36774
G1 X87.987 Y142.59 E6.41089
G1 X87.47 Y141.723 E6.45118
G1 X87.018 Y140.783 E6.49281
G1 X86.687 Y139.906 E6.53022
G1 X86.413 Y138.934 E6.57053
G1 X86.213 Y137.854 E6.61436
G1 X86.114 Y136.651 E6.66254
G1 X86.1 Y135.991 E6.68889
G1 X86.101 Y101.852 E8.05145
G1 X86.113 Y101.134 E8.08011
G1 X86.174 Y100.128 E8.12034
G1 X86.306 Y99.235 E8.15636
G1 X86.546 Y98.22 E8.19799
G1 X86.878 Y97.227 E8.23978
G1 X87.268 Y96.335 E8.27864
G1 X87.751 Y95.449 E8.31891
G1 X88.352 Y94.551 E8.36204
G1 X88.919 Y93.847 E8.39812
G1 X89.692 Y93.044 E8.44261
G0 F3600 X89.955 Y93.346
G1 F600 X90.636 Y92.753 E8.47865
G1 X91.424 Y92.179 E8.51756
G1 X92.321 Y91.644 E8.55924
G1 X93.198 Y91.223 E8.59807
G1 X94.043 Y90.903 E8.63413
G1 X95.049 Y90.622 E8.67582
G1 X96.016 Y90.444 E8.71506
G1 X97.155 Y90.348 E8.76068
G1 X97.812 Y90.333 E8.78691
G1 X131.804 Y90.333 E10.14361
G1 X132.684 Y90.346 E10.17873
G1 X133.655 Y90.405 E10.21756
G1 X134.584 Y90.544 E10.25505
G1 X135.532 Y90.772 E10.29397
G1 X136.454 Y91.082 E10.33279
G1 X137.379 Y91.488 E10.37311
G1 X138.171 Y91.923 E10.40917
G1 X138.98 Y92.461 E10.44795
G1 X139.795 Y93.118 E10.48973
G1 X140.445 Y93.745 E10.52578
G1 X141.107 Y94.506 E10.56604
G1 X141.699 Y95.324 E10.60634
G1 X142.161 Y96.1 E10.64238
G1 X142.615 Y97.042 E10.68412
G1 X142.944 Y97.92 E10.72154
G1 X143.213 Y98.892 E10.76179
G1 X143.39 Y99.858 E10.80099
G1 X143.485 Y100.988 E10.84625
G1 X143.5 Y101.663 E10.8732
G1 X143.499 Y135.733 E12.233
G1 X143.488 Y136.496 E12.26346
G1 X143.431 Y137.468 E12.30232
G1 X143.3 Y138.362 E12.33838
G1 X143.077 Y139.309 E12.37722
G1 X142.747 Y140.301 E12.41894
G1 X142.386 Y141.129 E12.45499
G1 X141.886 Y142.045 E12.49664
G1 X141.343 Y142.855 E12.53557
G1 X140.777 Y143.559 E12.57162
G1 X140.106 Y144.262 E12.61041
G1 X139.317 Y144.95 E12.65219
G1 X138.586 Y145.481 E12.68825
G1 X137.754 Y145.983 E12.72703
G1 X136.813 Y146.439 E12.76877
G1 X135.969 Y146.759 E12.80479
G1 X134.997 Y147.034 E12.84511
G1 X133.996 Y147.22 E12.88575
G1 X132.845 Y147.318 E12.93185
G1 X132.17 Y147.333 E12.9588
G1 X98.064 Y147.332 E14.32004
G1 X97.331 Y147.321 E14.3493
G1 X96.36 Y147.264 E14.38812
G1 X95.466 Y147.132 E14.42419
G1 X94.484 Y146.899 E14.46447
G1 X93.527 Y146.578 E14.50476
G1 X92.7 Y146.217 E14.54078
G1 X91.813 Y145.734 E14.58109
G1 X90.974 Y145.173 E14.62137
G1 X90.27 Y144.607 E14.65742
G1 X89.517 Y143.883 E14.69911
G1 X88.924 Y143.202 E14.73515
G1 X88.331 Y142.385 E14.77545
G1 X87.814 Y141.518 E14.81574
G1 X87.392 Y140.641 E14.85458
G1 X87.072 Y139.797 E14.89061
G1 X86.798 Y138.825 E14.93091
G1 X86.612 Y137.821 E14.97167
G1 X86.514 Y136.642 E15.01888
G1 X86.5 Y135.991 E15.04487
G1 X86.501 Y101.858 E16.4072
G1 X86.512 Y101.158 E16.43514
G1 X86.57 Y100.186 E16.474
G1 X86.702 Y99.293 E16.51003
G1 X86.926 Y98.346 E16.54887
G1 X87.245 Y97.387 E16.58921
G1 X87.635 Y96.495 E16.62806
G1 X88.102 Y95.641 E16.66691
G1 X88.664 Y94.802 E16.70722
G1 X89.231 Y94.098 E16.74329
G1 X89.955 Y93.346 E16.78496
G0 F3600 X90.218 Y93.648
G1 F600 X90.899 Y93.055 E16.821
G1 X91.659 Y92.503 E16.85849
G1 X92.495 Y92.004 E16.89735
G1 X93.34 Y91.597 E16.93478
G1 X94.185 Y91.277 E16.97084
G1 X95.122 Y91.015 E17.00968
G1 X96.05 Y90.843 E17.04735
G1 X97.189 Y90.747 E17.09297
G1 X97.821 Y90.733 E17.1182
G1 X131.798 Y90.733 E18.47429
G1 X132.66 Y90.745 E18.5087
G1 X133.597 Y90.801 E18.54616
G1 X134.49 Y90.933 E18.58219
G1 X135.438 Y91.161 E18.62111
G1 X136.294 Y91.449 E18.65716
G1 X137.186 Y91.839 E18.69601
G1 X137.978 Y92.274 E18.73208
G1 X138.758 Y92.794 E18.76949
G1 X139.517 Y93.406 E18.80841
G1 X140.167 Y94.033 E18.84445
G1 X140.805 Y94.768 E18.8833
G1 X141.355 Y95.529 E18.92077
G1 X141.817 Y96.305 E18.95682
G1 X142.24 Y97.182 E18.99568
G1 X142.569 Y98.06 E19.0331
G1 X142.82 Y98.965 E19.07059
G1 X142.991 Y99.892 E19.10821
G1 X143.086 Y101.022 E19.15347
G1 X143.1 Y101.663 E19.17906
G1 X143.099 Y135.728 E20.53867
G1 X143.089 Y136.473 E20.5684
G1 X143.035 Y137.41 E20.60586
G1 X142.904 Y138.304 E20.64193
G1 X142.688 Y139.217 E20.67937
G1 X142.38 Y140.141 E20.71825
G1 X142.019 Y140.969 E20.7543
G1 X141.553 Y141.823 E20.79313
G1 X141.031 Y142.604 E20.83062
G1 X140.465 Y143.308 E20.86667
G1 X139.817 Y143.985 E20.90408
G1 X139.082 Y144.626 E20.943
G1 X138.351 Y145.157 E20.97906
G1 X137.548 Y145.64 E21.01646
G1 X136.671 Y146.065 E21.05536
G1 X135.827 Y146.385 E21.09138
G1 X134.889 Y146.649 E21.13028
G1 X133.962 Y146.821 E21.16791
G1 X132.811 Y146.919 E21.21401
G1 X132.17 Y146.933 E21.2396
G1 X98.07 Y146.932 E22.60061
G1 X97.354 Y146.922 E22.62919
G1 X96.418 Y146.868 E22.66661
G1 X95.524 Y146.736 E22.70267
G1 X94.611 Y146.52 E22.74012
G1 X93.687 Y146.211 E22.77901
G1 X92.86 Y145.85 E22.81502
G1 X92.005 Y145.383 E22.8539
G1 X91.225 Y144.861 E22.89136
G1 X90.521 Y144.295 E22.92742
G1 X89.819 Y143.62 E22.96629
G1 X89.226 Y142.939 E23.00233
G1 X88.674 Y142.18 E23.03978
G1 X88.174 Y141.344 E23.07866
G1 X87.766 Y140.499 E23.11611
G1 X87.446 Y139.655 E23.15214
G1 X87.183 Y138.717 E23.19102
G1 X87.011 Y137.788 E23.22873
G1 X86.913 Y136.609 E23.27595
G1 X86.9 Y135.991 E23.30062
G1 X86.901 Y101.864 E24.6627
G1 X86.911 Y101.181 E24.68997
G1 X86.966 Y100.244 E24.72743
G1 X87.098 Y99.351 E24.76346
G1 X87.315 Y98.438 E24.80091
G1 X87.612 Y97.547 E24.8384
G1 X88.002 Y96.655 E24.87725
G1 X88.453 Y95.833 E24.91467
G1 X88.976 Y95.053 E24.95216
G1 X89.543 Y94.349 E24.98823
G1 X90.218 Y93.648 E25.02707
G0 F3600 X90.481 Y93.95
G1 F600 X91.162 Y93.357 E25.06312
G1 X91.894 Y92.827 E25.09919
G1 X92.669 Y92.364 E25.13522
G1 X93.482 Y91.971 E25.17126
G1 X94.327 Y91.651 E25.20732
G1 X95.196 Y91.408 E25.24333
G1 X96.084 Y91.242 E25.27939
G1 X97.223 Y91.146 E25.32501
G1 X97.83 Y91.133 E25.34924
G1 X131.793 Y91.133 E26.70478
G1 X132.637 Y91.144 E26.73847
G1 X133.539 Y91.197 E26.77453
G1 X134.432 Y91.329 E26.81056
G1 X135.31 Y91.54 E26.8466
G1 X136.166 Y91.828 E26.88265
G1 X136.993 Y92.19 E26.91868
G1 X137.785 Y92.625 E26.95474
G1 X138.536 Y93.127 E26.9908
G1 X139.239 Y93.694 E27.02685
G1 X139.889 Y94.321 E27.06289
G1 X140.481 Y95.003 E27.09894
G1 X141.011 Y95.734 E27.13497
G1 X141.473 Y96.51 E27.17102
G1 X141.866 Y97.323 E27.20706
G1 X142.184 Y98.168 E27.24309
G1 X142.427 Y99.038 E27.27915
G1 X142.592 Y99.926 E27.3152
G1 X142.687 Y101.056 E27.36045
G1 X142.7 Y101.663 E27.38469
G1 X142.699 Y135.723 E28.7441
G1 X142.69 Y136.45 E28.77311
G1 X142.639 Y137.352 E28.80917
G1 X142.508 Y138.246 E28.84523
G1 X142.299 Y139.124 E28.88126
G1 X142.013 Y139.981 E28.91732
G1 X141.652 Y140.809 E28.95337
G1 X141.22 Y141.601 E28.98937
G1 X140.719 Y142.353 E29.02544
G1 X140.153 Y143.057 E29.06149
G1 X139.528 Y143.708 E29.09751
G1 X138.847 Y144.302 E29.13358
G1 X138.116 Y144.833 E29.16964
G1 X137.342 Y145.297 E29.20566
G1 X136.529 Y145.691 E29.24172
G1 X135.685 Y146.011 E29.27774
G1 X134.815 Y146.256 E29.31382
G1 X133.928 Y146.422 E29.34983
G1 X132.777 Y146.52 E29.39594
G1 X132.17 Y146.533 E29.42017
G1 X98.075 Y146.532 E30.78097
G1 X97.377 Y146.523 E30.80884
G1 X96.476 Y146.472 E30.84485
G1 X95.582 Y146.34 E30.88092
G1 X94.704 Y146.131 E30.91694
G1 X93.847 Y145.844 E30.95302
G1 X93.02 Y145.483 E30.98903
G1 X92.227 Y145.05 E31.02509
G1 X91.476 Y144.549 E31.06112
G1 X90.772 Y143.983 E31.09718
G1 X90.121 Y143.357 E31.13322
G1 X89.528 Y142.676 E31.16926
G1 X88.998 Y141.945 E31.2053
G1 X88.534 Y141.17 E31.24135
G1 X88.14 Y140.357 E31.27741
G1 X87.82 Y139.513 E31.31344
G1 X87.576 Y138.643 E31.3495
G1 X87.41 Y137.755 E31.38556
G1 X87.313 Y136.6 E31.43182
G1 X87.3 Y135.991 E31.45613
G1 X87.301 Y101.869 E32.81801
G1 X87.31 Y101.204 E32.84456
G1 X87.362 Y100.302 E32.88062
G1 X87.494 Y99.409 E32.91665
G1 X87.704 Y98.531 E32.95268
G1 X87.991 Y97.674 E32.98875
G1 X88.353 Y96.847 E33.02478
G1 X88.786 Y96.055 E33.06081
G1 X89.288 Y95.304 E33.09686
G1 X89.855 Y94.6 E33.13294
G1 X90.481 Y93.95 E33.16896
G1 F2400 E31.16896
G0 F3600 X96.835 Y105.317
G0 X101.484 Y105.317
;TYPE:SUPPORT
G1 F2400 E33.16896
G1 F600 X101.442 Y105.379 E33.17195
G1 X101.426 Y105.459 E33.1752
G1 X101.426 Y132.268 E34.24521
G1 X101.482 Y132.351 E34.2492
G1 X101.544 Y132.393 E34.25219
G1 X101.624 Y132.409 E34.25545
G1 X128.435 Y132.407 E35.32553
G1 X128.518 Y132.351 E35.32953
G1 X128.574 Y132.268 E35.33353
G1 X128.575 Y105.458 E36.40357
G1 X128.559 Y105.378 E36.40683
G1 X128.517 Y105.316 E36.40982
G1 X128.455 Y105.274 E36.4128
G1 X128.375 Y105.258 E36.41606
G1 X101.567 Y105.261 E37.48603
G1 X101.484 Y105.317 E37.49002
G1 F2400 E35.49002
G0 F3600 X97.701 Y101.534
G1 F2400 E37.49002
G1 F600 X132.3 Y101.533 E38.87094
G1 X132.3 Y136.133 E40.2519
G1 X97.701 Y136.132 E41.63282
G1 X97.701 Y101.534 E43.01371
G1 F2400 E41.01371
G0 F3600 X97.772 Y104
G1 F2400 E43.01371
G1 F600 X132.229 Y104 E44.38896
G1 F2400 E42.38896
G0 F3600 X128 Y105.188
G1 F2400 E44.38896
G1 F600 X128 Y101.604 E44.532
G1 F2400 E42.532
G0 F3600 X128 Y100.668
G0 X120 Y100.668
G0 X120 Y101.604
G1 F2400 E44.532
G1 F600 X120 Y105.189 E44.67509
G1 F2400 E42.67509
G0 F3600 X112 Y105.191
G1 F2400 E44.67509
G1 F600 X112 Y101.604 E44.81825
G1 F2400 E42.81825
G0 F3600 X112 Y100.668
G0 X104 Y100.668
G0 X104 Y101.604
G1 F2400 E44.81825
G1 F600 X104 Y105.193 E44.9615
G1 F2400 E42.9615
G0 F3600 X101.356 Y112
G1 F2400 E44.9615
G1 F600 X97.772 Y112 E45.10454
G1 F2400 E43.10454
G0 F3600 X96.835 Y112
G0 X96.835 Y120
G0 X97.771 Y120
G1 F2400 E45.10454
G1 F600 X101.356 Y120 E45.24763
G1 F2400 E43.24763
G0 F3600 X101.357 Y128
G1 F2400 E45.24763
G1 F600 X97.771 Y128 E45.39075
G1 F2400 E43.39075
G0 F3600 X96.835 Y128
G0 X96.847 Y136.986
G0 X104 Y136.998
G0 X104 Y132.479
G1 F2400 E45.39075
G1 F600 X104 Y136.061 E45.53372
G1 F2400 E43.53372
G0 F3600 X104 Y136.998
G0 X97.771 Y136.998
G0 X97.771 Y136
G1 F2400 E45.53372
G1 F600 X132.229 Y136 E46.90901
G1 F2400 E44.90901
G0 F3600 X132.229 Y136.998
G0 X128 Y136.998
G0 X128 Y136.061
G1 F2400 E46.90901
G1 F600 X128 Y132.475 E47.05214
G1 F2400 E45.05214
G0 F3600 X128.642 Y128
G1 F2400 E47.05214
G1 F600 X132.229 Y128 E47.1953
G1 F2400 E45.1953
G0 F3600 X133.165 Y128
G0 X133.165 Y120
G0 X132.229 Y120
G1 F2400 E47.1953
G1 F600 X128.643 Y120 E47.33843
G1 F2400 E45.33843
G0 F3600 X128.646 Y112
G1 F2400 E47.33843
G1 F600 X132.229 Y112 E47.48143
G1 F2400 E45.48143
G0 F3600 X133.165 Y112
G0 X133.153 Y136.986
G0 X120 Y136.998
G0 X120 Y132.476
G1 F2400 E47.48143
G1 F600 X120 Y136.061 E47.62452
G1 F2400 E45.62452
G0 F3600 X120 Y136.998
G0 X112 Y136.998
G0 X112 Y136.061
G1 F2400 E47.62452
G1 F600 X112 Y132.478 E47.76752
G1 F2400 E45.76752
;MESH:talking book-dummy button 9mm.stl
G0 F3600 X112 Y136.998
G0 X133.153 Y136.986
G0 X133.165 Y130.409
G0 X126.576 Y130.409
;TYPE:WALL-INNER
G1 F2400 E47.76752
G1 F600 X126.575 Y107.258 E48.69153
G1 X103.426 Y107.259 E49.61546
G1 X103.424 Y130.409 E50.53942
G1 X126.576 Y130.409 E51.46347
G0 F3600 X126.976 Y130.809
G1 F600 X126.975 Y106.858 E52.41941
G1 X103.026 Y106.859 E53.37526
G1 X103.024 Y130.809 E54.33116
G1 X126.976 Y130.809 E55.28713
G0 F3600 X127.376 Y131.209
;TYPE:WALL-OUTER
G1 F600 X127.375 Y106.458 E56.22561
G1 X102.626 Y106.459 E57.164
G1 X102.624 Y131.209 E58.10244
G1 X127.376 Y131.209 E59.04095
G1 F2400 E57.04095
G0 F3600 X126.216 Y130.049
;TYPE:SKIN
G1 F2400 E59.04095
G1 F600 X103.784 Y130.049 E59.93626
G1 X103.786 Y107.619 E60.83149
G1 X126.215 Y107.618 E61.72668
G1 X126.216 Y130.049 E62.62195
G1 F2400 E60.62195
G0 F3600 X133.165 Y130.049
G0 X133.165 Y107.912
G0 X126.014 Y107.912
;TYPE:SKIN
G1 F2400 E62.62195
G1 F600 X125.92 Y107.818 E62.62725
G0 F3600 X125.354 Y107.818
G1 F600 X126.014 Y108.478 E62.66451
G0 F3600 X126.014 Y109.044
G1 F600 X124.788 Y107.818 E62.73371
G0 F3600 X124.223 Y107.818
G1 F600 X126.014 Y109.61 E62.83483
G0 F3600 X126.014 Y110.175
G1 F600 X123.657 Y107.818 E62.96787
G0 F3600 X123.091 Y107.818
G1 F600 X126.014 Y110.741 E63.13285
G0 F3600 X126.014 Y111.307
G1 F600 X122.526 Y107.818 E63.32976
G0 F3600 X121.96 Y107.818
G1 F600 X126.014 Y111.872 E63.55859
G0 F3600 X126.014 Y112.438
G1 F600 X121.394 Y107.818 E63.81936
G0 F3600 X120.828 Y107.818
G1 F600 X126.014 Y113.004 E64.11208
G0 F3600 X126.014 Y113.569
G1 F600 X120.263 Y107.818 E64.43669
G0 F3600 X119.697 Y107.818
G1 F600 X126.014 Y114.135 E64.79325
G0 F3600 X126.014 Y114.701
G1 F600 X119.131 Y107.818 E65.18175
G0 F3600 X118.566 Y107.818
G1 F600 X126.014 Y115.266 E65.60215
G0 F3600 X126.014 Y115.832
G1 F600 X118 Y107.818 E66.0545
G0 F3600 X117.434 Y107.818
G1 F600 X126.014 Y116.398 E66.53879
G0 F3600 X126.014 Y116.963
G1 F600 X116.869 Y107.818 E67.05497
G0 F3600 X116.303 Y107.818
G1 F600 X126.014 Y117.529 E67.6031
G0 F3600 X126.014 Y118.095
G1 F600 X115.737 Y107.818 E68.18318
G0 F3600 X115.172 Y107.818
G1 F600 X126.014 Y118.661 E68.79518
G0 F3600 X126.015 Y119.227
G1 F600 X114.606 Y107.818 E69.43915
G0 F3600 X114.04 Y107.818
G1 F600 X126.015 Y119.793 E70.11507
G0 F3600 X126.015 Y120.358
G1 F600 X113.475 Y107.818 E70.82288
G0 F3600 X112.909 Y107.818
G1 F600 X126.015 Y120.924 E71.56264
G0 F3600 X126.015 Y121.49
G1 F600 X112.343 Y107.818 E72.33435
G0 F3600 X111.778 Y107.818
G1 F600 X126.015 Y122.055 E73.13795
G0 F3600 X126.015 Y122.621
G1 F600 X111.212 Y107.818 E73.97349
G0 F3600 X110.646 Y107.818
G1 F600 X126.015 Y123.187 E74.84099
G0 F3600 X126.015 Y123.752
G1 F600 X110.08 Y107.818 E75.7404
G0 F3600 X109.515 Y107.818
G1 F600 X126.015 Y124.318 E76.67173
G0 F3600 X126.015 Y124.884
G1 F600 X108.949 Y107.818 E77.63501
G0 F3600 X108.383 Y107.818
G1 F600 X126.015 Y125.449 E78.63021
G0 F3600 X126.015 Y126.015
G1 F600 X107.818 Y107.818 E79.65732
G0 F3600 X107.252 Y107.818
G1 F600 X126.015 Y126.581 E80.71639
