;FLAVOR:Marlin
;TIME:609
;Filament used: 0.288161m
;Layer height: 0.16
;MINX:91.6
;MINY:90.779
;MINZ:0.2
;MAXX:138.4
;MAXY:137.579
;MAXZ:3.8
;Generated with Cura_SteamEngine 5.4.0-alpha+testing_1
M140 S60
M105
M190 S60
M104 S200
M105
M109 S200
M82 ;absolute extrusion mode
 G28 ; home all axes
 M420 S1
 M117 ; Purge extruder
 G92 E0 ; reset extruder
 G1 Z1.0 F3000 ; move z up little to prevent scratching of surface
 G1 X2 Y20 Z0.3 F5000.0 ; move to start-line position
 G1 X2 Y200.0 Z0.3 F1500.0 E15 ; draw 1st line
 G1 X2 Y200.0 Z0.4 F5000.0 ; move to side a little
 G1 X2 Y20 Z0.4 F1500.0 E30 ; draw 2nd line
 G92 E0 ; reset extruder
 G1 Z1.0 F3000 ; move z up little to prevent scratching of surface
G92 E0
G92 E0
G1 F2400 E-2
;LAYER_COUNT:21
;LAYER:0
M107
G0 F3600 X95.192 Y93.89 Z0.2
;TYPE:SKIRT
G1 F2400 E0
G1 F600 X95.873 Y93.297 E0.03604
G1 X96.719 Y92.681 E0.07781
G1 X97.648 Y92.129 E0.12094
G1 X98.525 Y91.708 E0.15977
G1 X99.401 Y91.375 E0.19717
G1 X100.441 Y91.083 E0.24028
G1 X101.482 Y90.891 E0.28253
G1 X102.621 Y90.795 E0.32815
G1 X103.303 Y90.779 E0.35538
G1 X126.31 Y90.779 E1.27364
G1 X127.208 Y90.793 E1.30949
G1 X128.214 Y90.855 E1.34971
G1 X129.143 Y90.994 E1.38721
G1 X130.126 Y91.229 E1.42754
G1 X131.115 Y91.562 E1.4692
G1 X132.072 Y91.983 E1.51092
G1 X132.864 Y92.418 E1.54699
G1 X133.731 Y92.996 E1.58858
G1 X134.573 Y93.676 E1.63177
G1 X135.247 Y94.328 E1.6692
G1 X135.909 Y95.089 E1.70946
G1 X136.543 Y95.965 E1.75262
G1 X137.005 Y96.741 E1.78866
G1 X137.49 Y97.748 E1.83327
G1 X137.83 Y98.659 E1.87208
G1 X138.099 Y99.631 E1.91234
G1 X138.289 Y100.67 E1.95449
G1 X138.384 Y101.8 E1.99975
G1 X138.4 Y102.509 E2.02806
G1 X138.399 Y125.585 E2.94907
G1 X138.387 Y126.365 E2.98021
G1 X138.327 Y127.372 E3.02047
G1 X138.196 Y128.266 E3.05653
G1 X137.957 Y129.281 E3.09815
G1 X137.614 Y130.307 E3.14133
G1 X137.253 Y131.135 E3.17738
G1 X136.737 Y132.083 E3.22046
G1 X136.155 Y132.952 E3.2622
G1 X135.589 Y133.656 E3.29825
G1 X134.869 Y134.409 E3.33984
G1 X134.052 Y135.12 E3.38306
G1 X133.321 Y135.651 E3.41912
G1 X132.428 Y136.189 E3.46073
G1 X131.455 Y136.659 E3.50386
G1 X130.578 Y136.99 E3.54127
G1 X129.606 Y137.265 E3.58159
G1 X128.53 Y137.465 E3.62527
G1 X127.379 Y137.563 E3.67138
G1 X126.679 Y137.579 E3.69932
G1 X103.558 Y137.578 E4.62213
G1 X102.808 Y137.566 E4.65207
G1 X101.802 Y137.506 E4.69229
G1 X100.908 Y137.374 E4.72836
G1 X99.857 Y137.124 E4.77148
G1 X98.867 Y136.791 E4.81317
G1 X98.04 Y136.43 E4.84918
G1 X97.091 Y135.913 E4.89232
G1 X96.223 Y135.331 E4.93403
G1 X95.519 Y134.765 E4.97008
G1 X94.715 Y133.992 E5.0146
G1 X94.122 Y133.311 E5.05064
G1 X93.487 Y132.436 E5.09379
G1 X92.97 Y131.569 E5.13408
G1 X92.518 Y130.629 E5.1757
G1 X92.187 Y129.752 E5.21312
G1 X91.913 Y128.78 E5.25342
G1 X91.713 Y127.7 E5.29726
G1 X91.614 Y126.497 E5.34544
G1 X91.6 Y125.837 E5.37179
G1 X91.601 Y102.698 E6.29531
G1 X91.613 Y101.98 E6.32398
G1 X91.674 Y100.974 E6.3642
G1 X91.806 Y100.081 E6.40023
G1 X92.046 Y99.066 E6.44186
G1 X92.378 Y98.073 E6.48365
G1 X92.768 Y97.181 E6.5225
G1 X93.251 Y96.295 E6.56278
G1 X93.852 Y95.397 E6.60591
G1 X94.419 Y94.693 E6.64198
G1 X95.192 Y93.89 E6.68647
G0 F3600 X95.455 Y94.192
G1 F600 X96.136 Y93.599 E6.72251
G1 X96.924 Y93.025 E6.76142
G1 X97.821 Y92.49 E6.80311
G1 X98.698 Y92.069 E6.84193
G1 X99.543 Y91.749 E6.878
G1 X100.549 Y91.468 E6.91969
G1 X101.516 Y91.29 E6.95893
G1 X102.655 Y91.194 E7.00455
G1 X103.312 Y91.179 E7.03078
G1 X126.304 Y91.179 E7.94844
G1 X127.184 Y91.192 E7.98357
G1 X128.155 Y91.251 E8.02239
G1 X129.084 Y91.39 E8.05988
G1 X130.032 Y91.618 E8.0988
G1 X130.954 Y91.928 E8.13762
G1 X131.879 Y92.334 E8.17794
G1 X132.671 Y92.769 E8.21401
G1 X133.48 Y93.307 E8.25278
G1 X134.295 Y93.964 E8.29456
G1 X134.945 Y94.591 E8.33061
G1 X135.607 Y95.352 E8.37087
G1 X136.199 Y96.17 E8.41117
G1 X136.661 Y96.946 E8.44721
G1 X137.115 Y97.888 E8.48895
G1 X137.444 Y98.766 E8.52637
G1 X137.713 Y99.738 E8.56662
G1 X137.89 Y100.704 E8.60582
G1 X137.985 Y101.834 E8.65108
G1 X138 Y102.509 E8.67803
G1 X137.999 Y125.579 E9.5988
G1 X137.988 Y126.342 E9.62926
G1 X137.931 Y127.314 E9.66812
G1 X137.8 Y128.208 E9.70418
G1 X137.577 Y129.155 E9.74301
G1 X137.247 Y130.147 E9.78474
G1 X136.886 Y130.975 E9.82079
G1 X136.386 Y131.891 E9.86244
G1 X135.843 Y132.701 E9.90136
G1 X135.277 Y133.405 E9.93742
G1 X134.606 Y134.108 E9.9762
G1 X133.817 Y134.796 E10.01799
G1 X133.086 Y135.327 E10.05405
G1 X132.254 Y135.829 E10.09283
G1 X131.313 Y136.285 E10.13456
G1 X130.469 Y136.605 E10.17059
G1 X129.497 Y136.88 E10.21091
G1 X128.496 Y137.066 E10.25154
G1 X127.345 Y137.164 E10.29765
G1 X126.67 Y137.179 E10.3246
G1 X103.564 Y137.178 E11.24681
G1 X102.831 Y137.167 E11.27606
G1 X101.86 Y137.11 E11.31489
G1 X100.966 Y136.978 E11.35095
G1 X99.984 Y136.745 E11.39124
G1 X99.027 Y136.424 E11.43152
G1 X98.2 Y136.063 E11.46754
G1 X97.313 Y135.58 E11.50785
G1 X96.474 Y135.019 E11.54813
G1 X95.77 Y134.453 E11.58418
G1 X95.017 Y133.729 E11.62588
G1 X94.424 Y133.048 E11.66192
G1 X93.831 Y132.231 E11.70221
G1 X93.314 Y131.364 E11.7425
G1 X92.892 Y130.487 E11.78134
G1 X92.572 Y129.643 E11.81737
G1 X92.298 Y128.671 E11.85768
G1 X92.112 Y127.667 E11.89843
G1 X92.014 Y126.488 E11.94565
G1 X92 Y125.837 E11.97164
G1 X92.001 Y102.704 E12.89493
G1 X92.012 Y102.004 E12.92287
G1 X92.07 Y101.032 E12.96173
G1 X92.202 Y100.139 E12.99776
G1 X92.426 Y99.192 E13.0366
G1 X92.745 Y98.233 E13.07694
G1 X93.135 Y97.341 E13.11579
G1 X93.602 Y96.487 E13.15464
G1 X94.164 Y95.648 E13.19495
G1 X94.731 Y94.944 E13.23102
G1 X95.455 Y94.192 E13.27269
G0 F3600 X95.718 Y94.494
G1 F600 X96.399 Y93.901 E13.30873
G1 X97.159 Y93.349 E13.34622
G1 X97.995 Y92.85 E13.38508
G1 X98.84 Y92.443 E13.42251
G1 X99.685 Y92.123 E13.45857
G1 X100.622 Y91.861 E13.49741
G1 X101.55 Y91.689 E13.53508
G1 X102.689 Y91.593 E13.5807
G1 X103.321 Y91.579 E13.60593
G1 X126.298 Y91.579 E14.52299
G1 X127.16 Y91.591 E14.5574
G1 X128.097 Y91.647 E14.59486
G1 X128.99 Y91.779 E14.63089
G1 X129.938 Y92.007 E14.66981
G1 X130.794 Y92.295 E14.70585
G1 X131.686 Y92.685 E14.74471
G1 X132.478 Y93.12 E14.78077
G1 X133.258 Y93.64 E14.81819
G1 X134.017 Y94.252 E14.8571
G1 X134.667 Y94.879 E14.89315
G1 X135.305 Y95.614 E14.93199
G1 X135.855 Y96.375 E14.96947
G1 X136.317 Y97.151 E15.00551
G1 X136.74 Y98.028 E15.04438
G1 X137.069 Y98.906 E15.0818
G1 X137.32 Y99.811 E15.11928
G1 X137.491 Y100.738 E15.1569
G1 X137.586 Y101.868 E15.20216
G1 X137.6 Y102.509 E15.22775
G1 X137.599 Y125.574 E16.14833
G1 X137.589 Y126.319 E16.17807
G1 X137.535 Y127.256 E16.21553
G1 X137.404 Y128.15 E16.25159
G1 X137.188 Y129.063 E16.28903
G1 X136.88 Y129.987 E16.32791
G1 X136.519 Y130.815 E16.36396
G1 X136.053 Y131.669 E16.40279
G1 X135.531 Y132.45 E16.44028
G1 X134.965 Y133.154 E16.47633
G1 X134.317 Y133.831 E16.51374
G1 X133.582 Y134.472 E16.55266
G1 X132.851 Y135.003 E16.58872
G1 X132.048 Y135.486 E16.62612
G1 X131.171 Y135.911 E16.66502
G1 X130.327 Y136.231 E16.70105
G1 X129.389 Y136.495 E16.73994
G1 X128.462 Y136.667 E16.77757
G1 X127.311 Y136.765 E16.82367
G1 X126.67 Y136.779 E16.84926
G1 X103.57 Y136.778 E17.77123
G1 X102.854 Y136.768 E17.79981
G1 X101.918 Y136.714 E17.83723
G1 X101.024 Y136.582 E17.8733
G1 X100.111 Y136.366 E17.91075
G1 X99.187 Y136.057 E17.94963
G1 X98.36 Y135.696 E17.98565
G1 X97.505 Y135.229 E18.02453
G1 X96.725 Y134.707 E18.06199
G1 X96.021 Y134.141 E18.09805
G1 X95.319 Y133.466 E18.13691
G1 X94.726 Y132.785 E18.17296
G1 X94.174 Y132.026 E18.21041
G1 X93.674 Y131.19 E18.24929
G1 X93.266 Y130.345 E18.28674
G1 X92.946 Y129.501 E18.32277
G1 X92.683 Y128.563 E18.36165
G1 X92.511 Y127.634 E18.39936
G1 X92.413 Y126.455 E18.44658
G1 X92.4 Y125.837 E18.47125
G1 X92.401 Y102.71 E19.3943
G1 X92.411 Y102.027 E19.42156
G1 X92.466 Y101.09 E19.45902
G1 X92.598 Y100.197 E19.49505
G1 X92.815 Y99.284 E19.53251
G1 X93.112 Y98.393 E19.56999
G1 X93.502 Y97.501 E19.60885
G1 X93.953 Y96.679 E19.64627
G1 X94.476 Y95.899 E19.68375
G1 X95.043 Y95.195 E19.71983
G1 X95.718 Y94.494 E19.75867
G0 F3600 X95.981 Y94.796
G1 F600 X96.662 Y94.203 E19.79471
G1 X97.394 Y93.673 E19.83078
G1 X98.169 Y93.21 E19.86681
G1 X98.982 Y92.817 E19.90285
G1 X99.827 Y92.497 E19.93892
G1 X100.696 Y92.254 E19.97493
G1 X101.584 Y92.088 E20.01099
G1 X102.723 Y91.992 E20.05661
G1 X103.33 Y91.979 E20.08084
G1 X126.293 Y91.979 E20.99734
G1 X127.137 Y91.99 E21.03103
G1 X128.039 Y92.043 E21.06709
G1 X128.932 Y92.175 E21.10312
G1 X129.81 Y92.386 E21.13916
G1 X130.666 Y92.674 E21.17521
G1 X131.493 Y93.036 E21.21124
G1 X132.285 Y93.471 E21.24731
G1 X133.036 Y93.973 E21.28336
G1 X133.739 Y94.54 E21.31941
G1 X134.389 Y95.167 E21.35545
G1 X134.981 Y95.849 E21.3915
G1 X135.511 Y96.58 E21.42753
G1 X135.973 Y97.356 E21.46358
G1 X136.366 Y98.169 E21.49962
G1 X136.684 Y99.014 E21.53565
G1 X136.927 Y99.884 E21.57171
G1 X137.092 Y100.772 E21.60776
G1 X137.187 Y101.902 E21.65302
G1 X137.2 Y102.509 E21.67725
G1 X137.199 Y125.569 E22.59762
G1 X137.19 Y126.296 E22.62664
G1 X137.139 Y127.198 E22.6627
G1 X137.008 Y128.092 E22.69876
G1 X136.799 Y128.97 E22.73478
G1 X136.513 Y129.827 E22.77084
G1 X136.152 Y130.655 E22.80689
G1 X135.72 Y131.447 E22.8429
G1 X135.219 Y132.199 E22.87897
G1 X134.653 Y132.903 E22.91502
G1 X134.028 Y133.554 E22.95104
G1 X133.347 Y134.148 E22.98711
G1 X132.616 Y134.679 E23.02317
G1 X131.842 Y135.143 E23.05918
G1 X131.029 Y135.537 E23.09524
G1 X130.185 Y135.857 E23.13127
G1 X129.315 Y136.102 E23.16734
G1 X128.428 Y136.268 E23.20336
G1 X127.277 Y136.366 E23.24946
G1 X126.67 Y136.379 E23.2737
G1 X103.575 Y136.378 E24.19547
G1 X102.877 Y136.369 E24.22333
G1 X101.976 Y136.318 E24.25935
G1 X101.082 Y136.186 E24.29542
G1 X100.204 Y135.977 E24.33144
G1 X99.347 Y135.69 E24.36751
G1 X98.52 Y135.329 E24.40352
G1 X97.727 Y134.896 E24.43959
G1 X96.976 Y134.395 E24.47562
G1 X96.272 Y133.829 E24.51167
G1 X95.621 Y133.203 E24.54772
G1 X95.028 Y132.522 E24.58376
G1 X94.498 Y131.791 E24.6198
G1 X94.034 Y131.016 E24.65585
G1 X93.64 Y130.203 E24.69191
G1 X93.32 Y129.359 E24.72793
G1 X93.076 Y128.489 E24.76399
G1 X92.91 Y127.601 E24.80005
G1 X92.813 Y126.446 E24.84631
G1 X92.8 Y125.837 E24.87062
G1 X92.801 Y102.715 E25.79347
G1 X92.81 Y102.05 E25.82002
G1 X92.862 Y101.148 E25.85608
G1 X92.994 Y100.255 E25.89211
G1 X93.204 Y99.377 E25.92814
G1 X93.491 Y98.52 E25.96421
G1 X93.853 Y97.693 E26.00024
G1 X94.286 Y96.901 E26.03627
G1 X94.788 Y96.15 E26.07232
G1 X95.355 Y95.446 E26.1084
G1 X95.981 Y94.796 E26.14442
G1 F2400 E24.14442
;MESH:talking book-dummy button.stl
G0 F3600 X127.653 Y101.526
G0 X127.665 Y125.179
G0 X126 Y125.179
;TYPE:WALL-INNER
G1 F2400 E26.14442
G1 F600 X126 Y103.179 E27.02248
G1 X104 Y103.179 E27.90055
G1 X104 Y125.179 E28.77862
G1 X126 Y125.179 E29.65669
G0 F3600 X126.4 Y125.579
G1 F600 X126.4 Y102.779 E30.56668
G1 X103.6 Y102.779 E31.47668
G1 X103.6 Y125.579 E32.38668
G1 X126.4 Y125.579 E33.29668
G0 F3600 X126.8 Y125.979
;TYPE:WALL-OUTER
G1 F600 X126.8 Y102.379 E34.19151
G1 X103.2 Y102.379 E35.08634
G1 X103.2 Y125.979 E35.98117
G1 X126.8 Y125.979 E36.876
G1 F2400 E34.876
G0 F3600 X125.64 Y124.819
;TYPE:SKIN
G1 F2400 E36.876
G1 F600 X104.36 Y124.819 E37.72533
G1 X104.36 Y103.539 E38.57466
G1 X125.64 Y103.539 E39.42399
G1 X125.64 Y124.819 E40.27332
G1 F2400 E38.27332
G0 F3600 X127.665 Y124.819
G0 X127.665 Y103.943
G0 X125.439 Y103.943
;TYPE:SKIN
G1 F2400 E40.27332
G1 F600 X125.235 Y103.739 E40.28484
G0 F3600 X124.669 Y103.739
G1 F600 X125.439 Y104.508 E40.32827
G0 F3600 X125.439 Y105.074
G1 F600 X124.104 Y103.739 E40.40362
G0 F3600 X123.538 Y103.739
G1 F600 X125.439 Y105.64 E40.51092
G0 F3600 X125.439 Y106.206
G1 F600 X122.972 Y103.739 E40.65017
G0 F3600 X122.407 Y103.739
G1 F600 X125.439 Y106.771 E40.82131
G0 F3600 X125.439 Y107.337
G1 F600 X121.841 Y103.739 E41.0244
G0 F3600 X121.275 Y103.739
G1 F600 X125.439 Y107.903 E41.25943
G0 F3600 X125.439 Y108.468
G1 F600 X120.71 Y103.739 E41.52636
G0 F3600 X120.144 Y103.739
G1 F600 X125.439 Y109.034 E41.82523
G0 F3600 X125.439 Y109.6
G1 F600 X119.578 Y103.739 E42.15605
G0 F3600 X119.013 Y103.739
G1 F600 X125.439 Y110.165 E42.51876
G0 F3600 X125.439 Y110.731
G1 F600 X118.447 Y103.739 E42.91342
G0 F3600 X117.881 Y103.739
G1 F600 X125.439 Y111.297 E43.34003
G0 F3600 X125.439 Y111.862
G1 F600 X117.316 Y103.739 E43.79852
G0 F3600 X116.75 Y103.739
G1 F600 X125.439 Y112.428 E44.28897
G0 F3600 X125.439 Y112.994
G1 F600 X116.184 Y103.739 E44.81136
G0 F3600 X115.619 Y103.739
G1 F600 X125.439 Y113.559 E45.36564
G0 F3600 X125.439 Y114.125
G1 F600 X115.053 Y103.739 E45.95187
G0 F3600 X114.487 Y103.739
G1 F600 X125.439 Y114.691 E46.57005
G0 F3600 X125.439 Y115.256
G1 F600 X113.921 Y103.739 E47.22015
G0 F3600 X113.356 Y103.739
G1 F600 X125.439 Y115.822 E47.90217
G0 F3600 X125.439 Y116.388
G1 F600 X112.79 Y103.739 E48.61613
G0 F3600 X112.224 Y103.739
G1 F600 X125.439 Y116.954 E49.36204
G0 F3600 X125.439 Y117.519
G1 F600 X111.659 Y103.739 E50.13985
G0 F3600 X111.093 Y103.739
G1 F600 X125.439 Y118.085 E50.9496
G0 F3600 X125.439 Y118.651
G1 F600 X110.527 Y103.739 E51.79129
G0 F3600 X109.962 Y103.739
G1 F600 X125.439 Y119.216 E52.66488
G0 F3600 X125.439 Y119.782
G1 F600 X109.396 Y103.739 E53.57042
G0 F3600 X108.83 Y103.739
G1 F600 X125.439 Y120.348 E54.5079
G0 F3600 X125.439 Y120.913
G1 F600 X108.265 Y103.739 E55.47728
G0 F3600 X107.699 Y103.739
G1 F600 X125.439 Y121.479 E56.4786
G0 F3600 X125.439 Y122.045
G1 F600 X107.133 Y103.739 E57.51187
G0 F3600 X106.568 Y103.739
G1 F600 X125.439 Y122.61 E58.57703
G0 F3600 X125.439 Y123.176
G1 F600 X106.002 Y103.739 E59.67414
G0 F3600 X105.436 Y103.739
G1 F600 X125.439 Y123.742 E60.80319
G0 F3600 X125.439 Y124.307
G1 F600 X104.871 Y103.739 E61.96414
G0 F3600 X104.559 Y103.993
G1 F600 X125.184 Y124.618 E63.1283
G0 F3600 X124.618 Y124.618
G1 F600 X104.559 Y104.559 E64.26052
G0 F3600 X104.559 Y105.124
G1 F600 X124.052 Y124.618 E65.36082
G0 F3600 X123.487 Y124.618
G1 F600 X104.559 Y105.69 E66.4292
G0 F3600 X104.559 Y106.256
G1 F600 X122.921 Y124.618 E67.46563
G0 F3600 X122.355 Y124.618
G1 F600 X104.559 Y106.821 E68.47014
G0 F3600 X104.559 Y107.387
G1 F600 X121.789 Y124.618 E69.4427
G0 F3600 X121.224 Y124.618
G1 F600 X104.559 Y107.953 E70.38335
G0 F3600 X104.559 Y108.518
G1 F600 X120.658 Y124.618 E71.29207
G0 F3600 X120.092 Y124.618
G1 F600 X104.559 Y109.084 E72.16885
G0 F3600 X104.559 Y109.65
G1 F600 X119.527 Y124.618 E73.01371
G0 F3600 X118.961 Y124.618
G1 F600 X104.559 Y110.216 E73.82662
G0 F3600 X104.559 Y110.781
G1 F600 X118.395 Y124.618 E74.60761
G0 F3600 X117.83 Y124.618
G1 F600 X104.559 Y111.347 E75.35668
G0 F3600 X104.559 Y111.913
G1 F600 X117.264 Y124.618 E76.07381
G0 F3600 X116.698 Y124.618
G1 F600 X104.559 Y112.478 E76.75901
G0 F3600 X104.559 Y113.044
G1 F600 X116.133 Y124.618 E77.4123
G0 F3600 X115.567 Y124.618
G1 F600 X104.559 Y113.61 E78.03364
G0 F3600 X104.559 Y114.175
G1 F600 X115.001 Y124.618 E78.62306
G0 F3600 X114.436 Y124.618
G1 F600 X104.559 Y114.742 E79.18053
G0 F3600 X104.559 Y115.307
G1 F600 X113.87 Y124.618 E79.70609
G0 F3600 X113.304 Y124.618
G1 F600 X104.559 Y115.873 E80.19969
G0 F3600 X104.559 Y116.439
G1 F600 X112.738 Y124.618 E80.66135
G0 F3600 X112.173 Y124.618
G1 F600 X104.559 Y117.004 E81.09112
G0 F3600 X104.559 Y117.57
G1 F600 X111.607 Y124.618 E81.48894
G0 F3600 X111.041 Y124.618
G1 F600 X104.559 Y118.136 E81.85481
G0 F3600 X104.559 Y118.702
G1 F600 X110.476 Y124.618 E82.18876
G0 F3600 X109.91 Y124.618
G1 F600 X104.559 Y119.267 E82.49079
G0 F3600 X104.559 Y119.833
G1 F600 X109.344 Y124.618 E82.76088
G0 F3600 X108.779 Y124.618
G1 F600 X104.559 Y120.399 E82.99905
G0 F3600 X104.559 Y120.964
G1 F600 X108.213 Y124.618 E83.2053
G0 F3600 X107.647 Y124.618
G1 F600 X104.559 Y121.53 E83.3796
G0 F3600 X104.559 Y122.096
G1 F600 X107.082 Y124.618 E83.52198
G0 F3600 X106.516 Y124.618
G1 F600 X104.559 Y122.661 E83.63244
G0 F3600 X104.559 Y123.227
G1 F600 X105.95 Y124.618 E83.71095
G0 F3600 X105.385 Y124.618
G1 F600 X104.559 Y123.793 E83.75755
G0 F3600 X104.559 Y124.358
G1 F600 X104.819 Y124.618 E83.77222
G1 F2400 E81.77222
;MESH:NOMESH
G0 F300 X104.819 Y124.618 Z0.4
G0 F3600 X103.5 Y125.928
;TIME_ELAPSED:222.332207
;LAYER:1
M106 S85
;TYPE:WALL-OUTER
