;FLAVOR:Marlin
;TIME:5331
;Filament used: 2.38112m
;Layer height: 0.12
;MINX:42.1
;MINY:73.1
;MINZ:0.12
;MAXX:187.9
;MAXY:156.9
;MAXZ:4.68
;Generated with Cura_SteamEngine 5.4.0-alpha+testing_1
M140 S60
M105
M190 S60
M104 S200
M105
M109 S200
M82 ;absolute extrusion mode
 G28 ; home all axes
 M420 S1
 M117 ; Purge extruder
 G92 E0 ; reset extruder
 G1 Z1.0 F3000 ; move z up little to prevent scratching of surface
 G1 X2 Y20 Z0.3 F5000.0 ; move to start-line position
 G1 X2 Y200.0 Z0.3 F1500.0 E15 ; draw 1st line
 G1 X2 Y200.0 Z0.4 F5000.0 ; move to side a little
 G1 X2 Y20 Z0.4 F1500.0 E30 ; draw 2nd line
 G92 E0 ; reset extruder
 G1 Z1.0 F3000 ; move z up little to prevent scratching of surface
G92 E0
G92 E0
G1 F2400 E-2
;LAYER_COUNT:39
;LAYER:0
M107
G0 F1800 X47.219 Y75.002 Z0.12
;TYPE:SKIRT
G1 F2400 E0
G1 F1200 X48.148 Y74.45 E0.02156
G1 X49.025 Y74.029 E0.04098
G1 X49.901 Y73.696 E0.05968
G1 X50.941 Y73.404 E0.08124
G1 X51.982 Y73.212 E0.10236
G1 X53.121 Y73.116 E0.12517
G1 X53.83 Y73.1 E0.13933
G1 X175.958 Y73.101 E2.57652
G1 X176.708 Y73.114 E2.59149
G1 X177.714 Y73.176 E2.6116
G1 X178.643 Y73.315 E2.63035
G1 X179.626 Y73.55 E2.65052
G1 X180.615 Y73.883 E2.67135
G1 X181.572 Y74.304 E2.69221
G1 X182.364 Y74.739 E2.71024
G1 X183.231 Y75.317 E2.73104
G1 X184.073 Y75.997 E2.75263
G1 X184.747 Y76.649 E2.77135
G1 X185.409 Y77.41 E2.79148
G1 X186.043 Y78.286 E2.81306
G1 X186.505 Y79.062 E2.83108
G1 X186.99 Y80.069 E2.85338
G1 X187.33 Y80.98 E2.87279
G1 X187.599 Y81.952 E2.89292
G1 X187.789 Y82.991 E2.91399
G1 X187.884 Y84.121 E2.93662
G1 X187.9 Y84.83 E2.95078
G1 X187.899 Y144.906 E4.14966
G1 X187.887 Y145.686 E4.16523
G1 X187.827 Y146.693 E4.18536
G1 X187.696 Y147.587 E4.20339
G1 X187.457 Y148.602 E4.2242
G1 X187.114 Y149.628 E4.24579
G1 X186.753 Y150.456 E4.26381
G1 X186.237 Y151.404 E4.28535
G1 X185.655 Y152.273 E4.30622
G1 X185.089 Y152.977 E4.32425
G1 X184.369 Y153.73 E4.34504
G1 X183.552 Y154.441 E4.36665
G1 X182.821 Y154.972 E4.38468
G1 X181.928 Y155.51 E4.40549
G1 X180.955 Y155.98 E4.42705
G1 X180.078 Y156.311 E4.44576
G1 X179.106 Y156.586 E4.46592
G1 X178.03 Y156.786 E4.48776
G1 X176.879 Y156.884 E4.51081
G1 X176.188 Y156.9 E4.5246
G1 X54.058 Y156.899 E6.96184
G1 X53.308 Y156.887 E6.97681
G1 X52.302 Y156.827 E6.99692
G1 X51.408 Y156.695 E7.01496
G1 X50.357 Y156.445 E7.03651
G1 X49.367 Y156.112 E7.05736
G1 X48.54 Y155.751 E7.07537
G1 X47.591 Y155.234 E7.09693
G1 X46.723 Y154.652 E7.11779
G1 X46.019 Y154.086 E7.13581
G1 X45.215 Y153.313 E7.15807
G1 X44.622 Y152.632 E7.17609
G1 X43.987 Y151.757 E7.19767
G1 X43.47 Y150.89 E7.21781
G1 X43.018 Y149.95 E7.23863
G1 X42.687 Y149.073 E7.25733
G1 X42.413 Y148.101 E7.27749
G1 X42.213 Y147.021 E7.29941
G1 X42.114 Y145.818 E7.32349
G1 X42.1 Y145.158 E7.33667
G1 X42.101 Y85.019 E8.53681
G1 X42.113 Y84.301 E8.55114
G1 X42.174 Y83.295 E8.57125
G1 X42.306 Y82.402 E8.58926
G1 X42.546 Y81.387 E8.61008
G1 X42.878 Y80.394 E8.63097
G1 X43.268 Y79.502 E8.6504
G1 X43.751 Y78.616 E8.67054
G1 X44.352 Y77.718 E8.6921
G1 X44.919 Y77.014 E8.71014
G1 X45.692 Y76.211 E8.73238
G1 X46.373 Y75.618 E8.7504
G1 X47.219 Y75.002 E8.77129
G0 F1800 X47.424 Y75.346
G1 F1200 X48.321 Y74.811 E8.79213
G1 X49.198 Y74.39 E8.81155
G1 X50.043 Y74.07 E8.82958
G1 X51.049 Y73.789 E8.85042
G1 X52.016 Y73.611 E8.87004
G1 X53.155 Y73.515 E8.89285
G1 X53.83 Y73.5 E8.90633
G1 X175.951 Y73.501 E11.34338
G1 X176.684 Y73.513 E11.35801
G1 X177.655 Y73.572 E11.37743
G1 X178.584 Y73.711 E11.39617
G1 X179.532 Y73.939 E11.41563
G1 X180.454 Y74.249 E11.43504
G1 X181.379 Y74.655 E11.4552
G1 X182.171 Y75.09 E11.47323
G1 X182.98 Y75.628 E11.49262
G1 X183.795 Y76.285 E11.51351
G1 X184.445 Y76.912 E11.53154
G1 X185.107 Y77.673 E11.55166
G1 X185.699 Y78.491 E11.57181
G1 X186.161 Y79.267 E11.58984
G1 X186.615 Y80.209 E11.61071
G1 X186.944 Y81.087 E11.62942
G1 X187.213 Y82.059 E11.64954
G1 X187.39 Y83.025 E11.66914
G1 X187.485 Y84.155 E11.69177
G1 X187.5 Y84.83 E11.70524
G1 X187.499 Y144.9 E12.90401
G1 X187.488 Y145.663 E12.91923
G1 X187.431 Y146.635 E12.93867
G1 X187.3 Y147.529 E12.9567
G1 X187.077 Y148.476 E12.97611
G1 X186.747 Y149.468 E12.99697
G1 X186.386 Y150.296 E13.015
G1 X185.886 Y151.212 E13.03583
G1 X185.343 Y152.022 E13.05529
G1 X184.777 Y152.726 E13.07331
G1 X184.106 Y153.429 E13.09271
G1 X183.317 Y154.117 E13.1136
G1 X182.586 Y154.648 E13.13163
G1 X181.754 Y155.15 E13.15102
G1 X180.813 Y155.606 E13.17189
G1 X179.969 Y155.926 E13.1899
G1 X178.997 Y156.201 E13.21006
G1 X177.996 Y156.387 E13.23038
G1 X176.845 Y156.485 E13.25343
G1 X176.188 Y156.5 E13.26654
G1 X54.064 Y156.499 E15.70366
G1 X53.331 Y156.488 E15.71829
G1 X52.36 Y156.431 E15.7377
G1 X51.466 Y156.299 E15.75573
G1 X50.484 Y156.066 E15.77588
G1 X49.527 Y155.745 E15.79602
G1 X48.7 Y155.384 E15.81403
G1 X47.813 Y154.901 E15.83418
G1 X46.974 Y154.34 E15.85432
G1 X46.27 Y153.774 E15.87235
G1 X45.517 Y153.05 E15.8932
G1 X44.924 Y152.369 E15.91122
G1 X44.331 Y151.552 E15.93136
G1 X43.814 Y150.685 E15.95151
G1 X43.392 Y149.808 E15.97093
G1 X43.072 Y148.964 E15.98894
G1 X42.798 Y147.992 E16.0091
G1 X42.612 Y146.988 E16.02947
G1 X42.514 Y145.809 E16.05308
G1 X42.5 Y145.158 E16.06608
G1 X42.501 Y85.025 E17.2661
G1 X42.512 Y84.325 E17.28007
G1 X42.57 Y83.353 E17.2995
G1 X42.702 Y82.46 E17.31751
G1 X42.926 Y81.513 E17.33693
G1 X43.245 Y80.554 E17.3571
G1 X43.635 Y79.662 E17.37653
G1 X44.102 Y78.808 E17.39595
G1 X44.664 Y77.969 E17.41611
G1 X45.231 Y77.265 E17.43414
G1 X45.955 Y76.513 E17.45498
G1 X46.636 Y75.92 E17.473
G1 X47.424 Y75.346 E17.49245
G0 F1800 X47.659 Y75.67
G1 F1200 X48.495 Y75.171 E17.51188
G1 X49.34 Y74.764 E17.5306
G1 X50.185 Y74.444 E17.54863
G1 X51.122 Y74.182 E17.56805
G1 X52.05 Y74.01 E17.58688
G1 X53.189 Y73.914 E17.60969
G1 X53.83 Y73.9 E17.62249
G1 X175.945 Y73.901 E20.05942
G1 X176.66 Y73.912 E20.07369
G1 X177.597 Y73.968 E20.09243
G1 X178.49 Y74.1 E20.11044
G1 X179.438 Y74.328 E20.1299
G1 X180.294 Y74.616 E20.14792
G1 X181.186 Y75.006 E20.16735
G1 X181.978 Y75.441 E20.18538
G1 X182.758 Y75.961 E20.20409
G1 X183.517 Y76.573 E20.22355
G1 X184.167 Y77.2 E20.24157
G1 X184.805 Y77.935 E20.26099
G1 X185.355 Y78.696 E20.27973
G1 X185.817 Y79.472 E20.29775
G1 X186.24 Y80.349 E20.31718
G1 X186.569 Y81.227 E20.33589
G1 X186.82 Y82.132 E20.35464
G1 X186.991 Y83.059 E20.37345
G1 X187.086 Y84.189 E20.39608
G1 X187.1 Y84.83 E20.40887
G1 X187.099 Y144.895 E21.60753
G1 X187.089 Y145.64 E21.6224
G1 X187.035 Y146.577 E21.64113
G1 X186.904 Y147.471 E21.65916
G1 X186.688 Y148.384 E21.67789
G1 X186.38 Y149.308 E21.69732
G1 X186.019 Y150.136 E21.71535
G1 X185.553 Y150.99 E21.73476
G1 X185.031 Y151.771 E21.75351
G1 X184.465 Y152.475 E21.77154
G1 X183.817 Y153.152 E21.79024
G1 X183.082 Y153.793 E21.8097
G1 X182.351 Y154.324 E21.82773
G1 X181.548 Y154.807 E21.84643
G1 X180.671 Y155.232 E21.86588
G1 X179.827 Y155.552 E21.88389
G1 X178.889 Y155.816 E21.90334
G1 X177.962 Y155.988 E21.92215
G1 X176.811 Y156.086 E21.94521
G1 X176.179 Y156.1 E21.95782
G1 X54.07 Y156.099 E24.39464
G1 X53.354 Y156.089 E24.40893
G1 X52.418 Y156.035 E24.42764
G1 X51.524 Y155.903 E24.44567
G1 X50.611 Y155.687 E24.4644
G1 X49.687 Y155.378 E24.48384
G1 X48.86 Y155.017 E24.50185
G1 X48.005 Y154.55 E24.52129
G1 X47.225 Y154.028 E24.54002
G1 X46.521 Y153.462 E24.55804
G1 X45.819 Y152.787 E24.57748
G1 X45.226 Y152.106 E24.5955
G1 X44.674 Y151.347 E24.61423
G1 X44.174 Y150.511 E24.63367
G1 X43.766 Y149.666 E24.65239
G1 X43.446 Y148.822 E24.67041
G1 X43.183 Y147.884 E24.68985
G1 X43.011 Y146.955 E24.7087
G1 X42.913 Y145.776 E24.73231
G1 X42.9 Y145.158 E24.74465
G1 X42.901 Y85.031 E25.94455
G1 X42.911 Y84.348 E25.95818
G1 X42.966 Y83.411 E25.97691
G1 X43.098 Y82.518 E25.99492
G1 X43.315 Y81.605 E26.01365
G1 X43.612 Y80.714 E26.03239
G1 X44.002 Y79.822 E26.05182
G1 X44.453 Y79 E26.07053
G1 X44.976 Y78.22 E26.08927
G1 X45.543 Y77.516 E26.10731
G1 X46.218 Y76.815 E26.12673
G1 X46.899 Y76.222 E26.14475
G1 X47.659 Y75.67 E26.1635
G0 F1800 X47.894 Y75.994
G1 F1200 X48.669 Y75.531 E26.18151
G1 X49.482 Y75.138 E26.19953
G1 X50.327 Y74.818 E26.21756
G1 X51.196 Y74.575 E26.23557
G1 X52.084 Y74.409 E26.2536
G1 X53.223 Y74.313 E26.27641
G1 X53.83 Y74.3 E26.28853
G1 X175.939 Y74.301 E28.72534
G1 X176.637 Y74.311 E28.73927
G1 X177.539 Y74.364 E28.75731
G1 X178.432 Y74.496 E28.77532
G1 X179.31 Y74.707 E28.79334
G1 X180.166 Y74.995 E28.81136
G1 X180.993 Y75.357 E28.82938
G1 X181.785 Y75.792 E28.84741
G1 X182.536 Y76.294 E28.86544
G1 X183.239 Y76.861 E28.88346
G1 X183.889 Y77.488 E28.90148
G1 X184.481 Y78.17 E28.91951
G1 X185.011 Y78.901 E28.93753
G1 X185.473 Y79.677 E28.95555
G1 X185.866 Y80.49 E28.97357
G1 X186.184 Y81.335 E28.99159
G1 X186.427 Y82.205 E29.00961
G1 X186.592 Y83.093 E29.02764
G1 X186.687 Y84.223 E29.05027
G1 X186.7 Y84.83 E29.06238
G1 X186.699 Y144.89 E30.26095
G1 X186.69 Y145.617 E30.27545
G1 X186.639 Y146.519 E30.29348
G1 X186.508 Y147.413 E30.31151
G1 X186.299 Y148.291 E30.32953
G1 X186.013 Y149.148 E30.34756
G1 X185.652 Y149.976 E30.36558
G1 X185.22 Y150.768 E30.38358
G1 X184.719 Y151.52 E30.40162
G1 X184.153 Y152.224 E30.41964
G1 X183.528 Y152.875 E30.43765
G1 X182.847 Y153.469 E30.45569
G1 X182.116 Y154 E30.47372
G1 X181.342 Y154.464 E30.49173
G1 X180.529 Y154.858 E30.50976
G1 X179.685 Y155.178 E30.52777
G1 X178.815 Y155.423 E30.54581
G1 X177.928 Y155.589 E30.56381
G1 X176.777 Y155.687 E30.58687
G1 X176.17 Y155.7 E30.59898
G1 X54.075 Y155.699 E33.03552
G1 X53.377 Y155.69 E33.04945
G1 X52.476 Y155.639 E33.06746
G1 X51.582 Y155.507 E33.08549
G1 X50.704 Y155.298 E33.1035
G1 X49.847 Y155.011 E33.12154
G1 X49.02 Y154.65 E33.13955
G1 X48.227 Y154.217 E33.15758
G1 X47.476 Y153.716 E33.17559
G1 X46.772 Y153.15 E33.19362
G1 X46.121 Y152.524 E33.21164
G1 X45.528 Y151.843 E33.22966
G1 X44.998 Y151.112 E33.24768
G1 X44.534 Y150.337 E33.26571
G1 X44.14 Y149.524 E33.28374
G1 X43.82 Y148.68 E33.30175
G1 X43.576 Y147.81 E33.31978
G1 X43.41 Y146.922 E33.33781
G1 X43.313 Y145.767 E33.36094
G1 X43.3 Y145.158 E33.3731
G1 X43.301 Y85.036 E34.5729
G1 X43.31 Y84.371 E34.58617
G1 X43.362 Y83.469 E34.6042
G1 X43.494 Y82.576 E34.62221
G1 X43.704 Y81.698 E34.64023
G1 X43.991 Y80.841 E34.65827
G1 X44.353 Y80.014 E34.67628
G1 X44.786 Y79.222 E34.69429
G1 X45.288 Y78.471 E34.71232
G1 X45.855 Y77.767 E34.73036
G1 X46.481 Y77.117 E34.74837
G1 X47.162 Y76.524 E34.76639
G1 X47.894 Y75.994 E34.78442
G1 F2400 E32.78442
G0 F1800 X52.835 Y89.245
G0 X57.979 Y89.245
;TYPE:SUPPORT
G1 F2400 E34.78442
G1 F1200 X79.379 Y89.245 E35.21148
G1 X79.379 Y110.645 E35.63854
G1 X57.979 Y110.645 E36.0656
G1 X57.979 Y89.245 E36.49266
G0 F1800 X58.046 Y90
G1 F1200 X79.311 Y90 E36.91703
G0 F1800 X78 Y89.313
G1 F1200 X78 Y110.577 E37.34138
G0 F1800 X79.311 Y110
G1 F1200 X58.046 Y110 E37.76574
G1 F2400 E35.76574
G0 F1800 X58.046 Y108
G1 F2400 E37.76574
G1 F1200 X79.311 Y108 E38.19011
G1 F2400 E36.19011
G0 F1800 X79.311 Y106
G1 F2400 E38.19011
G1 F1200 X58.046 Y106 E38.61448
G1 F2400 E36.61448
G0 F1800 X58.046 Y104
G1 F2400 E38.61448
G1 F1200 X79.311 Y104 E39.03884
G1 F2400 E37.03884
G0 F1800 X79.311 Y102
G1 F2400 E39.03884
G1 F1200 X58.046 Y102 E39.46321
G1 F2400 E37.46321
G0 F1800 X58.046 Y100
G1 F2400 E39.46321
G1 F1200 X79.311 Y100 E39.88757
G1 F2400 E37.88757
G0 F1800 X79.311 Y98
G1 F2400 E39.88757
G1 F1200 X58.046 Y98 E40.31194
G1 F2400 E38.31194
G0 F1800 X58.046 Y96
G1 F2400 E40.31194
G1 F1200 X79.311 Y96 E40.73631
G1 F2400 E38.73631
G0 F1800 X79.311 Y94
G1 F2400 E40.73631
G1 F1200 X58.046 Y94 E41.16067
G1 F2400 E39.16067
G0 F1800 X58.046 Y92
G1 F2400 E41.16067
G1 F1200 X79.311 Y92 E41.58504
G1 F2400 E39.58504
G0 F1800 X76 Y89.313
G1 F2400 E41.58504
G1 F1200 X76 Y110.577 E42.00938
G1 F2400 E40.00938
G0 F1800 X74 Y110.577
G1 F2400 E42.00938
G1 F1200 X74 Y89.313 E42.43373
G1 F2400 E40.43373
G0 F1800 X72 Y89.313
G1 F2400 E42.43373
G1 F1200 X72 Y110.577 E42.85808
G1 F2400 E40.85808
G0 F1800 X70 Y110.577
G1 F2400 E42.85808
G1 F1200 X70 Y89.313 E43.28242
G1 F2400 E41.28242
G0 F1800 X68 Y89.313
G1 F2400 E43.28242
G1 F1200 X68 Y110.577 E43.70677
G1 F2400 E41.70677
G0 F1800 X66 Y110.577
G1 F2400 E43.70677
G1 F1200 X66 Y89.313 E44.13111
G1 F2400 E42.13111
G0 F1800 X64 Y89.313
G1 F2400 E44.13111
G1 F1200 X64 Y110.577 E44.55546
G1 F2400 E42.55546
G0 F1800 X62 Y110.577
G1 F2400 E44.55546
G1 F1200 X62 Y89.313 E44.97981
G1 F2400 E42.97981
G0 F1800 X60 Y89.313
G1 F2400 E44.97981
G1 F1200 X60 Y110.577 E45.40415
G1 F2400 E43.40415
G0 F1800 X89.005 Y110.645
G1 F2400 E45.40415
G1 F1200 X89.005 Y89.245 E45.83121
G1 X110.405 Y89.245 E46.25827
G1 X110.405 Y110.645 E46.68533
G1 X89.005 Y110.645 E47.11239
G0 F1800 X89.073 Y110
G1 F1200 X110.337 Y110 E47.53674
G0 F1800 X110 Y110.577
G1 F1200 X110 Y89.313 E47.96109
G0 F1800 X110.337 Y90
G1 F1200 X89.073 Y90 E48.38543
G0 F1800 X90 Y89.313
G1 F1200 X90 Y110.577 E48.80978
G1 F2400 E46.80978
G0 F1800 X92 Y110.577
G1 F2400 E48.80978
G1 F1200 X92 Y89.313 E49.23412
G1 F2400 E47.23412
G0 F1800 X94 Y89.313
G1 F2400 E49.23412
G1 F1200 X94 Y110.577 E49.65847
G1 F2400 E47.65847
G0 F1800 X96 Y110.577
G1 F2400 E49.65847
G1 F1200 X96 Y89.313 E50.08282
G1 F2400 E48.08282
G0 F1800 X98 Y89.313
G1 F2400 E50.08282
G1 F1200 X98 Y110.577 E50.50716
G1 F2400 E48.50716
G0 F1800 X100 Y110.577
G1 F2400 E50.50716
G1 F1200 X100 Y89.313 E50.93151
G1 F2400 E48.93151
G0 F1800 X102 Y89.313
G1 F2400 E50.93151
G1 F1200 X102 Y110.577 E51.35585
G1 F2400 E49.35585
G0 F1800 X104 Y110.577
G1 F2400 E51.35585
G1 F1200 X104 Y89.313 E51.7802
G1 F2400 E49.7802
G0 F1800 X106 Y89.313
G1 F2400 E51.7802
G1 F1200 X106 Y110.577 E52.20455
G1 F2400 E50.20455
G0 F1800 X108 Y110.577
G1 F2400 E52.20455
G1 F1200 X108 Y89.313 E52.62889
G1 F2400 E50.62889
G0 F1800 X110.337 Y92
G1 F2400 E52.62889
G1 F1200 X89.073 Y92 E53.05324
G1 F2400 E51.05324
G0 F1800 X89.073 Y94
G1 F2400 E53.05324
G1 F1200 X110.337 Y94 E53.47758
G1 F2400 E51.47758
G0 F1800 X110.337 Y96
G1 F2400 E53.47758
G1 F1200 X89.073 Y96 E53.90193
G1 F2400 E51.90193
G0 F1800 X89.073 Y98
G1 F2400 E53.90193
G1 F1200 X110.337 Y98 E54.32628
G1 F2400 E52.32628
G0 F1800 X110.337 Y100
G1 F2400 E54.32628
G1 F1200 X89.073 Y100 E54.75062
G1 F2400 E52.75062
G0 F1800 X89.073 Y102
G1 F2400 E54.75062
G1 F1200 X110.337 Y102 E55.17497
G1 F2400 E53.17497
G0 F1800 X110.337 Y104
G1 F2400 E55.17497
G1 F1200 X89.073 Y104 E55.59932
G1 F2400 E53.59932
G0 F1800 X89.073 Y106
G1 F2400 E55.59932
G1 F1200 X110.337 Y106 E56.02366
G1 F2400 E54.02366
G0 F1800 X110.337 Y108
G1 F2400 E56.02366
G1 F1200 X89.073 Y108 E56.44801
G1 F2400 E54.44801
G0 F1800 X119.172 Y110.645
G1 F2400 E56.44801
G1 F1200 X119.172 Y89.245 E56.87507
G1 X140.572 Y89.245 E57.30213
G1 X140.572 Y110.645 E57.72919
G1 X119.172 Y110.645 E58.15625
G0 F1800 X119.24 Y110
G1 F1200 X140.504 Y110 E58.58059
G0 F1800 X140 Y110.577
G1 F1200 X140 Y89.313 E59.00494
G0 F1800 X140.504 Y90
G1 F1200 X119.24 Y90 E59.42929
G0 F1800 X120 Y89.313
G1 F1200 X120 Y110.577 E59.85363
G1 F2400 E57.85363
G0 F1800 X122 Y110.577
G1 F2400 E59.85363
G1 F1200 X122 Y89.313 E60.27798
G1 F2400 E58.27798
G0 F1800 X124 Y89.313
G1 F2400 E60.27798
G1 F1200 X124 Y110.577 E60.70232
G1 F2400 E58.70232
G0 F1800 X126 Y110.577
G1 F2400 E60.70232
G1 F1200 X126 Y89.313 E61.12667
G1 F2400 E59.12667
G0 F1800 X128 Y89.313
G1 F2400 E61.12667
G1 F1200 X128 Y110.577 E61.55102
G1 F2400 E59.55102
G0 F1800 X130 Y110.577
G1 F2400 E61.55102
G1 F1200 X130 Y89.313 E61.97536
G1 F2400 E59.97536
G0 F1800 X132 Y89.313
G1 F2400 E61.97536
G1 F1200 X132 Y110.577 E62.39971
G1 F2400 E60.39971
G0 F1800 X134 Y110.577
G1 F2400 E62.39971
G1 F1200 X134 Y89.313 E62.82406
G1 F2400 E60.82406
G0 F1800 X136 Y89.313
G1 F2400 E62.82406
G1 F1200 X136 Y110.577 E63.2484
G1 F2400 E61.2484
G0 F1800 X138 Y110.577
G1 F2400 E63.2484
G1 F1200 X138 Y89.313 E63.67275
G1 F2400 E61.67275
G0 F1800 X140.504 Y92
G1 F2400 E63.67275
G1 F1200 X119.24 Y92 E64.09709
G1 F2400 E62.09709
G0 F1800 X119.24 Y94
G1 F2400 E64.09709
G1 F1200 X140.504 Y94 E64.52144
G1 F2400 E62.52144
G0 F1800 X140.504 Y96
G1 F2400 E64.52144
G1 F1200 X119.24 Y96 E64.94579
G1 F2400 E62.94579
G0 F1800 X119.24 Y98
G1 F2400 E64.94579
G1 F1200 X140.504 Y98 E65.37013
G1 F2400 E63.37013
