;FLAVOR:Marlin
;TIME:5754
;Filament used: 5.80278m
;Layer height: 0.28
;MINX:42.1
;MINY:73.1
;MINZ:0.28
;MAXX:187.9
;MAXY:156.9
;MAXZ:5.88
;Generated with Cura_SteamEngine 5.4.0-alpha+testing_1
M140 S60
M105
M190 S60
M104 S200
M105
M109 S200
M82 ;absolute extrusion mode
 G28 ; home all axes
 M420 S1
 M117 ; Purge extruder
 G92 E0 ; reset extruder
 G1 Z1.0 F3000 ; move z up little to prevent scratching of surface
 G1 X2 Y20 Z0.3 F5000.0 ; move to start-line position
 G1 X2 Y200.0 Z0.3 F1500.0 E15 ; draw 1st line
 G1 X2 Y200.0 Z0.4 F5000.0 ; move to side a little
 G1 X2 Y20 Z0.4 F1500.0 E30 ; draw 2nd line
 G92 E0 ; reset extruder
 G1 Z1.0 F3000 ; move z up little to prevent scratching of surface
G92 E0
G92 E0
G1 F2400 E-2
;LAYER_COUNT:21
;LAYER:0
M107
G0 F1800 X50.733 Y77.68 Z0.28
;TYPE:SKIRT
G1 F2400 E0
G1 F1200 X51.56 Y77.239 E0.04364
G1 X52.564 Y76.814 E0.09441
G1 X53.803 Y76.432 E0.15478
G1 X56.697 Y75.725 E0.2935
G1 X59.148 Y75.049 E0.41189
G1 X61.502 Y74.325 E0.52657
G1 X62.789 Y73.89 E0.58983
G1 X63.546 Y73.647 E0.62685
G1 X64.522 Y73.383 E0.67393
G1 X65.524 Y73.207 E0.7213
G1 X66.664 Y73.115 E0.77456
G1 X67.303 Y73.1 E0.80432
G1 X69.31 Y73.1 E0.89777
G1 X70.221 Y73.114 E0.9402
G1 X71.425 Y73.2 E0.9964
G1 X72.706 Y73.365 E1.05655
G1 X75.271 Y73.653 E1.17673
G1 X77.773 Y73.869 E1.29367
G1 X80.267 Y74.008 E1.40998
G1 X82.801 Y74.08 E1.52802
G1 X85.267 Y74.08 E1.64285
G1 X87.801 Y74.008 E1.76089
G1 X90.293 Y73.869 E1.87711
G1 X92.8 Y73.656 E1.99427
G1 X95.31 Y73.369 E2.11191
G1 X96.561 Y73.202 E2.17067
G1 X97.698 Y73.113 E2.22378
G1 X98.33 Y73.1 E2.25321
G1 X100.457 Y73.101 E2.35226
G1 X101.22 Y73.114 E2.38779
G1 X102.423 Y73.2 E2.44395
G1 X103.696 Y73.364 E2.50372
G1 X106.271 Y73.653 E2.62437
G1 X108.773 Y73.869 E2.74131
G1 X111.267 Y74.008 E2.85762
G1 X113.801 Y74.08 E2.97566
G1 X116.267 Y74.08 E3.09049
G1 X118.801 Y74.008 E3.20853
G1 X121.293 Y73.866 E3.32476
G1 X123.8 Y73.656 E3.4419
G1 X126.31 Y73.369 E3.55954
G1 X127.561 Y73.202 E3.61831
G1 X128.698 Y73.113 E3.67141
G1 X129.33 Y73.1 E3.70085
G1 X131.457 Y73.101 E3.79989
G1 X132.22 Y73.114 E3.83542
G1 X133.423 Y73.2 E3.89158
G1 X134.696 Y73.364 E3.95135
G1 X137.271 Y73.653 E4.072
G1 X139.773 Y73.869 E4.18894
G1 X142.267 Y74.008 E4.30525
G1 X144.801 Y74.08 E4.42329
G1 X147.267 Y74.08 E4.53812
G1 X149.801 Y74.008 E4.65616
G1 X152.293 Y73.866 E4.77239
G1 X154.8 Y73.656 E4.88953
G1 X157.31 Y73.369 E5.00717
G1 X158.561 Y73.202 E5.06594
G1 X159.698 Y73.113 E5.11905
G1 X160.33 Y73.1 E5.14848
G1 X162.457 Y73.101 E5.24752
G1 X163.212 Y73.114 E5.28268
G1 X164.217 Y73.176 E5.32957
G1 X165.11 Y73.308 E5.3716
G1 X166.171 Y73.561 E5.42239
G1 X166.635 Y73.706 E5.44503
G1 X167.237 Y73.909 E5.47461
G1 X169.716 Y74.706 E5.59586
G1 X172.11 Y75.404 E5.71198
G1 X174.518 Y76.029 E5.82782
G1 X176.253 Y76.448 E5.91093
G1 X177.221 Y76.734 E5.95793
G1 X178.062 Y77.063 E5.99998
G1 X179.029 Y77.544 E6.05027
G1 X179.829 Y78.033 E6.09393
G1 X180.698 Y78.676 E6.14427
G1 X181.45 Y79.346 E6.19117
G1 X182.094 Y80.028 E6.23485
G1 X182.786 Y80.909 E6.28701
G1 X183.315 Y81.726 E6.33233
G1 X183.757 Y82.552 E6.37595
G1 X184.196 Y83.593 E6.42856
G1 X184.568 Y84.803 E6.48751
G1 X185.268 Y87.672 E6.62502
G1 X185.951 Y90.147 E6.74457
G1 X186.671 Y92.489 E6.85866
G1 X187.067 Y93.66 E6.91622
G1 X187.355 Y94.558 E6.96014
G1 X187.618 Y95.532 E7.00711
G1 X187.794 Y96.535 E7.05453
G1 X187.885 Y97.664 E7.10727
G1 X187.9 Y98.33 E7.13829
G1 X187.899 Y100.434 E7.23626
G1 X187.886 Y101.216 E7.27268
G1 X187.8 Y102.423 E7.32903
G1 X187.636 Y103.696 E7.38879
G1 X187.347 Y106.271 E7.50945
G1 X187.131 Y108.773 E7.62639
G1 X186.992 Y111.267 E7.7427
G1 X186.92 Y113.801 E7.86074
G1 X186.92 Y116.301 E7.97715
G1 X186.992 Y118.801 E8.09361
G1 X187.134 Y121.293 E8.20983
G1 X187.344 Y123.8 E8.32698
G1 X187.631 Y126.319 E8.44503
G1 X187.796 Y127.544 E8.50259
G1 X187.885 Y128.664 E8.5549
G1 X187.9 Y129.33 E8.58592
G1 X187.899 Y131.448 E8.68455
G1 X187.885 Y132.228 E8.72087
G1 X187.822 Y133.233 E8.76776
G1 X187.689 Y134.126 E8.8098
G1 X187.316 Y135.561 E8.87884
G1 X187.109 Y136.18 E8.90923
G1 X186.291 Y138.726 E9.03376
G1 X185.596 Y141.116 E9.14965
G1 X184.964 Y143.544 E9.26648
G1 X184.551 Y145.255 E9.34844
G1 X184.298 Y146.122 E9.39049
G1 X183.89 Y147.163 E9.44256
G1 X183.471 Y148.002 E9.48623
G1 X182.946 Y148.861 E9.5331
G1 X182.346 Y149.672 E9.58008
G1 X181.625 Y150.481 E9.63054
G1 X180.967 Y151.099 E9.67257
G1 X180.089 Y151.788 E9.72454
G1 X179.273 Y152.317 E9.76982
G1 X178.413 Y152.774 E9.81517
G1 X177.441 Y153.184 E9.86429
G1 X176.197 Y153.568 E9.92492
G1 X173.317 Y154.271 E10.06296
G1 X170.853 Y154.951 E10.18198
G1 X168.511 Y155.671 E10.29607
G1 X167.22 Y156.107 E10.35952
G1 X166.458 Y156.352 E10.39679
G1 X165.487 Y156.616 E10.44365
G1 X164.598 Y156.778 E10.48573
G1 X163.41 Y156.882 E10.54125
G1 X162.67 Y156.9 E10.57572
G1 X160.543 Y156.899 E10.67476
G1 X159.78 Y156.886 E10.7103
G1 X158.577 Y156.8 E10.76646
G1 X157.304 Y156.636 E10.82622
G1 X154.729 Y156.347 E10.94688
G1 X152.227 Y156.131 E11.06382
G1 X149.733 Y155.992 E11.18013
G1 X147.199 Y155.92 E11.29817
G1 X144.733 Y155.92 E11.413
G1 X142.199 Y155.992 E11.53104
G1 X139.707 Y156.134 E11.64726
G1 X137.2 Y156.344 E11.76441
G1 X134.69 Y156.631 E11.88205
G1 X133.439 Y156.798 E11.94082
G1 X132.302 Y156.887 E11.99392
G1 X131.678 Y156.9 E12.02298
G1 X129.543 Y156.899 E12.1224
G1 X128.78 Y156.886 E12.15793
G1 X127.577 Y156.8 E12.21409
G1 X126.304 Y156.636 E12.27386
G1 X123.729 Y156.347 E12.39451
G1 X121.227 Y156.131 E12.51145
G1 X118.733 Y155.992 E12.62776
G1 X116.199 Y155.92 E12.7458
G1 X113.733 Y155.92 E12.86063
G1 X111.199 Y155.992 E12.97867
G1 X108.707 Y156.134 E13.0949
G1 X106.2 Y156.344 E13.21204
G1 X103.69 Y156.631 E13.32968
G1 X102.439 Y156.798 E13.38845
G1 X101.302 Y156.887 E13.44155
G1 X100.67 Y156.9 E13.47099
G1 X98.543 Y156.899 E13.57003
G1 X97.78 Y156.886 E13.60556
G1 X96.577 Y156.8 E13.66172
G1 X95.304 Y156.636 E13.72149
G1 X92.729 Y156.347 E13.84215
G1 X90.227 Y156.131 E13.95908
G1 X87.733 Y155.992 E14.07539
G1 X85.199 Y155.92 E14.19344
G1 X82.733 Y155.92 E14.30826
G1 X80.199 Y155.992 E14.4263
G1 X77.707 Y156.134 E14.54253
G1 X75.2 Y156.344 E14.65968
G1 X72.69 Y156.631 E14.77731
G1 X71.44 Y156.798 E14.83604
G1 X70.327 Y156.886 E14.88802
G1 X69.67 Y156.9 E14.91862
G1 X67.543 Y156.899 E15.01766
G1 X66.789 Y156.886 E15.05278
G1 X65.78 Y156.824 E15.09985
G1 X64.843 Y156.683 E15.14397
G1 X63.452 Y156.32 E15.21091
G1 X62.811 Y156.107 E15.24237
G1 X60.274 Y155.291 E15.36646
G1 X57.896 Y154.599 E15.48178
G1 X55.443 Y153.961 E15.5998
G1 X53.745 Y153.551 E15.68114
G1 X52.777 Y153.265 E15.72814
G1 X51.936 Y152.936 E15.77019
G1 X50.969 Y152.455 E15.82048
G1 X50.169 Y151.965 E15.86417
G1 X49.273 Y151.301 E15.9161
G1 X48.573 Y150.677 E15.95976
G1 X47.88 Y149.941 E16.00683
G1 X47.213 Y149.09 E16.05718
G1 X46.684 Y148.274 E16.10246
G1 X46.212 Y147.384 E16.14937
G1 X45.831 Y146.483 E16.19492
G1 X45.432 Y145.197 E16.25762
G1 X44.723 Y142.293 E16.39682
G1 X44.049 Y139.853 E16.51469
G1 X43.323 Y137.491 E16.62975
G1 X42.893 Y136.22 E16.69223
G1 X42.648 Y135.458 E16.7295
G1 X42.384 Y134.484 E16.77649
G1 X42.207 Y133.48 E16.82396
G1 X42.115 Y132.336 E16.8774
G1 X42.1 Y131.67 E16.90842
G1 X42.101 Y129.543 E17.00746
G1 X42.114 Y128.78 E17.043
G1 X42.2 Y127.577 E17.09916
G1 X42.364 Y126.304 E17.15892
G1 X42.653 Y123.729 E17.27958
G1 X42.869 Y121.227 E17.39652
G1 X43.008 Y118.733 E17.51283
G1 X43.08 Y116.199 E17.63087
G1 X43.08 Y113.699 E17.74728
G1 X43.008 Y111.199 E17.86374
G1 X42.866 Y108.704 E17.9801
G1 X42.656 Y106.206 E18.09683
G1 X42.368 Y103.672 E18.21558
G1 X42.202 Y102.44 E18.27347
G1 X42.113 Y101.304 E18.32653
G1 X42.1 Y100.697 E18.3548
G1 X42.1 Y98.657 E18.44979
G1 X42.117 Y97.746 E18.49222
G1 X42.176 Y96.809 E18.53593
G1 X42.344 Y95.715 E18.58747
G1 X42.683 Y94.438 E18.649
G1 X42.907 Y93.771 E18.68176
G1 X43.709 Y91.274 E18.80388
G1 X44.404 Y88.884 E18.91978
G1 X45.034 Y86.461 E19.03635
G1 X45.45 Y84.739 E19.11884
G1 X45.704 Y83.872 E19.16091
G1 X46.112 Y82.832 E19.21293
G1 X46.566 Y81.929 E19.25999
G1 X47.039 Y81.16 E19.30203
G1 X47.682 Y80.293 E19.3523
G1 X48.379 Y79.515 E19.40093
G1 X49.038 Y78.897 E19.443
G1 X49.887 Y78.229 E19.49331
G1 X50.733 Y77.68 E19.54027
G0 F1800 X50.951 Y78.016
G1 F1200 X51.748 Y77.592 E19.5823
G1 X52.682 Y77.196 E19.62954
G1 X53.898 Y76.821 E19.68879
G1 X56.792 Y76.114 E19.82751
G1 X59.254 Y75.435 E19.94644
G1 X61.627 Y74.705 E20.06204
G1 X62.912 Y74.271 E20.1252
G1 X63.651 Y74.033 E20.16135
G1 X64.592 Y73.777 E20.20676
G1 X65.557 Y73.606 E20.25239
G1 X66.673 Y73.515 E20.30453
G1 X67.312 Y73.5 E20.33429
G1 X69.304 Y73.5 E20.42705
G1 X70.193 Y73.513 E20.46845
G1 X71.374 Y73.597 E20.52358
G1 X72.655 Y73.761 E20.58372
G1 X75.237 Y74.052 E20.70471
G1 X77.739 Y74.267 E20.82164
G1 X80.256 Y74.408 E20.93903
G1 X82.79 Y74.48 E21.05707
G1 X85.278 Y74.48 E21.17292
G1 X87.812 Y74.408 E21.29096
G1 X90.327 Y74.267 E21.40825
G1 X92.834 Y74.054 E21.52541
G1 X95.359 Y73.766 E21.64375
G1 X96.592 Y73.601 E21.70167
G1 X97.706 Y73.513 E21.75371
G1 X98.33 Y73.5 E21.78277
G1 X100.451 Y73.501 E21.88153
G1 X101.192 Y73.513 E21.91604
G1 X102.372 Y73.597 E21.97112
G1 X103.645 Y73.76 E22.03088
G1 X106.237 Y74.052 E22.15234
G1 X108.739 Y74.267 E22.26928
G1 X111.256 Y74.408 E22.38666
G1 X113.79 Y74.48 E22.5047
G1 X116.278 Y74.48 E22.62055
G1 X118.812 Y74.408 E22.7386
G1 X121.327 Y74.265 E22.85589
G1 X123.834 Y74.054 E22.97304
G1 X126.359 Y73.766 E23.09138
G1 X127.592 Y73.601 E23.14931
G1 X128.706 Y73.513 E23.20134
G1 X129.33 Y73.5 E23.2304
G1 X131.451 Y73.501 E23.32916
G1 X132.192 Y73.513 E23.36367
G1 X133.372 Y73.597 E23.41876
G1 X134.645 Y73.76 E23.47852
G1 X137.237 Y74.052 E23.59998
G1 X139.739 Y74.267 E23.71691
G1 X142.256 Y74.408 E23.83429
G1 X144.79 Y74.48 E23.95234
G1 X147.278 Y74.48 E24.06819
G1 X149.812 Y74.408 E24.18623
G1 X152.327 Y74.265 E24.30353
G1 X154.834 Y74.054 E24.42068
G1 X157.359 Y73.766 E24.53901
G1 X158.592 Y73.601 E24.59694
G1 X159.706 Y73.513 E24.64897
G1 X160.33 Y73.5 E24.67803
G1 X162.45 Y73.501 E24.77675
G1 X163.188 Y73.513 E24.81112
G1 X164.159 Y73.572 E24.85642
G1 X165.052 Y73.704 E24.89845
G1 X166.052 Y73.943 E24.94633
G1 X166.507 Y74.085 E24.96852
G1 X167.115 Y74.29 E24.9984
G1 X169.597 Y75.088 E25.1198
G1 X172.003 Y75.789 E25.23649
G1 X174.424 Y76.418 E25.35296
G1 X176.14 Y76.832 E25.43516
G1 X177.075 Y77.107 E25.48054
G1 X177.916 Y77.436 E25.52259
G1 X178.85 Y77.902 E25.5712
G1 X179.62 Y78.374 E25.61325
G1 X180.46 Y78.997 E25.66195
G1 X181.159 Y79.621 E25.70558
G1 X181.803 Y80.303 E25.74926
G1 X182.45 Y81.126 E25.798
G1 X182.979 Y81.943 E25.84332
G1 X183.404 Y82.74 E25.88538
G1 X183.814 Y83.711 E25.93446
G1 X184.179 Y84.898 E25.99229
G1 X184.882 Y87.778 E26.13033
G1 X185.565 Y90.253 E26.24988
G1 X186.292 Y92.617 E26.36505
G1 X186.686 Y93.782 E26.42231
G1 X186.969 Y94.663 E26.4654
G1 X187.224 Y95.602 E26.51071
G1 X187.395 Y96.567 E26.55634
G1 X187.485 Y97.673 E26.60801
G1 X187.5 Y98.33 E26.63861
G1 X187.499 Y100.428 E26.73631
G1 X187.487 Y101.188 E26.7717
G1 X187.403 Y102.372 E26.82697
G1 X187.24 Y103.645 E26.88673
G1 X186.948 Y106.237 E27.00819
G1 X186.733 Y108.739 E27.12512
G1 X186.592 Y111.256 E27.24251
G1 X186.52 Y113.79 E27.36055
G1 X186.52 Y116.301 E27.47747
G1 X186.592 Y118.812 E27.59444
G1 X186.735 Y121.327 E27.71174
G1 X186.946 Y123.834 E27.82889
G1 X187.235 Y126.372 E27.94783
G1 X187.397 Y127.576 E28.0044
G1 X187.485 Y128.673 E28.05565
G1 X187.5 Y129.33 E28.08625
G1 X187.499 Y131.441 E28.18454
G1 X187.486 Y132.203 E28.22003
G1 X187.426 Y133.174 E28.26533
G1 X187.293 Y134.067 E28.30737
G1 X186.929 Y135.46 E28.37441
G1 X186.73 Y136.053 E28.40354
G1 X185.91 Y138.604 E28.52831
G1 X185.212 Y141.004 E28.64469
G1 X184.577 Y143.443 E28.76205
G1 X184.167 Y145.143 E28.84348
G1 X183.914 Y146.01 E28.88553
G1 X183.532 Y146.984 E28.93425
G1 X183.113 Y147.823 E28.97792
G1 X182.624 Y148.623 E29.02158
G1 X182.024 Y149.434 E29.06855
G1 X181.351 Y150.189 E29.11565
G1 X180.693 Y150.807 E29.15768
G1 X179.871 Y151.452 E29.20634
G1 X179.055 Y151.981 E29.25162
G1 X178.258 Y152.405 E29.29365
G1 X177.286 Y152.815 E29.34278
G1 X176.102 Y153.179 E29.40046
G1 X173.222 Y153.882 E29.5385
G1 X170.747 Y154.565 E29.65805
G1 X168.383 Y155.292 E29.77322
G1 X167.097 Y155.726 E29.83642
G1 X166.353 Y155.966 E29.87282
G1 X165.415 Y156.222 E29.91809
G1 X164.526 Y156.384 E29.96017
G1 X163.376 Y156.483 E30.01392
G1 X162.67 Y156.5 E30.0468
G1 X160.549 Y156.499 E30.14556
G1 X159.808 Y156.487 E30.18007
G1 X158.628 Y156.403 E30.23516
G1 X157.355 Y156.24 E30.29492
G1 X154.763 Y155.948 E30.41638
G1 X152.261 Y155.733 E30.53331
G1 X149.744 Y155.592 E30.65069
G1 X147.21 Y155.52 E30.76874
G1 X144.722 Y155.52 E30.88459
G1 X142.188 Y155.592 E31.00263
G1 X139.673 Y155.735 E31.11993
G1 X137.166 Y155.946 E31.23708
G1 X134.641 Y156.234 E31.35541
G1 X133.408 Y156.399 E31.41334
G1 X132.294 Y156.487 E31.46537
G1 X131.67 Y156.5 E31.49443
G1 X129.549 Y156.499 E31.5932
G1 X128.808 Y156.487 E31.62771
G1 X127.628 Y156.403 E31.68279
G1 X126.355 Y156.24 E31.74255
G1 X123.763 Y155.948 E31.86401
G1 X121.261 Y155.733 E31.98094
G1 X118.744 Y155.592 E32.09833
G1 X116.21 Y155.52 E32.21637
G1 X113.722 Y155.52 E32.33222
G1 X111.188 Y155.592 E32.45026
G1 X108.673 Y155.735 E32.56756
G1 X106.166 Y155.946 E32.68471
G1 X103.641 Y156.234 E32.80305
G1 X102.408 Y156.399 E32.86097
G1 X101.294 Y156.487 E32.913
G1 X100.67 Y156.5 E32.94207
G1 X98.549 Y156.499 E33.04083
G1 X97.808 Y156.487 E33.07534
G1 X96.628 Y156.403 E33.13042
G1 X95.355 Y156.24 E33.19018
G1 X92.763 Y155.948 E33.31164
G1 X90.261 Y155.733 E33.42857
G1 X87.744 Y155.592 E33.54596
G1 X85.21 Y155.52 E33.664
G1 X82.722 Y155.52 E33.77985
G1 X80.188 Y155.592 E33.89789
G1 X77.673 Y155.735 E34.01519
G1 X75.166 Y155.946 E34.13234
G1 X72.641 Y156.234 E34.25068
G1 X71.408 Y156.399 E34.3086
G1 X70.318 Y156.486 E34.35952
G1 X69.67 Y156.5 E34.3897
G1 X67.55 Y156.499 E34.48842
G1 X66.813 Y156.487 E34.52274
G1 X65.84 Y156.428 E34.56813
G1 X64.903 Y156.287 E34.61225
G1 X63.554 Y155.933 E34.67719
G1 X62.933 Y155.726 E34.70767
G1 X60.396 Y154.91 E34.83177
G1 X58.004 Y154.214 E34.94777
G1 X55.537 Y153.572 E35.06647
G1 X53.858 Y153.167 E35.14689
G1 X52.923 Y152.892 E35.19227
G1 X52.082 Y152.563 E35.23432
G1 X51.148 Y152.097 E35.28293
G1 X50.378 Y151.624 E35.32501
G1 X49.539 Y151.002 E35.37364
G1 X48.864 Y150.402 E35.41569
G1 X48.195 Y149.694 E35.46105
G1 X47.549 Y148.872 E35.50973
G1 X47.02 Y148.056 E35.55501
G1 X46.58 Y147.227 E35.59871
G1 X46.213 Y146.364 E35.64238
G1 X45.821 Y145.102 E35.70392
G1 X45.112 Y142.198 E35.84311
G1 X44.435 Y139.747 E35.96151
G1 X43.705 Y137.373 E36.07716
G1 X43.274 Y136.097 E36.13988
G1 X43.034 Y135.353 E36.17628
G1 X42.778 Y134.414 E36.2216
G1 X42.606 Y133.448 E36.26729
G1 X42.515 Y132.327 E36.31966
G1 X42.5 Y131.67 E36.35026
G1 X42.501 Y129.549 E36.44902
G1 X42.513 Y128.808 E36.48353
G1 X42.597 Y127.628 E36.53861
G1 X42.76 Y126.355 E36.59837
G1 X43.052 Y123.763 E36.71983
G1 X43.267 Y121.261 E36.83676
G1 X43.408 Y118.744 E36.95415
G1 X43.48 Y116.21 E37.07219
G1 X43.48 Y113.699 E37.18911
G1 X43.408 Y111.188 E37.30609
G1 X43.265 Y108.67 E37.42352
G1 X43.054 Y106.172 E37.54025
G1 X42.765 Y103.627 E37.65952
G1 X42.601 Y102.408 E37.7168
G1 X42.513 Y101.295 E37.76878
G1 X42.5 Y100.688 E37.79705
G1 X42.5 Y98.664 E37.8913
G1 X42.516 Y97.77 E37.93293
G1 X42.571 Y96.869 E37.97497
G1 X42.731 Y95.818 E38.02447
G1 X43.07 Y94.541 E38.08599
G1 X43.286 Y93.898 E38.11758
G1 X44.09 Y91.396 E38.23995
G1 X44.788 Y88.996 E38.35633
G1 X45.424 Y86.552 E38.47393
G1 X45.572 Y85.915 E38.50438
G1 X45.834 Y84.851 E38.5554
G1 X46.088 Y83.984 E38.59747
G1 X46.47 Y83.011 E38.64614
G1 X46.907 Y82.139 E38.69156
G1 X47.38 Y81.37 E38.7336
G1 X48.003 Y80.532 E38.78222
G1 X48.653 Y79.807 E38.82756
G1 X49.312 Y79.189 E38.86963
G1 X50.105 Y78.565 E38.91662
G1 X50.951 Y78.016 E38.96358
G0 F1800 X51.139 Y78.369
G1 F1200 X51.936 Y77.945 E39.00561
G1 X52.8 Y77.578 E39.04933
G1 X53.993 Y77.21 E39.10746
G1 X56.887 Y76.503 E39.24618
G1 X59.36 Y75.82 E39.36564
G1 X61.755 Y75.084 E39.48231
G1 X63.035 Y74.652 E39.54522
G1 X63.757 Y74.419 E39.58054
