;FLAVOR:Marlin
;TIME:1410
;Filament used: 0.585471m
;Layer height: 0.12
;MINX:90.6
;MINY:84.9
;MINZ:0.12
;MAXX:139.4
;MAXY:133.7
;MAXZ:11.4
;Generated with Cura_SteamEngine 5.4.0-alpha+testing_1
M140 S60
M105
M190 S60
M104 S200
M105
M109 S200
M82 ;absolute extrusion mode
 G28 ; home all axes
 M420 S1
 M117 ; Purge extruder
 G92 E0 ; reset extruder
 G1 Z1.0 F3000 ; move z up little to prevent scratching of surface
 G1 X2 Y20 Z0.3 F5000.0 ; move to start-line position
 G1 X2 Y200.0 Z0.3 F1500.0 E15 ; draw 1st line
 G1 X2 Y200.0 Z0.4 F5000.0 ; move to side a little
 G1 X2 Y20 Z0.4 F1500.0 E30 ; draw 2nd line
 G92 E0 ; reset extruder
 G1 Z1.0 F3000 ; move z up little to prevent scratching of surface
G92 E0
G92 E0
G1 F2400 E-2
;LAYER_COUNT:95
;LAYER:0
M107
G0 F1800 X93.419 Y88.814 Z0.12
;TYPE:SKIRT
G1 F2400 E0
G1 F1200 X94.192 Y88.011 E0.02669
G1 X94.873 Y87.418 E0.04832
G1 X95.719 Y86.802 E0.07338
G1 X96.648 Y86.25 E0.09926
G1 X97.525 Y85.829 E0.12255
G1 X98.401 Y85.496 E0.14499
G1 X99.441 Y85.204 E0.17086
G1 X100.482 Y85.012 E0.19621
G1 X101.621 Y84.916 E0.22358
G1 X102.303 Y84.9 E0.23992
G1 X127.31 Y84.9 E0.83877
G1 X128.208 Y84.914 E0.86028
G1 X129.214 Y84.976 E0.88441
G1 X130.143 Y85.115 E0.90691
G1 X131.126 Y85.35 E0.93111
G1 X132.115 Y85.683 E0.9561
G1 X133.072 Y86.104 E0.98114
G1 X133.864 Y86.539 E1.00278
G1 X134.731 Y87.117 E1.02773
G1 X135.573 Y87.797 E1.05365
G1 X136.247 Y88.449 E1.07611
G1 X136.909 Y89.21 E1.10026
G1 X137.543 Y90.086 E1.12616
G1 X138.005 Y90.862 E1.14778
G1 X138.49 Y91.869 E1.17455
G1 X138.83 Y92.78 E1.19784
G1 X139.099 Y93.752 E1.22199
G1 X139.289 Y94.791 E1.24728
G1 X139.384 Y95.921 E1.27444
G1 X139.4 Y96.63 E1.29142
G1 X139.399 Y121.706 E1.89192
G1 X139.387 Y122.486 E1.9106
G1 X139.327 Y123.493 E1.93476
G1 X139.196 Y124.387 E1.9564
G1 X138.957 Y125.402 E1.98137
G1 X138.614 Y126.428 E2.00728
G1 X138.253 Y127.256 E2.02891
G1 X137.737 Y128.204 E2.05476
G1 X137.155 Y129.073 E2.0798
G1 X136.589 Y129.777 E2.10143
G1 X135.869 Y130.53 E2.12638
G1 X135.052 Y131.241 E2.15232
G1 X134.321 Y131.772 E2.17396
G1 X133.428 Y132.31 E2.19892
G1 X132.455 Y132.78 E2.2248
G1 X131.578 Y133.111 E2.24725
G1 X130.606 Y133.386 E2.27144
G1 X129.53 Y133.586 E2.29764
G1 X128.379 Y133.684 E2.32531
G1 X127.679 Y133.7 E2.34208
G1 X102.558 Y133.699 E2.94366
G1 X101.808 Y133.687 E2.96162
G1 X100.802 Y133.627 E2.98575
G1 X99.908 Y133.495 E3.00739
G1 X98.857 Y133.245 E3.03326
G1 X97.867 Y132.912 E3.05828
G1 X97.04 Y132.551 E3.07989
G1 X96.091 Y132.034 E3.10577
G1 X95.223 Y131.452 E3.13079
G1 X94.519 Y130.886 E3.15242
G1 X93.715 Y130.113 E3.17913
G1 X93.122 Y129.432 E3.20076
G1 X92.487 Y128.557 E3.22665
G1 X91.97 Y127.69 E3.25082
G1 X91.518 Y126.75 E3.2758
G1 X91.187 Y125.873 E3.29825
G1 X90.913 Y124.901 E3.32243
G1 X90.713 Y123.821 E3.34873
G1 X90.614 Y122.618 E3.37764
G1 X90.6 Y121.958 E3.39345
G1 X90.601 Y96.819 E3.99546
G1 X90.613 Y96.101 E4.01266
G1 X90.674 Y95.095 E4.03679
G1 X90.806 Y94.202 E4.05841
G1 X91.046 Y93.187 E4.08338
G1 X91.378 Y92.194 E4.10846
G1 X91.768 Y91.302 E4.13177
G1 X92.251 Y90.416 E4.15594
G1 X92.852 Y89.518 E4.18181
G1 X93.419 Y88.814 E4.20346
G0 F1800 X93.731 Y89.065
G1 F1200 X94.455 Y88.313 E4.22846
G1 X95.136 Y87.72 E4.25008
G1 X95.924 Y87.146 E4.27343
G1 X96.821 Y86.611 E4.29844
G1 X97.698 Y86.19 E4.32174
G1 X98.543 Y85.87 E4.34337
G1 X99.549 Y85.589 E4.36839
G1 X100.516 Y85.411 E4.39193
G1 X101.655 Y85.315 E4.41931
G1 X102.312 Y85.3 E4.43504
G1 X127.304 Y85.3 E5.03353
G1 X128.184 Y85.313 E5.05461
G1 X129.155 Y85.372 E5.07791
G1 X130.084 Y85.511 E5.1004
G1 X131.032 Y85.739 E5.12375
G1 X131.954 Y86.049 E5.14704
G1 X132.879 Y86.455 E5.17124
G1 X133.671 Y86.89 E5.19287
G1 X134.48 Y87.428 E5.21614
G1 X135.295 Y88.085 E5.24121
G1 X135.945 Y88.712 E5.26284
G1 X136.607 Y89.473 E5.28699
G1 X137.199 Y90.291 E5.31117
G1 X137.661 Y91.067 E5.3328
G1 X138.115 Y92.009 E5.35784
G1 X138.444 Y92.887 E5.38029
G1 X138.713 Y93.859 E5.40445
G1 X138.89 Y94.825 E5.42796
G1 X138.985 Y95.955 E5.45512
G1 X139 Y96.63 E5.47129
G1 X138.999 Y121.7 E6.07165
G1 X138.988 Y122.463 E6.08992
G1 X138.931 Y123.435 E6.11324
G1 X138.8 Y124.329 E6.13487
G1 X138.577 Y125.276 E6.15817
G1 X138.247 Y126.268 E6.18321
G1 X137.886 Y127.096 E6.20484
G1 X137.386 Y128.012 E6.22983
G1 X136.843 Y128.822 E6.25318
G1 X136.277 Y129.526 E6.27482
G1 X135.606 Y130.229 E6.29809
G1 X134.817 Y130.917 E6.32316
G1 X134.086 Y131.448 E6.34479
G1 X133.254 Y131.95 E6.36806
G1 X132.313 Y132.406 E6.3931
G1 X131.469 Y132.726 E6.41472
G1 X130.497 Y133.001 E6.43891
G1 X129.496 Y133.187 E6.46329
G1 X128.345 Y133.285 E6.49095
G1 X127.67 Y133.3 E6.50712
G1 X102.564 Y133.299 E7.10834
G1 X101.831 Y133.288 E7.1259
G1 X100.86 Y133.231 E7.14919
G1 X99.966 Y133.099 E7.17083
G1 X98.984 Y132.866 E7.195
G1 X98.027 Y132.545 E7.21917
G1 X97.2 Y132.184 E7.24078
G1 X96.313 Y131.701 E7.26497
G1 X95.474 Y131.14 E7.28914
G1 X94.77 Y130.574 E7.31077
G1 X94.017 Y129.85 E7.33579
G1 X93.424 Y129.169 E7.35741
G1 X92.831 Y128.352 E7.38159
G1 X92.314 Y127.485 E7.40576
G1 X91.892 Y126.608 E7.42907
G1 X91.572 Y125.764 E7.45068
G1 X91.298 Y124.792 E7.47487
G1 X91.112 Y123.788 E7.49932
G1 X91.014 Y122.609 E7.52765
G1 X91 Y121.958 E7.54324
G1 X91.001 Y96.825 E8.14511
G1 X91.012 Y96.125 E8.16188
G1 X91.07 Y95.153 E8.18519
G1 X91.202 Y94.26 E8.20681
G1 X91.426 Y93.313 E8.23011
G1 X91.745 Y92.354 E8.25432
G1 X92.135 Y91.462 E8.27763
G1 X92.602 Y90.608 E8.30094
G1 X93.164 Y89.769 E8.32512
G1 X93.731 Y89.065 E8.34677
G0 F1800 X94.043 Y89.316
G1 F1200 X94.718 Y88.615 E8.37007
G1 X95.399 Y88.022 E8.3917
G1 X96.159 Y87.47 E8.41419
G1 X96.995 Y86.971 E8.43751
G1 X97.84 Y86.564 E8.45997
G1 X98.685 Y86.244 E8.48161
G1 X99.622 Y85.982 E8.5049
G1 X100.55 Y85.81 E8.52751
G1 X101.689 Y85.714 E8.55488
G1 X102.321 Y85.7 E8.57002
G1 X127.298 Y85.7 E9.16815
G1 X128.16 Y85.712 E9.18879
G1 X129.097 Y85.768 E9.21127
G1 X129.99 Y85.9 E9.23289
G1 X130.938 Y86.128 E9.25624
G1 X131.794 Y86.416 E9.27787
G1 X132.686 Y86.806 E9.30118
G1 X133.478 Y87.241 E9.32282
G1 X134.258 Y87.761 E9.34527
G1 X135.017 Y88.373 E9.36862
G1 X135.667 Y89 E9.39024
G1 X136.305 Y89.735 E9.41355
G1 X136.855 Y90.496 E9.43604
G1 X137.317 Y91.272 E9.45766
G1 X137.74 Y92.149 E9.48098
G1 X138.069 Y93.027 E9.50343
G1 X138.32 Y93.932 E9.52592
G1 X138.491 Y94.859 E9.5485
G1 X138.586 Y95.989 E9.57565
G1 X138.6 Y96.63 E9.59101
G1 X138.599 Y121.695 E10.19125
G1 X138.589 Y122.44 E10.20909
G1 X138.535 Y123.377 E10.23157
G1 X138.404 Y124.271 E10.2532
G1 X138.188 Y125.184 E10.27567
G1 X137.88 Y126.108 E10.29899
G1 X137.519 Y126.936 E10.32063
G1 X137.053 Y127.79 E10.34392
G1 X136.531 Y128.571 E10.36642
G1 X135.965 Y129.275 E10.38805
G1 X135.317 Y129.952 E10.41049
G1 X134.582 Y130.593 E10.43385
G1 X133.851 Y131.124 E10.45548
G1 X133.048 Y131.607 E10.47792
G1 X132.171 Y132.032 E10.50126
G1 X131.327 Y132.352 E10.52288
G1 X130.389 Y132.616 E10.54621
G1 X129.462 Y132.788 E10.56879
G1 X128.311 Y132.886 E10.59645
G1 X127.67 Y132.9 E10.61181
G1 X102.57 Y132.899 E11.21289
G1 X101.854 Y132.889 E11.23003
G1 X100.918 Y132.835 E11.25248
G1 X100.024 Y132.703 E11.27413
G1 X99.111 Y132.487 E11.29659
G1 X98.187 Y132.178 E11.31993
G1 X97.36 Y131.817 E11.34153
G1 X96.505 Y131.35 E11.36486
G1 X95.725 Y130.828 E11.38734
G1 X95.021 Y130.262 E11.40897
G1 X94.319 Y129.587 E11.43229
G1 X93.726 Y128.906 E11.45392
G1 X93.174 Y128.147 E11.47639
G1 X92.674 Y127.311 E11.49972
G1 X92.266 Y126.466 E11.52219
G1 X91.946 Y125.622 E11.54381
G1 X91.683 Y124.684 E11.56714
G1 X91.511 Y123.755 E11.58976
G1 X91.413 Y122.576 E11.61809
G1 X91.4 Y121.958 E11.63289
G1 X91.401 Y96.831 E12.23462
G1 X91.411 Y96.148 E12.25098
G1 X91.466 Y95.211 E12.27345
G1 X91.598 Y94.318 E12.29507
G1 X91.815 Y93.405 E12.31754
G1 X92.112 Y92.514 E12.34003
G1 X92.502 Y91.622 E12.36335
G1 X92.953 Y90.8 E12.3858
G1 X93.476 Y90.02 E12.40829
G1 X94.043 Y89.316 E12.42994
G0 F1800 X94.355 Y89.567
G1 F1200 X94.981 Y88.917 E12.45155
G1 X95.662 Y88.324 E12.47317
G1 X96.394 Y87.794 E12.49481
G1 X97.169 Y87.331 E12.51643
G1 X97.982 Y86.938 E12.53806
G1 X98.827 Y86.618 E12.5597
G1 X99.696 Y86.375 E12.5813
G1 X100.584 Y86.209 E12.60294
G1 X101.723 Y86.113 E12.63031
G1 X102.33 Y86.1 E12.64485
G1 X127.293 Y86.1 E13.24265
G1 X128.137 Y86.111 E13.26286
G1 X129.039 Y86.164 E13.2845
G1 X129.932 Y86.296 E13.30611
G1 X130.81 Y86.507 E13.32774
G1 X131.666 Y86.795 E13.34937
G1 X132.493 Y87.157 E13.37098
G1 X133.285 Y87.592 E13.39262
G1 X134.036 Y88.094 E13.41426
G1 X134.739 Y88.661 E13.43588
G1 X135.389 Y89.288 E13.45751
G1 X135.981 Y89.97 E13.47914
G1 X136.511 Y90.701 E13.50076
G1 X136.973 Y91.477 E13.52239
G1 X137.366 Y92.29 E13.54401
G1 X137.684 Y93.135 E13.56563
G1 X137.927 Y94.005 E13.58726
G1 X138.092 Y94.893 E13.60889
G1 X138.187 Y96.023 E13.63605
G1 X138.2 Y96.63 E13.65059
G1 X138.199 Y121.69 E14.25071
G1 X138.19 Y122.417 E14.26812
G1 X138.139 Y123.319 E14.28975
G1 X138.008 Y124.213 E14.31139
G1 X137.799 Y125.091 E14.33301
G1 X137.513 Y125.948 E14.35464
G1 X137.152 Y126.776 E14.37627
G1 X136.72 Y127.568 E14.39788
G1 X136.219 Y128.32 E14.41951
G1 X135.653 Y129.024 E14.44115
G1 X135.028 Y129.675 E14.46276
G1 X134.347 Y130.269 E14.4844
G1 X133.616 Y130.8 E14.50603
G1 X132.842 Y131.264 E14.52765
G1 X132.029 Y131.658 E14.54928
G1 X131.185 Y131.978 E14.5709
G1 X130.315 Y132.223 E14.59254
G1 X129.428 Y132.389 E14.61415
G1 X128.277 Y132.487 E14.64181
G1 X127.67 Y132.5 E14.65635
G1 X102.575 Y132.499 E15.25731
G1 X101.877 Y132.49 E15.27403
G1 X100.976 Y132.439 E15.29564
G1 X100.082 Y132.307 E15.31728
G1 X99.204 Y132.098 E15.33889
G1 X98.347 Y131.811 E15.36054
G1 X97.52 Y131.45 E15.38214
G1 X96.727 Y131.017 E15.40378
G1 X95.976 Y130.516 E15.4254
G1 X95.272 Y129.95 E15.44703
G1 X94.621 Y129.324 E15.46866
G1 X94.028 Y128.643 E15.49028
G1 X93.498 Y127.912 E15.51191
G1 X93.034 Y127.137 E15.53354
G1 X92.64 Y126.324 E15.55517
G1 X92.32 Y125.48 E15.57679
G1 X92.076 Y124.61 E15.59843
G1 X91.91 Y123.722 E15.62006
G1 X91.813 Y122.567 E15.64782
G1 X91.8 Y121.958 E15.6624
G1 X91.801 Y96.836 E16.26401
G1 X91.81 Y96.171 E16.27993
G1 X91.862 Y95.269 E16.30157
G1 X91.994 Y94.376 E16.32319
G1 X92.204 Y93.498 E16.34481
G1 X92.491 Y92.641 E16.36645
G1 X92.853 Y91.814 E16.38807
G1 X93.286 Y91.022 E16.40968
G1 X93.788 Y90.271 E16.43132
G1 X94.355 Y89.567 E16.45296
G1 F2400 E14.45296
;MESH:talking book-dummy button 3_3.stl
G0 F1800 X101.347 Y122.953
G0 X114.663 Y122.965
G0 X114.663 Y114.18
;TYPE:WALL-INNER
G1 F2400 E16.45296
G1 F1200 X114.49 Y114.166 E16.45712
G1 X114.338 Y114.127 E16.46088
G1 X114.192 Y114.063 E16.46469
G1 X114.063 Y113.981 E16.46836
G1 X113.953 Y113.885 E16.47185
G1 X113.863 Y113.781 E16.47515
G1 X113.792 Y113.673 E16.47824
G1 X113.739 Y113.565 E16.48112
G1 X113.697 Y113.443 E16.48421
G1 X113.671 Y113.313 E16.48739
G1 X113.663 Y113.18 E16.49058
G1 X113.663 Y107.712 E16.62152
G1 X112.793 Y108.137 E16.64471
G1 X112.356 Y108.238 E16.65545
G1 X112.047 Y108.191 E16.66293
G1 X111.848 Y108.102 E16.66815
G1 X111.717 Y108.011 E16.67197
G1 X111.621 Y107.92 E16.67514
G1 X111.533 Y107.811 E16.6785
G1 X111.458 Y107.686 E16.68199
G1 X111.401 Y107.546 E16.68561
G1 X111.367 Y107.411 E16.68894
G1 X111.353 Y107.238 E16.6931
G1 X111.353 Y106.128 E16.71968
G1 X111.367 Y105.955 E16.72383
G1 X111.397 Y105.832 E16.72687
G1 X111.45 Y105.696 E16.73036
G1 X111.52 Y105.574 E16.73373
G1 X111.602 Y105.466 E16.73698
G1 X111.722 Y105.351 E16.74096
G1 X111.868 Y105.252 E16.74518
G1 X112.707 Y104.788 E16.76814
G1 X113.38 Y104.277 E16.78838
G1 X113.878 Y103.766 E16.80546
G1 X114.233 Y103.226 E16.82094
G1 X114.342 Y103.089 E16.82513
G1 X114.483 Y102.965 E16.82963
G1 X114.657 Y102.865 E16.83444
G1 X114.856 Y102.799 E16.83946
G1 X115.069 Y102.777 E16.84458
G1 X115.805 Y102.777 E16.86221
G1 X116.005 Y102.797 E16.86702
G1 X116.193 Y102.854 E16.87173
G1 X116.36 Y102.944 E16.87627
G1 X116.499 Y103.056 E16.88055
G1 X116.609 Y103.181 E16.88453
G1 X116.691 Y103.312 E16.88823
G1 X116.748 Y103.441 E16.89161
G1 X116.783 Y103.564 E16.89467
G1 X116.8 Y103.669 E16.89722
G1 X116.806 Y103.777 E16.89981
G1 X116.806 Y113.18 E17.12499
G1 X116.795 Y113.328 E17.12854
G1 X116.763 Y113.471 E17.13205
G1 X116.711 Y113.605 E17.13549
G1 X116.645 Y113.723 E17.13873
G1 X116.558 Y113.839 E17.1422
G1 X116.447 Y113.948 E17.14593
G1 X116.312 Y114.042 E17.14987
G1 X116.157 Y114.117 E17.15399
G1 X115.978 Y114.166 E17.15844
G1 X115.805 Y114.18 E17.16259
G1 X114.663 Y114.18 E17.18994
G0 F1800 X114.663 Y113.78
G1 F1200 X114.559 Y113.772 E17.19244
G1 X114.468 Y113.748 E17.19469
G1 X114.38 Y113.71 E17.19699
G1 X114.303 Y113.661 E17.19917
G1 X114.237 Y113.603 E17.20128
G1 X114.183 Y113.541 E17.20325
G1 X114.14 Y113.476 E17.20511
G1 X114.083 Y113.338 E17.20869
G1 X114.071 Y113.284 E17.21001
G1 X114.063 Y113.18 E17.21251
G1 X114.063 Y107.028 E17.35983
G1 X113.921 Y107.131 E17.36403
G1 X113.833 Y107.184 E17.36649
G1 X112.617 Y107.778 E17.3989
G1 X112.355 Y107.838 E17.40534
G1 X112.169 Y107.81 E17.40984
G1 X112.05 Y107.756 E17.41297
G1 X111.971 Y107.702 E17.41526
G1 X111.913 Y107.647 E17.41718
G1 X111.861 Y107.582 E17.41917
G1 X111.816 Y107.507 E17.42127
G1 X111.781 Y107.423 E17.42345
G1 X111.761 Y107.342 E17.42544
G1 X111.753 Y107.238 E17.42794
G1 X111.753 Y106.128 E17.45452
G1 X111.761 Y106.024 E17.45702
G1 X111.779 Y105.95 E17.45885
G1 X111.811 Y105.869 E17.46093
G1 X111.853 Y105.795 E17.46297
G1 X111.902 Y105.731 E17.4649
G1 X111.974 Y105.662 E17.46729
G1 X112.062 Y105.602 E17.46984
G1 X112.926 Y105.124 E17.49348
G1 X113.646 Y104.578 E17.51512
G1 X114.191 Y104.018 E17.53384
G1 X114.567 Y103.446 E17.55023
G1 X114.633 Y103.364 E17.55275
G1 X114.717 Y103.29 E17.55543
G1 X114.822 Y103.23 E17.55833
G1 X114.965 Y103.185 E17.56192
G1 X115.069 Y103.177 E17.56441
G1 X115.805 Y103.177 E17.58204
G1 X115.925 Y103.189 E17.58493
G1 X116.038 Y103.223 E17.58775
G1 X116.138 Y103.277 E17.59047
G1 X116.222 Y103.344 E17.59305
G1 X116.288 Y103.419 E17.59544
G1 X116.337 Y103.498 E17.59767
G1 X116.371 Y103.575 E17.59968
G1 X116.397 Y103.673 E17.60211
G1 X116.406 Y103.777 E17.60461
G1 X116.406 Y113.18 E17.82979
G1 X116.397 Y113.284 E17.83229
G1 X116.38 Y113.355 E17.83403
G1 X116.349 Y113.435 E17.83609
G1 X116.309 Y113.506 E17.83804
G1 X116.257 Y113.576 E17.84013
G1 X116.19 Y113.641 E17.84236
G1 X116.11 Y113.698 E17.84472
G1 X116.016 Y113.742 E17.8472
G1 X115.909 Y113.772 E17.84986
G1 X115.805 Y113.78 E17.85236
G1 X114.663 Y113.78 E17.87971
G1 F2400 E15.87971
G0 F1800 X127 Y121.3
G1 F2400 E17.87971
G1 F1200 X127 Y97.3 E18.45444
G1 X103.001 Y97.301 E19.02915
G1 X103 Y121.3 E19.60387
G1 X127 Y121.3 E20.1786
G0 F1800 X127.4 Y121.7
G1 F1200 X127.4 Y96.9 E20.77249
G1 X102.601 Y96.901 E21.36636
G1 X102.6 Y121.7 E21.96023
G1 X127.4 Y121.7 E22.55412
G0 F1800 X127.8 Y122.1
;TYPE:WALL-OUTER
G1 F1200 X127.8 Y96.5 E23.13652
G1 X102.201 Y96.501 E23.7189
G1 X102.2 Y122.1 E24.30127
G1 X127.8 Y122.1 E24.88367
G1 F2400 E22.88367
G0 F1800 X114.628 Y113.378
G1 F2400 E24.88367
G1 F1200 X114.543 Y113.341 E24.88578
G1 X114.488 Y113.279 E24.88767
G1 X114.464 Y113.207 E24.88939
G1 X114.463 Y106.245 E25.04778
G1 X113.687 Y106.807 E25.06958
G1 X112.441 Y107.418 E25.10115
G1 X112.354 Y107.438 E25.10318
G1 X112.271 Y107.426 E25.10509
G1 X112.206 Y107.375 E25.10697
G1 X112.174 Y107.328 E25.10826
G1 X112.155 Y107.27 E25.10965
G1 X112.155 Y106.093 E25.13642
G1 X112.172 Y106.041 E25.13767
G1 X112.226 Y105.972 E25.13966
G1 X113.145 Y105.46 E25.16359
G1 X113.912 Y104.878 E25.1855
G1 X114.504 Y104.27 E25.2048
G1 X114.901 Y103.666 E25.22125
G1 X114.951 Y103.614 E25.22289
G1 X115.034 Y103.579 E25.22494
G1 X115.805 Y103.577 E25.24248
G1 X115.883 Y103.592 E25.24429
G1 X115.944 Y103.632 E25.24595
G1 X116.003 Y103.723 E25.24841
G1 X116.003 Y113.215 E25.46435
G1 X115.987 Y113.265 E25.46555
G1 X115.956 Y113.312 E25.46683
G1 X115.907 Y113.353 E25.46828
G1 X115.84 Y113.378 E25.46991
G1 X114.628 Y113.378 E25.49748
G1 F2400 E23.49748
G0 F1800 X126.64 Y120.94
;TYPE:SKIN
G1 F2400 E25.49748
G1 F1200 X103.361 Y120.939 E26.05495
G1 X103.361 Y97.661 E26.6124
G1 X126.64 Y97.66 E27.16987
G1 X126.64 Y120.94 E27.72736
G1 F2400 E25.72736
G0 F1800 X126.64 Y122.965
G0 X114.644 Y122.965
