;FLAVOR:Marlin
;TIME:371
;Filament used: 0.133328m
;Layer height: 0.16
;MINX:92.757
;MINY:89.424
;MINZ:0.2
;MAXX:137.242
;MAXY:133.909
;MAXZ:2.96
;Generated with Cura_SteamEngine 5.4.0-alpha+testing_1
M140 S60
M105
M190 S60
M104 S200
M105
M109 S200
M82 ;absolute extrusion mode
 G28 ; home all axes
 M420 S1
 M117 ; Purge extruder
 G92 E0 ; reset extruder
 G1 Z1.0 F3000 ; move z up little to prevent scratching of surface
 G1 X2 Y20 Z0.3 F5000.0 ; move to start-line position
 G1 X2 Y200.0 Z0.3 F1500.0 E15 ; draw 1st line
 G1 X2 Y200.0 Z0.4 F5000.0 ; move to side a little
 G1 X2 Y20 Z0.4 F1500.0 E30 ; draw 2nd line
 G92 E0 ; reset extruder
 G1 Z1.0 F3000 ; move z up little to prevent scratching of surface
G92 E0
G92 E0
G1 F2400 E-2
;LAYER_COUNT:18
;LAYER:0
M107
G0 F3600 X96.325 Y92.559 Z0.2
;TYPE:SKIRT
G1 F2400 E0
G1 F600 X97.114 Y91.876 E0.04165
G1 X97.875 Y91.326 E0.07913
G1 X98.804 Y90.774 E0.12226
G1 X99.681 Y90.353 E0.16108
G1 X100.557 Y90.02 E0.19849
G1 X101.598 Y89.728 E0.24164
G1 X102.638 Y89.536 E0.28385
G1 X103.778 Y89.44 E0.32951
G1 X104.487 Y89.424 E0.35782
G1 X125.304 Y89.426 E1.18867
G1 X126.05 Y89.439 E1.21845
G1 X127.058 Y89.501 E1.25875
G1 X127.951 Y89.634 E1.29479
G1 X128.931 Y89.866 E1.33498
G1 X129.991 Y90.222 E1.37961
G1 X130.849 Y90.6 E1.41703
G1 X131.796 Y91.121 E1.46017
G1 X132.546 Y91.624 E1.49621
G1 X133.413 Y92.323 E1.54066
G1 X134.088 Y92.975 E1.57812
G1 X134.751 Y93.736 E1.6184
G1 X135.384 Y94.612 E1.66154
G1 X135.847 Y95.388 E1.69761
G1 X136.315 Y96.36 E1.74066
G1 X136.683 Y97.34 E1.78244
G1 X136.933 Y98.244 E1.81988
G1 X137.13 Y99.317 E1.86342
G1 X137.224 Y100.414 E1.90736
G1 X137.242 Y101.155 E1.93695
G1 X137.241 Y121.915 E2.76552
G1 X137.229 Y122.695 E2.79666
G1 X137.169 Y123.702 E2.83692
G1 X137.038 Y124.596 E2.87298
G1 X136.799 Y125.611 E2.9146
G1 X136.456 Y126.637 E2.95778
G1 X136.095 Y127.465 E2.99383
G1 X135.579 Y128.413 E3.03691
G1 X134.997 Y129.282 E3.07866
G1 X134.431 Y129.986 E3.11471
G1 X133.711 Y130.739 E3.15629
G1 X132.894 Y131.45 E3.19952
G1 X132.163 Y131.981 E3.23558
G1 X131.27 Y132.519 E3.27719
G1 X130.297 Y132.989 E3.32032
G1 X129.42 Y133.32 E3.35773
G1 X128.448 Y133.595 E3.39805
G1 X127.372 Y133.795 E3.44173
G1 X126.237 Y133.893 E3.4872
G1 X125.556 Y133.909 E3.51438
G1 X104.703 Y133.909 E4.34667
G1 X103.967 Y133.897 E4.37605
G1 X102.945 Y133.834 E4.41692
G1 X102.015 Y133.695 E4.45445
G1 X101.032 Y133.46 E4.49479
G1 X100.075 Y133.139 E4.53508
G1 X99.119 Y132.72 E4.57674
G1 X98.204 Y132.215 E4.61845
G1 X97.398 Y131.672 E4.65724
G1 X96.667 Y131.084 E4.69468
G1 X95.863 Y130.309 E4.73925
G1 X95.227 Y129.573 E4.77807
G1 X94.676 Y128.813 E4.81554
G1 X94.105 Y127.856 E4.86002
G1 X93.713 Y127.042 E4.89608
G1 X93.318 Y125.996 E4.9407
G1 X93.059 Y125.056 E4.97962
G1 X92.869 Y124.016 E5.02182
G1 X92.772 Y122.837 E5.06903
G1 X92.757 Y122.143 E5.09674
G1 X92.758 Y101.347 E5.92675
G1 X92.77 Y100.626 E5.95553
G1 X92.831 Y99.62 E5.99576
G1 X92.963 Y98.727 E6.03178
G1 X93.204 Y97.709 E6.07354
G1 X93.547 Y96.686 E6.1166
G1 X93.909 Y95.858 E6.15267
G1 X94.427 Y94.909 E6.19582
G1 X95.009 Y94.042 E6.2375
G1 X95.575 Y93.339 E6.27352
G1 X96.325 Y92.559 E6.31671
G0 F3600 X96.613 Y92.837
G1 F600 X97.349 Y92.2 E6.35556
G1 X98.08 Y91.67 E6.3916
G1 X98.977 Y91.135 E6.43328
G1 X99.854 Y90.714 E6.47211
G1 X100.699 Y90.394 E6.50817
G1 X101.706 Y90.113 E6.5499
G1 X102.672 Y89.935 E6.5891
G1 X103.812 Y89.839 E6.63476
G1 X104.487 Y89.824 E6.66171
G1 X125.297 Y89.826 E7.49228
G1 X126.026 Y89.838 E7.52138
G1 X126.999 Y89.897 E7.56029
G1 X127.892 Y90.03 E7.59632
G1 X128.838 Y90.255 E7.63513
G1 X129.83 Y90.588 E7.6769
G1 X130.688 Y90.966 E7.71432
G1 X131.573 Y91.453 E7.75464
G1 X132.323 Y91.956 E7.79068
G1 X133.135 Y92.611 E7.83232
G1 X133.81 Y93.263 E7.86977
G1 X134.449 Y93.998 E7.90865
G1 X135.04 Y94.817 E7.94896
G1 X135.503 Y95.593 E7.98502
G1 X135.941 Y96.501 E8.02526
G1 X136.297 Y97.447 E8.0656
G1 X136.547 Y98.351 E8.10303
G1 X136.731 Y99.351 E8.14362
G1 X136.825 Y100.448 E8.18756
G1 X136.842 Y101.155 E8.21579
G1 X136.841 Y121.909 E9.04412
G1 X136.83 Y122.672 E9.07458
G1 X136.773 Y123.644 E9.11344
G1 X136.642 Y124.538 E9.1495
G1 X136.419 Y125.485 E9.18833
G1 X136.089 Y126.477 E9.23006
G1 X135.728 Y127.305 E9.26611
G1 X135.228 Y128.221 E9.30776
G1 X134.685 Y129.031 E9.34668
G1 X134.119 Y129.735 E9.38274
G1 X133.448 Y130.438 E9.42153
G1 X132.659 Y131.126 E9.46331
G1 X131.928 Y131.657 E9.49937
G1 X131.096 Y132.159 E9.53815
G1 X130.155 Y132.615 E9.57989
G1 X129.311 Y132.935 E9.61591
G1 X128.339 Y133.21 E9.65623
G1 X127.338 Y133.396 E9.69686
G1 X126.203 Y133.494 E9.74233
G1 X125.547 Y133.509 E9.76852
G1 X104.709 Y133.509 E10.60021
G1 X103.991 Y133.498 E10.62887
G1 X103.004 Y133.438 E10.66834
G1 X102.074 Y133.299 E10.70587
G1 X101.126 Y133.071 E10.74479
G1 X100.236 Y132.773 E10.78225
G1 X99.28 Y132.354 E10.82391
G1 X98.427 Y131.883 E10.8628
G1 X97.649 Y131.36 E10.90021
G1 X96.918 Y130.772 E10.93765
G1 X96.165 Y130.047 E10.97937
G1 X95.551 Y129.338 E11.01681
G1 X95 Y128.578 E11.05427
G1 X94.465 Y127.682 E11.09593
G1 X94.073 Y126.868 E11.13199
G1 X93.704 Y125.89 E11.17371
G1 X93.445 Y124.95 E11.21262
G1 X93.268 Y123.983 E11.25186
G1 X93.171 Y122.804 E11.29907
G1 X93.157 Y122.143 E11.32546
G1 X93.158 Y101.353 E12.15523
G1 X93.169 Y100.65 E12.1833
G1 X93.227 Y99.678 E12.22216
G1 X93.359 Y98.785 E12.25819
G1 X93.593 Y97.802 E12.29852
G1 X93.914 Y96.846 E12.33877
G1 X94.276 Y96.018 E12.37484
G1 X94.759 Y95.132 E12.41511
G1 X95.321 Y94.293 E12.45542
G1 X95.887 Y93.59 E12.49144
G1 X96.613 Y92.837 E12.53319
G0 F3600 X96.875 Y93.139
G1 F600 X97.584 Y92.524 E12.57065
G1 X98.315 Y91.994 E12.60668
G1 X99.151 Y91.495 E12.64554
G1 X99.996 Y91.088 E12.68298
G1 X100.841 Y90.768 E12.71904
G1 X101.779 Y90.506 E12.75791
G1 X102.706 Y90.334 E12.79554
G1 X103.846 Y90.238 E12.8412
G1 X104.487 Y90.224 E12.86679
G1 X125.291 Y90.226 E13.69712
G1 X126.002 Y90.237 E13.7255
G1 X126.94 Y90.293 E13.76301
G1 X127.833 Y90.426 E13.79904
G1 X128.745 Y90.644 E13.83647
G1 X129.669 Y90.954 E13.87537
G1 X130.527 Y91.332 E13.91279
G1 X131.35 Y91.785 E13.95028
G1 X132.1 Y92.288 E13.98633
G1 X132.857 Y92.899 E14.02515
G1 X133.532 Y93.551 E14.06261
G1 X134.125 Y94.233 E14.09868
G1 X134.696 Y95.022 E14.13755
G1 X135.159 Y95.798 E14.17362
G1 X135.567 Y96.642 E14.21103
G1 X135.911 Y97.554 E14.24994
G1 X136.161 Y98.458 E14.28737
G1 X136.332 Y99.385 E14.32499
G1 X136.426 Y100.482 E14.36894
G1 X136.442 Y101.155 E14.39581
G1 X136.441 Y121.904 E15.22394
G1 X136.431 Y122.649 E15.25368
G1 X136.377 Y123.586 E15.29114
G1 X136.246 Y124.48 E15.3272
G1 X136.03 Y125.393 E15.36465
G1 X135.722 Y126.317 E15.40352
G1 X135.361 Y127.145 E15.43957
G1 X134.895 Y127.999 E15.4784
G1 X134.373 Y128.78 E15.5159
G1 X133.807 Y129.484 E15.55195
G1 X133.159 Y130.161 E15.58935
G1 X132.424 Y130.802 E15.62828
G1 X131.693 Y131.333 E15.66434
G1 X130.89 Y131.816 E15.70174
G1 X130.013 Y132.241 E15.74063
G1 X129.169 Y132.561 E15.77666
G1 X128.231 Y132.825 E15.81555
G1 X127.304 Y132.997 E15.85318
G1 X126.169 Y133.095 E15.89865
G1 X125.538 Y133.109 E15.92384
G1 X104.715 Y133.109 E16.75493
G1 X104.015 Y133.099 E16.78287
G1 X103.062 Y133.042 E16.82098
G1 X102.168 Y132.91 E16.85705
G1 X101.22 Y132.682 E16.89596
G1 X100.364 Y132.394 E16.93201
G1 X99.473 Y132.004 E16.97083
G1 X98.65 Y131.551 E17.00832
G1 X97.9 Y131.048 E17.04437
G1 X97.169 Y130.46 E17.08181
G1 X96.467 Y129.785 E17.12068
G1 X95.875 Y129.103 E17.15672
G1 X95.324 Y128.343 E17.19419
G1 X94.825 Y127.508 E17.23301
G1 X94.433 Y126.694 E17.26907
G1 X94.089 Y125.783 E17.30794
G1 X93.838 Y124.878 E17.34542
G1 X93.667 Y123.95 E17.38309
G1 X93.571 Y122.795 E17.42934
G1 X93.557 Y122.143 E17.45537
G1 X93.558 Y101.359 E18.28491
G1 X93.568 Y100.673 E18.31229
G1 X93.623 Y99.736 E18.34975
G1 X93.755 Y98.843 E18.38578
G1 X93.972 Y97.929 E18.42327
G1 X94.281 Y97.006 E18.46212
G1 X94.643 Y96.178 E18.49819
G1 X95.11 Y95.324 E18.53704
G1 X95.633 Y94.544 E18.57452
G1 X96.199 Y93.841 E18.61054
G1 X96.875 Y93.139 E18.64944
G0 F3600 X97.137 Y93.441
G1 F600 X96.511 Y94.092 E18.68549
G1 X95.945 Y94.795 E18.72151
G1 X95.443 Y95.546 E18.75756
G1 X95.01 Y96.338 E18.79359
G1 X94.648 Y97.166 E18.82966
G1 X94.361 Y98.022 E18.86569
G1 X94.151 Y98.901 E18.90176
G1 X94.019 Y99.794 E18.93779
G1 X93.967 Y100.696 E18.97385
G1 X93.958 Y101.364 E19.00051
G1 X93.957 Y122.143 E19.82985
G1 X93.971 Y122.786 E19.85552
G1 X94.066 Y123.917 E19.90082
G1 X94.231 Y124.805 E19.93687
G1 X94.474 Y125.675 E19.97292
G1 X94.793 Y126.52 E20.00897
G1 X95.185 Y127.334 E20.04503
G1 X95.648 Y128.109 E20.08106
G1 X96.177 Y128.841 E20.1171
G1 X96.769 Y129.523 E20.15315
G1 X97.42 Y130.149 E20.1892
G1 X98.123 Y130.716 E20.22524
G1 X98.873 Y131.219 E20.26129
G1 X99.665 Y131.653 E20.29733
G1 X100.492 Y132.015 E20.33336
G1 X101.348 Y132.303 E20.36941
G1 X102.226 Y132.514 E20.40545
G1 X103.12 Y132.646 E20.44152
G1 X104.021 Y132.699 E20.47754
G1 X104.721 Y132.709 E20.50548
G1 X125.529 Y132.709 E21.33597
G1 X126.135 Y132.696 E21.36017
G1 X127.27 Y132.598 E21.40564
G1 X128.157 Y132.432 E21.44165
G1 X129.027 Y132.187 E21.47773
G1 X129.871 Y131.867 E21.51375
G1 X130.684 Y131.473 E21.54981
G1 X131.458 Y131.009 E21.58583
G1 X132.189 Y130.478 E21.62189
G1 X132.87 Y129.884 E21.65796
G1 X133.495 Y129.233 E21.69397
G1 X134.061 Y128.529 E21.73003
G1 X134.562 Y127.777 E21.76609
G1 X134.994 Y126.985 E21.8021
G1 X135.355 Y126.157 E21.83815
G1 X135.641 Y125.3 E21.87421
G1 X135.85 Y124.422 E21.91023
G1 X135.981 Y123.528 E21.9463
G1 X136.032 Y122.626 E21.98235
G1 X136.041 Y121.899 E22.01137
G1 X136.042 Y101.155 E22.83931
G1 X136.027 Y100.516 E22.86482
G1 X135.933 Y99.419 E22.90876
G1 X135.768 Y98.531 E22.94481
G1 X135.526 Y97.661 E22.98086
G1 X135.207 Y96.816 E23.0169
G1 X134.815 Y96.003 E23.05293
G1 X134.352 Y95.227 E23.08899
G1 X133.823 Y94.495 E23.12504
G1 X133.23 Y93.813 E23.16111
G1 X132.58 Y93.187 E23.19713
G1 X131.877 Y92.62 E23.23318
G1 X131.127 Y92.117 E23.26922
G1 X130.335 Y91.683 E23.30526
G1 X129.508 Y91.32 E23.34131
G1 X128.652 Y91.033 E23.37735
G1 X127.774 Y90.822 E23.41339
G1 X126.881 Y90.689 E23.44942
G1 X125.979 Y90.636 E23.48548
G1 X125.285 Y90.626 E23.51319
G1 X104.487 Y90.624 E24.34328
G1 X103.88 Y90.637 E24.36751
G1 X102.74 Y90.733 E24.41317
G1 X101.853 Y90.899 E24.44919
G1 X100.983 Y91.142 E24.48524
G1 X100.138 Y91.462 E24.5213
G1 X99.325 Y91.855 E24.55734
G1 X98.55 Y92.318 E24.59338
G1 X97.819 Y92.848 E24.62941
G1 X97.137 Y93.441 E24.66548
G1 F2400 E22.66548
;MESH:talking book-dummy button 55 fillet 2.stl
G0 F3600 X103.492 Y121.51
G0 X105.157 Y121.51
;TYPE:WALL-INNER
G1 F2400 E24.66548
G1 F600 X124.842 Y121.509 E25.45116
G1 X124.842 Y101.825 E26.23679
G1 X105.157 Y101.824 E27.02246
G1 X105.157 Y121.51 E27.80817
G0 F3600 X104.757 Y121.91
G1 F600 X125.242 Y121.909 E28.62577
G1 X125.242 Y101.425 E29.44333
G1 X104.757 Y101.424 E30.26093
G1 X104.757 Y121.91 E31.07857
G0 F3600 X104.357 Y122.31
;TYPE:WALL-OUTER
G1 F600 X125.642 Y122.309 E31.88562
G1 X125.642 Y101.025 E32.69264
G1 X104.357 Y101.024 E33.49969
G1 X104.357 Y122.31 E34.30679
G1 F2400 E32.30679
G0 F3600 X105.517 Y121.15
;TYPE:SKIN
G1 F2400 E34.30679
G1 F600 X105.517 Y102.184 E35.06376
G1 X124.482 Y102.185 E35.82069
G1 X124.482 Y121.149 E36.57759
G1 X105.517 Y121.15 E37.33452
G1 F2400 E35.33452
G0 F3600 X105.518 Y123.174
G0 X126.495 Y123.162
G0 X126.507 Y102.785
G0 X124.281 Y102.785
;TYPE:SKIN
G1 F2400 E37.33452
G1 F600 X123.88 Y102.384 E37.35716
G0 F3600 X123.315 Y102.384
G1 F600 X124.281 Y103.35 E37.41168
G0 F3600 X124.281 Y103.916
G1 F600 X122.749 Y102.384 E37.49815
G0 F3600 X122.183 Y102.384
G1 F600 X124.281 Y104.482 E37.61657
G0 F3600 X124.281 Y105.047
G1 F600 X121.618 Y102.384 E37.76689
G0 F3600 X121.052 Y102.384
G1 F600 X124.281 Y105.613 E37.94914
G0 F3600 X124.281 Y106.179
G1 F600 X120.486 Y102.384 E38.16335
G0 F3600 X119.921 Y102.384
G1 F600 X124.281 Y106.744 E38.40945
G0 F3600 X124.281 Y107.31
G1 F600 X119.355 Y102.384 E38.68749
G0 F3600 X118.789 Y102.384
G1 F600 X124.281 Y107.876 E38.99749
G0 F3600 X124.281 Y108.441
G1 F600 X118.224 Y102.384 E39.33937
G0 F3600 X117.658 Y102.384
G1 F600 X124.281 Y109.007 E39.7132
G0 F3600 X124.281 Y109.573
G1 F600 X117.092 Y102.384 E40.11898
G0 F3600 X116.526 Y102.384
G1 F600 X124.281 Y110.138 E40.55667
G0 F3600 X124.281 Y110.704
G1 F600 X115.961 Y102.384 E41.02629
G0 F3600 X115.395 Y102.384
G1 F600 X124.281 Y111.27 E41.52786
G0 F3600 X124.281 Y111.836
G1 F600 X114.829 Y102.384 E42.06137
G0 F3600 X114.264 Y102.384
G1 F600 X124.281 Y112.401 E42.62677
G0 F3600 X124.281 Y112.967
G1 F600 X113.698 Y102.384 E43.22412
G0 F3600 X113.132 Y102.384
G1 F600 X124.281 Y113.533 E43.85342
G0 F3600 X124.281 Y114.098
G1 F600 X112.567 Y102.384 E44.51461
G0 F3600 X112.001 Y102.384
G1 F600 X124.281 Y114.664 E45.20774
G0 F3600 X124.281 Y115.23
G1 F600 X111.435 Y102.384 E45.93283
G0 F3600 X110.87 Y102.384
G1 F600 X124.281 Y115.795 E46.6898
G0 F3600 X124.281 Y116.361
G1 F600 X110.304 Y102.384 E47.47872
G0 F3600 X109.738 Y102.384
G1 F600 X124.281 Y116.927 E48.29959
G0 F3600 X124.281 Y117.492
G1 F600 X109.173 Y102.384 E49.15235
G0 F3600 X108.607 Y102.384
G1 F600 X124.281 Y118.058 E50.03706
G0 F3600 X124.281 Y118.624
G1 F600 X108.041 Y102.384 E50.95372
G0 F3600 X107.475 Y102.384
G1 F600 X124.281 Y119.189 E51.90229
G0 F3600 X124.281 Y119.755
G1 F600 X106.91 Y102.384 E52.88279
G0 F3600 X106.344 Y102.384
G1 F600 X124.281 Y120.321 E53.89523
G0 F3600 X124.281 Y120.886
G1 F600 X105.778 Y102.384 E54.93959
G0 F3600 X105.715 Y102.887
G1 F600 X123.777 Y120.949 E55.95909
G0 F3600 X123.211 Y120.949
G1 F600 X105.715 Y103.453 E56.94664
G0 F3600 X105.715 Y104.018
G1 F600 X122.646 Y120.949 E57.9023
G0 F3600 X122.08 Y120.949
G1 F600 X105.715 Y104.584 E58.82601
G0 F3600 X105.715 Y105.15
G1 F600 X121.514 Y120.949 E59.71777
G0 F3600 X120.949 Y120.949
G1 F600 X105.715 Y105.715 E60.57764
G0 F3600 X105.715 Y106.281
G1 F600 X120.383 Y120.949 E61.40557
G0 F3600 X119.817 Y120.949
G1 F600 X105.715 Y106.847 E62.20155
G0 F3600 X105.715 Y107.413
G1 F600 X119.252 Y120.949 E62.96561
G0 F3600 X118.686 Y120.949
G1 F600 X105.715 Y107.978 E63.69775
G0 F3600 X105.715 Y108.544
G1 F600 X118.12 Y120.949 E64.39794
G0 F3600 X117.555 Y120.949
G1 F600 X105.715 Y109.11 E65.06621
G0 F3600 X105.715 Y109.675
G1 F600 X116.989 Y120.949 E65.70256
G0 F3600 X116.423 Y120.949
G1 F600 X105.715 Y110.241 E66.30697
G0 F3600 X105.715 Y110.807
G1 F600 X115.858 Y120.949 E66.87946
G0 F3600 X115.292 Y120.949
G1 F600 X105.715 Y111.372 E67.42002
G0 F3600 X105.715 Y111.938
G1 F600 X114.726 Y120.949 E67.92864
G0 F3600 X114.16 Y120.949
G1 F600 X105.715 Y112.504 E68.40532
G0 F3600 X105.715 Y113.069
G1 F600 X113.595 Y120.949 E68.8501
G0 F3600 X113.029 Y120.949
G1 F600 X105.715 Y113.635 E69.26293
G0 F3600 X105.715 Y114.201
G1 F600 X112.463 Y120.949 E69.64382
G0 F3600 X111.898 Y120.949
G1 F600 X105.715 Y114.766 E69.99281
G0 F3600 X105.715 Y115.332
G1 F600 X111.332 Y120.949 E70.30986
G0 F3600 X110.766 Y120.949
G1 F600 X105.715 Y115.898 E70.59496
G0 F3600 X105.715 Y116.464
G1 F600 X110.201 Y120.949 E70.84814
G0 F3600 X109.635 Y120.949
G1 F600 X105.715 Y117.029 E71.0694
G0 F3600 X105.715 Y117.595
G1 F600 X109.069 Y120.949 E71.25872
G0 F3600 X108.504 Y120.949
G1 F600 X105.715 Y118.161 E71.41611
G0 F3600 X105.715 Y118.726
G1 F600 X107.938 Y120.949 E71.54159
G0 F3600 X107.372 Y120.949
G1 F600 X105.715 Y119.292 E71.63512
G0 F3600 X105.715 Y119.858
G1 F600 X106.807 Y120.949 E71.69672
G0 F3600 X106.241 Y120.949
G1 F600 X105.715 Y120.423 E71.72641
G1 F2400 E69.72641
;MESH:NOMESH
G0 F300 X105.715 Y120.423 Z0.32
G0 F3600 X103.492 Y120.423
G0 X103.504 Y100.171
G0 X125.477 Y100.159
G0 X125.477 Y101.169
;TIME_ELAPSED:192.432275
;LAYER:1
M106 S85
;TYPE:WALL-INNER
;MESH:talking book-dummy button 55 fillet 2.stl
G1 F2400 E71.72641
G1 F1013.7 X125.423 Y101.169 E71.72763
G1 X125.394 Y101.217 E71.7289
G1 X125.422 Y101.265 E71.73015
G1 X125.477 Y101.265 E71.73139
G1 X125.506 Y101.217 E71.73265
G1 F2400 E69.73265
G0 F4500 X124.354 Y102.313
G0 X105.645 Y121.022
G0 X104.992 Y121.942
;TYPE:WALL-OUTER
G1 F2400 E71.73265
G1 F791.4 X104.771 Y121.896 E71.73885
G1 F788.7 X104.726 Y121.721 E71.74383
