;FLAVOR:Marlin
;TIME:1552
;Filament used: 0.87578m
;Layer height: 0.16
;MINX:86.1
;MINY:86.1
;MINZ:0.2
;MAXX:143.9
;MAXY:143.9
;MAXZ:9.96
;Generated with Cura_SteamEngine 5.4.0-alpha+testing_1
M140 S60
M105
M190 S60
M104 S200
M105
M109 S200
M82 ;absolute extrusion mode
 G28 ; home all axes
 M420 S1
 M117 ; Purge extruder
 G92 E0 ; reset extruder
 G1 Z1.0 F3000 ; move z up little to prevent scratching of surface
 G1 X2 Y20 Z0.3 F5000.0 ; move to start-line position
 G1 X2 Y200.0 Z0.3 F1500.0 E15 ; draw 1st line
 G1 X2 Y200.0 Z0.4 F5000.0 ; move to side a little
 G1 X2 Y20 Z0.4 F1500.0 E30 ; draw 2nd line
 G92 E0 ; reset extruder
 G1 Z1.0 F3000 ; move z up little to prevent scratching of surface
G92 E0
G92 E0
G1 F2400 E-2
;LAYER_COUNT:57
;LAYER:0
M107
G0 F3600 X89.692 Y89.211 Z0.2
;TYPE:SKIRT
G1 F2400 E0
G1 F600 X90.373 Y88.618 E0.03604
G1 X91.219 Y88.002 E0.07781
G1 X92.148 Y87.45 E0.12094
G1 X93.025 Y87.029 E0.15977
G1 X93.901 Y86.696 E0.19717
G1 X94.941 Y86.404 E0.24028
G1 X95.982 Y86.212 E0.28253
G1 X97.121 Y86.116 E0.32815
G1 X97.803 Y86.1 E0.35538
G1 X131.81 Y86.1 E1.71267
G1 X132.708 Y86.114 E1.74852
G1 X133.714 Y86.176 E1.78875
G1 X134.643 Y86.315 E1.82624
G1 X135.626 Y86.55 E1.86658
G1 X136.615 Y86.883 E1.90823
G1 X137.572 Y87.304 E1.94996
G1 X138.364 Y87.739 E1.98602
G1 X139.231 Y88.317 E2.02761
G1 X140.073 Y88.997 E2.07081
G1 X140.747 Y89.649 E2.10824
G1 X141.409 Y90.41 E2.14849
G1 X142.043 Y91.286 E2.19165
G1 X142.505 Y92.062 E2.2277
G1 X142.99 Y93.069 E2.27231
G1 X143.33 Y93.98 E2.31112
G1 X143.599 Y94.952 E2.35137
G1 X143.789 Y95.991 E2.39353
G1 X143.884 Y97.121 E2.43879
G1 X143.9 Y97.83 E2.46709
G1 X143.899 Y131.906 E3.82714
G1 X143.887 Y132.686 E3.85827
G1 X143.827 Y133.693 E3.89854
G1 X143.696 Y134.587 E3.9346
G1 X143.457 Y135.602 E3.97622
G1 X143.114 Y136.628 E4.01939
G1 X142.753 Y137.456 E4.05545
G1 X142.237 Y138.404 E4.09852
G1 X141.655 Y139.273 E4.14027
G1 X141.089 Y139.977 E4.17632
G1 X140.369 Y140.73 E4.2179
G1 X139.552 Y141.441 E4.26113
G1 X138.821 Y141.972 E4.29719
G1 X137.928 Y142.51 E4.3388
G1 X136.955 Y142.98 E4.38193
G1 X136.078 Y143.311 E4.41934
G1 X135.106 Y143.586 E4.45966
G1 X134.03 Y143.786 E4.50334
G1 X132.879 Y143.884 E4.54945
G1 X132.179 Y143.9 E4.57739
G1 X98.058 Y143.899 E5.93923
G1 X97.308 Y143.887 E5.96917
G1 X96.302 Y143.827 E6.0094
G1 X95.408 Y143.695 E6.04546
G1 X94.357 Y143.445 E6.08858
G1 X93.367 Y143.112 E6.13027
G1 X92.54 Y142.751 E6.16629
G1 X91.591 Y142.234 E6.20942
G1 X90.723 Y141.652 E6.25113
G1 X90.019 Y141.086 E6.28718
G1 X89.215 Y140.313 E6.3317
G1 X88.622 Y139.632 E6.36774
G1 X87.987 Y138.757 E6.41089
G1 X87.47 Y137.89 E6.45118
G1 X87.018 Y136.95 E6.49281
G1 X86.687 Y136.073 E6.53022
G1 X86.413 Y135.101 E6.57053
G1 X86.213 Y134.021 E6.61436
G1 X86.114 Y132.818 E6.66254
G1 X86.1 Y132.158 E6.68889
G1 X86.101 Y98.019 E8.05145
G1 X86.113 Y97.301 E8.08011
G1 X86.174 Y96.295 E8.12034
G1 X86.306 Y95.402 E8.15636
G1 X86.546 Y94.387 E8.19799
G1 X86.878 Y93.394 E8.23978
G1 X87.268 Y92.502 E8.27864
G1 X87.751 Y91.616 E8.31891
G1 X88.352 Y90.718 E8.36204
G1 X88.919 Y90.014 E8.39812
G1 X89.692 Y89.211 E8.44261
G0 F3600 X89.955 Y89.513
G1 F600 X90.636 Y88.92 E8.47865
G1 X91.424 Y88.346 E8.51756
G1 X92.321 Y87.811 E8.55924
G1 X93.198 Y87.39 E8.59807
G1 X94.043 Y87.07 E8.63413
G1 X95.049 Y86.789 E8.67582
G1 X96.016 Y86.611 E8.71506
G1 X97.155 Y86.515 E8.76068
G1 X97.812 Y86.5 E8.78691
G1 X131.804 Y86.5 E10.14361
G1 X132.684 Y86.513 E10.17873
G1 X133.655 Y86.572 E10.21756
G1 X134.584 Y86.711 E10.25505
G1 X135.532 Y86.939 E10.29397
G1 X136.454 Y87.249 E10.33279
G1 X137.379 Y87.655 E10.37311
G1 X138.171 Y88.09 E10.40917
G1 X138.98 Y88.628 E10.44795
G1 X139.795 Y89.285 E10.48973
G1 X140.445 Y89.912 E10.52578
G1 X141.107 Y90.673 E10.56604
G1 X141.699 Y91.491 E10.60634
G1 X142.161 Y92.267 E10.64238
G1 X142.615 Y93.209 E10.68412
G1 X142.944 Y94.087 E10.72154
G1 X143.213 Y95.059 E10.76179
G1 X143.39 Y96.025 E10.80099
G1 X143.485 Y97.155 E10.84625
G1 X143.5 Y97.83 E10.8732
G1 X143.499 Y131.9 E12.233
G1 X143.488 Y132.663 E12.26346
G1 X143.431 Y133.635 E12.30232
G1 X143.3 Y134.529 E12.33838
G1 X143.077 Y135.476 E12.37722
G1 X142.747 Y136.468 E12.41894
G1 X142.386 Y137.296 E12.45499
G1 X141.886 Y138.212 E12.49664
G1 X141.343 Y139.022 E12.53557
G1 X140.777 Y139.726 E12.57162
G1 X140.106 Y140.429 E12.61041
G1 X139.317 Y141.117 E12.65219
G1 X138.586 Y141.648 E12.68825
G1 X137.754 Y142.15 E12.72703
G1 X136.813 Y142.606 E12.76877
G1 X135.969 Y142.926 E12.80479
G1 X134.997 Y143.201 E12.84511
G1 X133.996 Y143.387 E12.88575
G1 X132.845 Y143.485 E12.93185
G1 X132.17 Y143.5 E12.9588
G1 X98.064 Y143.499 E14.32004
G1 X97.331 Y143.488 E14.3493
G1 X96.36 Y143.431 E14.38812
G1 X95.466 Y143.299 E14.42419
G1 X94.484 Y143.066 E14.46447
G1 X93.527 Y142.745 E14.50476
G1 X92.7 Y142.384 E14.54078
G1 X91.813 Y141.901 E14.58109
G1 X90.974 Y141.34 E14.62137
G1 X90.27 Y140.774 E14.65742
G1 X89.517 Y140.05 E14.69911
G1 X88.924 Y139.369 E14.73515
G1 X88.331 Y138.552 E14.77545
G1 X87.814 Y137.685 E14.81574
G1 X87.392 Y136.808 E14.85458
G1 X87.072 Y135.964 E14.89061
G1 X86.798 Y134.992 E14.93091
G1 X86.612 Y133.988 E14.97167
G1 X86.514 Y132.809 E15.01888
G1 X86.5 Y132.158 E15.04487
G1 X86.501 Y98.025 E16.4072
G1 X86.512 Y97.325 E16.43514
G1 X86.57 Y96.353 E16.474
G1 X86.702 Y95.46 E16.51003
G1 X86.926 Y94.513 E16.54887
G1 X87.245 Y93.554 E16.58921
G1 X87.635 Y92.662 E16.62806
G1 X88.102 Y91.808 E16.66691
G1 X88.664 Y90.969 E16.70722
G1 X89.231 Y90.265 E16.74329
G1 X89.955 Y89.513 E16.78496
G0 F3600 X90.218 Y89.815
G1 F600 X90.899 Y89.222 E16.821
G1 X91.659 Y88.67 E16.85849
G1 X92.495 Y88.171 E16.89735
G1 X93.34 Y87.764 E16.93478
G1 X94.185 Y87.444 E16.97084
G1 X95.122 Y87.182 E17.00968
G1 X96.05 Y87.01 E17.04735
G1 X97.189 Y86.914 E17.09297
G1 X97.821 Y86.9 E17.1182
G1 X131.798 Y86.9 E18.47429
G1 X132.66 Y86.912 E18.5087
G1 X133.597 Y86.968 E18.54616
G1 X134.49 Y87.1 E18.58219
G1 X135.438 Y87.328 E18.62111
G1 X136.294 Y87.616 E18.65716
G1 X137.186 Y88.006 E18.69601
G1 X137.978 Y88.441 E18.73208
G1 X138.758 Y88.961 E18.76949
G1 X139.517 Y89.573 E18.80841
G1 X140.167 Y90.2 E18.84445
G1 X140.805 Y90.935 E18.8833
G1 X141.355 Y91.696 E18.92077
G1 X141.817 Y92.472 E18.95682
G1 X142.24 Y93.349 E18.99568
G1 X142.569 Y94.227 E19.0331
G1 X142.82 Y95.132 E19.07059
G1 X142.991 Y96.059 E19.10821
G1 X143.086 Y97.189 E19.15347
G1 X143.1 Y97.83 E19.17906
G1 X143.099 Y131.895 E20.53867
G1 X143.089 Y132.64 E20.5684
G1 X143.035 Y133.577 E20.60586
G1 X142.904 Y134.471 E20.64193
G1 X142.688 Y135.384 E20.67937
G1 X142.38 Y136.308 E20.71825
G1 X142.019 Y137.136 E20.7543
G1 X141.553 Y137.99 E20.79313
G1 X141.031 Y138.771 E20.83062
G1 X140.465 Y139.475 E20.86667
G1 X139.817 Y140.152 E20.90408
G1 X139.082 Y140.793 E20.943
G1 X138.351 Y141.324 E20.97906
G1 X137.548 Y141.807 E21.01646
G1 X136.671 Y142.232 E21.05536
G1 X135.827 Y142.552 E21.09138
G1 X134.889 Y142.816 E21.13028
G1 X133.962 Y142.988 E21.16791
G1 X132.811 Y143.086 E21.21401
G1 X132.17 Y143.1 E21.2396
G1 X98.07 Y143.099 E22.60061
G1 X97.354 Y143.089 E22.62919
G1 X96.418 Y143.035 E22.66661
G1 X95.524 Y142.903 E22.70267
G1 X94.611 Y142.687 E22.74012
G1 X93.687 Y142.378 E22.77901
G1 X92.86 Y142.017 E22.81502
G1 X92.005 Y141.55 E22.8539
G1 X91.225 Y141.028 E22.89136
G1 X90.521 Y140.462 E22.92742
G1 X89.819 Y139.787 E22.96629
G1 X89.226 Y139.106 E23.00233
G1 X88.674 Y138.347 E23.03978
G1 X88.174 Y137.511 E23.07866
G1 X87.766 Y136.666 E23.11611
G1 X87.446 Y135.822 E23.15214
G1 X87.183 Y134.884 E23.19102
G1 X87.011 Y133.955 E23.22873
G1 X86.913 Y132.776 E23.27595
G1 X86.9 Y132.158 E23.30062
G1 X86.901 Y98.031 E24.6627
G1 X86.911 Y97.348 E24.68997
G1 X86.966 Y96.411 E24.72743
G1 X87.098 Y95.518 E24.76346
G1 X87.315 Y94.605 E24.80091
G1 X87.612 Y93.714 E24.8384
G1 X88.002 Y92.822 E24.87725
G1 X88.453 Y92 E24.91467
G1 X88.976 Y91.22 E24.95216
G1 X89.543 Y90.516 E24.98823
G1 X90.218 Y89.815 E25.02707
G0 F3600 X90.481 Y90.117
G1 F600 X91.162 Y89.524 E25.06312
G1 X91.894 Y88.994 E25.09919
G1 X92.669 Y88.531 E25.13522
G1 X93.482 Y88.138 E25.17126
G1 X94.327 Y87.818 E25.20732
G1 X95.196 Y87.575 E25.24333
G1 X96.084 Y87.409 E25.27939
G1 X97.223 Y87.313 E25.32501
G1 X97.83 Y87.3 E25.34924
G1 X131.793 Y87.3 E26.70478
G1 X132.637 Y87.311 E26.73847
G1 X133.539 Y87.364 E26.77453
G1 X134.432 Y87.496 E26.81056
G1 X135.31 Y87.707 E26.8466
G1 X136.166 Y87.995 E26.88265
G1 X136.993 Y88.357 E26.91868
G1 X137.785 Y88.792 E26.95474
G1 X138.536 Y89.294 E26.9908
G1 X139.239 Y89.861 E27.02685
G1 X139.889 Y90.488 E27.06289
G1 X140.481 Y91.17 E27.09894
G1 X141.011 Y91.901 E27.13497
G1 X141.473 Y92.677 E27.17102
G1 X141.866 Y93.49 E27.20706
G1 X142.184 Y94.335 E27.24309
G1 X142.427 Y95.205 E27.27915
G1 X142.592 Y96.093 E27.3152
G1 X142.687 Y97.223 E27.36045
G1 X142.7 Y97.83 E27.38469
G1 X142.699 Y131.89 E28.7441
G1 X142.69 Y132.617 E28.77311
G1 X142.639 Y133.519 E28.80917
G1 X142.508 Y134.413 E28.84523
G1 X142.299 Y135.291 E28.88126
G1 X142.013 Y136.148 E28.91732
G1 X141.652 Y136.976 E28.95337
G1 X141.22 Y137.768 E28.98937
G1 X140.719 Y138.52 E29.02544
G1 X140.153 Y139.224 E29.06149
G1 X139.528 Y139.875 E29.09751
G1 X138.847 Y140.469 E29.13358
G1 X138.116 Y141 E29.16964
G1 X137.342 Y141.464 E29.20566
G1 X136.529 Y141.858 E29.24172
G1 X135.685 Y142.178 E29.27774
G1 X134.815 Y142.423 E29.31382
G1 X133.928 Y142.589 E29.34983
G1 X132.777 Y142.687 E29.39594
G1 X132.17 Y142.7 E29.42017
G1 X98.075 Y142.699 E30.78097
G1 X97.377 Y142.69 E30.80884
G1 X96.476 Y142.639 E30.84485
G1 X95.582 Y142.507 E30.88092
G1 X94.704 Y142.298 E30.91694
G1 X93.847 Y142.011 E30.95302
G1 X93.02 Y141.65 E30.98903
G1 X92.227 Y141.217 E31.02509
G1 X91.476 Y140.716 E31.06112
G1 X90.772 Y140.15 E31.09718
G1 X90.121 Y139.524 E31.13322
G1 X89.528 Y138.843 E31.16926
G1 X88.998 Y138.112 E31.2053
G1 X88.534 Y137.337 E31.24135
G1 X88.14 Y136.524 E31.27741
G1 X87.82 Y135.68 E31.31344
G1 X87.576 Y134.81 E31.3495
G1 X87.41 Y133.922 E31.38556
G1 X87.313 Y132.767 E31.43182
G1 X87.3 Y132.158 E31.45613
G1 X87.301 Y98.036 E32.81801
G1 X87.31 Y97.371 E32.84456
G1 X87.362 Y96.469 E32.88062
G1 X87.494 Y95.576 E32.91665
G1 X87.704 Y94.698 E32.95268
G1 X87.991 Y93.841 E32.98875
G1 X88.353 Y93.014 E33.02478
G1 X88.786 Y92.222 E33.06081
G1 X89.288 Y91.471 E33.09686
G1 X89.855 Y90.767 E33.13294
G1 X90.481 Y90.117 E33.16896
G1 F2400 E31.16896
G0 F3600 X102.104 Y102.104
;TYPE:SUPPORT
G1 F2400 E33.16896
G1 F600 X127.895 Y102.105 E34.19833
G1 X127.896 Y127.896 E35.22771
G1 X102.104 Y127.896 E36.25712
G1 X102.104 Y102.104 E37.28653
G1 F2400 E35.28653
G0 F3600 X102.175 Y104
G1 F2400 E37.28653
G1 F600 X127.825 Y104 E38.31028
G1 F2400 E36.31028
G0 F3600 X128.76 Y103.999
G0 X128.76 Y111.999
G0 X127.825 Y112
G1 F2400 E38.31028
G1 F600 X102.175 Y112 E39.33403
G1 F2400 E37.33403
G0 F3600 X101.239 Y112
G0 X101.239 Y120
G0 X102.174 Y120
G1 F2400 E39.33403
G1 F600 X127.824 Y120 E40.35778
G1 F2400 E38.35778
G0 F3600 X128.76 Y119.999
G0 X128.749 Y128.749
G0 X120 Y128.761
G0 X120 Y127.825
G1 F2400 E40.35778
G1 F600 X120 Y102.176 E41.38148
G1 F2400 E39.38148
G0 F3600 X120 Y101.239
G0 X112 Y101.239
G0 X112 Y102.176
G1 F2400 E41.38148
G1 F600 X112 Y127.825 E42.40519
G1 F2400 E40.40519
G0 F3600 X112 Y128.761
G0 X104 Y128.761
G0 X104 Y127.825
G1 F2400 E42.40519
G1 F600 X104 Y102.176 E43.4289
G1 F2400 E41.4289
;MESH:talking book-dummy button tes.stl
G0 F3600 X104 Y101.239
G0 X101.251 Y101.251
G0 X100.523 Y129.477
G0 X99.87 Y131.123
;TYPE:WALL-INNER
G1 F2400 E43.4289
G1 F493.8 X99.096 Y130.904 E43.4679
G1 F488.8 X98.887 Y130.303 E43.49908
G1 F617 X98.878 Y130.13 E43.5058
G1 F623.4 X98.878 Y99.87 E44.66825
G1 F493.8 X99.096 Y99.096 E44.70725
G1 F488.8 X99.697 Y98.887 E44.73842
G1 F617 X99.87 Y98.878 E44.74515
G1 F623.4 X130.13 Y98.878 E45.9076
G1 F493.8 X130.904 Y99.096 E45.94659
G1 X131.122 Y99.87 E45.98559
G1 F623.4 X131.123 Y130.131 E47.14808
G1 F618.6 X131.115 Y130.304 E47.15478
G1 F489.8 X130.905 Y130.905 E47.18591
G1 F488.8 X130.304 Y131.114 E47.21708
G1 F617 X130.131 Y131.123 E47.2238
G1 F625 X99.87 Y131.123 E48.38328
G0 F3600 X99.87 Y130.731
G1 F600 X99.445 Y130.555 E48.40164
G1 X99.278 Y130.234 E48.41608
G1 X99.27 Y130.13 E48.42024
G1 X99.27 Y99.87 E49.62798
G1 X99.445 Y99.445 E49.64633
G1 X99.766 Y99.278 E49.66077
G1 X99.87 Y99.27 E49.66493
G1 X130.13 Y99.27 E50.87267
G1 X130.555 Y99.445 E50.89102
G1 X130.73 Y99.87 E50.90936
G1 X130.731 Y130.131 E52.11714
G1 X130.724 Y130.235 E52.1213
G1 X130.556 Y130.556 E52.13577
G1 X130.235 Y130.723 E52.15021
G1 X130.131 Y130.731 E52.15437
G1 X99.87 Y130.731 E53.36215
G0 F3600 X99.87 Y131.507
G1 F621.8 X115.104 Y131.506 E53.94889
G1 F613.8 X130.338 Y131.504 E54.54323
G1 F488.8 X131.112 Y131.406 E54.58146
G1 F408.2 X131.406 Y131.406 E54.59871
G1 X131.406 Y131.112 E54.61596
G1 F489.8 X131.504 Y130.337 E54.65415
G1 F615.4 X131.506 Y115.103 E55.24697
G1 F621.8 X131.508 Y99.869 E55.83371
G1 F551.7 X131.457 Y99.379 E55.85509
G1 F446.9 X131.406 Y98.888 E55.88154
G1 F408.2 X131.406 Y98.594 E55.89879
G1 X131.112 Y98.594 E55.91604
G1 F446.9 X130.621 Y98.543 E55.94249
G1 F551.7 X130.13 Y98.492 E55.96392
G1 F620.2 X114.897 Y98.494 E56.55214
G1 F613.8 X99.664 Y98.497 E57.14644
G1 F488.8 X98.888 Y98.594 E57.18476
G1 F408.2 X98.594 Y98.594 E57.20201
G1 X98.594 Y98.888 E57.21926
G1 F446.9 X98.543 Y99.379 E57.24571
G1 F551.7 X98.492 Y99.87 E57.26713
G1 F620.2 X98.494 Y115.103 E57.85536
G1 F613.8 X98.497 Y130.336 E58.44966
G1 F488.8 X98.594 Y131.112 E58.48797
G1 F408.2 X98.594 Y131.406 E58.50522
G1 X98.888 Y131.406 E58.52247
G1 F446.9 X99.379 Y131.456 E58.54892
G1 F551.7 X99.87 Y131.507 E58.57034
G1 F2400 E56.57034
G0 F3600 X99.87 Y133.165
G0 X131.9 Y133.165
G0 X131.9 Y131.9
G1 F2400 E58.57034
G1 F600 X131.9 Y98.1 E59.91937
G1 X98.1 Y98.1 E61.2684
G1 X98.1 Y131.9 E62.61744
G1 X131.9 Y131.9 E63.96647
G0 F3600 X132.3 Y132.3
;TYPE:WALL-OUTER
G1 F600 X132.3 Y97.7 E65.27838
G1 X97.7 Y97.7 E66.59029
G1 X97.7 Y132.3 E67.9022
G1 X132.3 Y132.3 E69.21412
G1 F2400 E67.21412
G0 F3600 X99.87 Y130.331
G1 F2400 E69.21412
G1 F600 X99.728 Y130.272 E69.21995
G1 X99.672 Y130.165 E69.22453
G1 X99.67 Y99.87 E70.37321
G1 X99.728 Y99.728 E70.37902
G1 X99.835 Y99.672 E70.3836
G1 X130.13 Y99.67 E71.53229
G1 X130.272 Y99.728 E71.5381
G1 X130.33 Y99.87 E71.54392
G1 X130.329 Y130.166 E72.69264
G1 X130.273 Y130.273 E72.69722
G1 X130.166 Y130.329 E72.7018
G1 X99.87 Y130.331 E73.85052
G1 F2400 E71.85052
;MESH:NOMESH
G0 F300 X99.87 Y130.331 Z0.32
G0 F3600 X100.523 Y129.477
G0 X101.239 Y102.104
G0 X102.104 Y102.104
;TIME_ELAPSED:198.988215
;LAYER:1
M106 S85
;TYPE:SUPPORT
G1 F2400 E73.85052
G1 F1200 X127.895 Y102.105 E74.3652
G1 X127.896 Y127.896 E74.87989
G1 X102.104 Y127.896 E75.3946
G1 X102.104 Y102.104 E75.90931
G1 F2400 E73.90931
G0 F4500 X104 Y102.176
G1 F2400 E75.90931
G1 F1200 X104 Y127.825 E76.42116
G1 F2400 E74.42116
G0 F4500 X104 Y128.761
G0 X112 Y128.761
G0 X112 Y127.825
G1 F2400 E76.42116
G1 F1200 X112 Y102.176 E76.93301
G1 F2400 E74.93301
G0 F4500 X112 Y101.239
G0 X120 Y101.239
G0 X120 Y102.176
G1 F2400 E76.93301
G1 F1200 X120 Y127.825 E77.44487
G1 F2400 E75.44487
;MESH:talking book-dummy button tes.stl
G0 F4500 X120 Y128.761
G0 X129.263 Y129.263
G0 X129.916 Y130.962
;TYPE:WALL-INNER
G1 F2400 E77.44487
G1 F1222 X100.083 Y130.962 E78.17566
G1 F1348.3 X99.375 Y130.625 E78.19307
G1 F1330.4 X99.047 Y130.098 E78.20703
G1 F1209.7 X99.038 Y129.917 E78.21152
G1 F1222 X99.038 Y100.084 E78.94231
G1 F1345.3 X99.376 Y99.376 E78.95977
G1 F1330.4 X99.903 Y99.048 E78.97373
G1 F1207.2 X100.084 Y99.038 E78.97823
G1 F1222 X129.917 Y99.038 E79.70902
G1 F1348.3 X130.625 Y99.375 E79.72643
G1 F1345.3 X130.963 Y100.083 E79.74388
G1 F1219.5 X130.962 Y129.916 E80.47616
G1 F1209.7 X130.952 Y130.097 E80.48065
G1 F1333.3 X130.623 Y130.623 E80.49458
G1 F1330.4 X130.097 Y130.952 E80.50854
G1 F1207.2 X129.916 Y130.962 E80.51303
G1 F2400 E78.51303
G0 F4500 X129.263 Y129.263
G0 X100.736 Y129.264
G0 X100.083 Y130.517
G1 F2400 E80.51303
G1 F1500 X99.658 Y130.342 E80.52221
G1 X99.491 Y130.021 E80.52943
G1 X99.483 Y129.917 E80.53151
G1 X99.484 Y100.084 E81.12686
G1 X99.659 Y99.659 E81.13603
