;FLAVOR:Marlin
;TIME:739
;Filament used: 0.426772m
;Layer height: 0.16
;MINX:88.6
;MINY:91.779
;MINZ:0.2
;MAXX:141.4
;MAXY:144.579
;MAXZ:3.8
;Generated with Cura_SteamEngine 5.4.0-alpha+testing_1
M140 S60
M105
M190 S60
M104 S200
M105
M109 S200
M82 ;absolute extrusion mode
 G28 ; home all axes
 M420 S1
 M117 ; Purge extruder
 G92 E0 ; reset extruder
 G1 Z1.0 F3000 ; move z up little to prevent scratching of surface
 G1 X2 Y20 Z0.3 F5000.0 ; move to start-line position
 G1 X2 Y200.0 Z0.3 F1500.0 E15 ; draw 1st line
 G1 X2 Y200.0 Z0.4 F5000.0 ; move to side a little
 G1 X2 Y20 Z0.4 F1500.0 E30 ; draw 2nd line
 G92 E0 ; reset extruder
 G1 Z1.0 F3000 ; move z up little to prevent scratching of surface
G92 E0
G92 E0
G1 F2400 E-2
;LAYER_COUNT:21
;LAYER:0
M107
G0 F3600 X92.192 Y94.89 Z0.2
;TYPE:SKIRT
G1 F2400 E0
G1 F600 X92.873 Y94.297 E0.03604
G1 X93.719 Y93.681 E0.07781
G1 X94.648 Y93.129 E0.12094
G1 X95.525 Y92.708 E0.15977
G1 X96.401 Y92.375 E0.19717
G1 X97.441 Y92.083 E0.24028
G1 X98.482 Y91.891 E0.28253
G1 X99.621 Y91.795 E0.32815
G1 X100.303 Y91.779 E0.35538
G1 X129.31 Y91.779 E1.51311
G1 X130.208 Y91.793 E1.54896
G1 X131.214 Y91.855 E1.58919
G1 X132.143 Y91.994 E1.62668
G1 X133.126 Y92.229 E1.66702
G1 X134.115 Y92.562 E1.70867
G1 X135.072 Y92.983 E1.7504
G1 X135.864 Y93.418 E1.78646
G1 X136.731 Y93.996 E1.82805
G1 X137.573 Y94.676 E1.87125
G1 X138.247 Y95.328 E1.90867
G1 X138.909 Y96.089 E1.94893
G1 X139.543 Y96.965 E1.99209
G1 X140.005 Y97.741 E2.02814
G1 X140.49 Y98.748 E2.07275
G1 X140.83 Y99.659 E2.11156
G1 X141.099 Y100.631 E2.15181
G1 X141.289 Y101.67 E2.19397
G1 X141.384 Y102.8 E2.23923
G1 X141.4 Y103.509 E2.26753
G1 X141.399 Y132.585 E3.42802
G1 X141.387 Y133.365 E3.45915
G1 X141.327 Y134.372 E3.49941
G1 X141.196 Y135.266 E3.53548
G1 X140.957 Y136.281 E3.5771
G1 X140.614 Y137.307 E3.62027
G1 X140.253 Y138.135 E3.65632
G1 X139.737 Y139.083 E3.6994
G1 X139.155 Y139.952 E3.74115
G1 X138.589 Y140.656 E3.7772
G1 X137.869 Y141.409 E3.81878
G1 X137.052 Y142.12 E3.86201
G1 X136.321 Y142.651 E3.89807
G1 X135.428 Y143.189 E3.93968
G1 X134.455 Y143.659 E3.98281
G1 X133.578 Y143.99 E4.02022
G1 X132.606 Y144.265 E4.06054
G1 X131.53 Y144.465 E4.10422
G1 X130.379 Y144.563 E4.15032
G1 X129.679 Y144.579 E4.17827
G1 X100.558 Y144.578 E5.34055
G1 X99.808 Y144.566 E5.37049
G1 X98.802 Y144.506 E5.41071
G1 X97.908 Y144.374 E5.44678
G1 X96.857 Y144.124 E5.4899
G1 X95.867 Y143.791 E5.53159
G1 X95.04 Y143.43 E5.5676
G1 X94.091 Y142.913 E5.61074
G1 X93.223 Y142.331 E5.65245
G1 X92.519 Y141.765 E5.6885
G1 X91.715 Y140.992 E5.73301
G1 X91.122 Y140.311 E5.76905
G1 X90.487 Y139.436 E5.81221
G1 X89.97 Y138.569 E5.85249
G1 X89.518 Y137.629 E5.89412
G1 X89.187 Y136.752 E5.93154
G1 X88.913 Y135.78 E5.97184
G1 X88.713 Y134.7 E6.01568
G1 X88.614 Y133.497 E6.06386
G1 X88.6 Y132.837 E6.09021
G1 X88.601 Y103.698 E7.25321
G1 X88.613 Y102.98 E7.28187
G1 X88.674 Y101.974 E7.32209
G1 X88.806 Y101.081 E7.35812
G1 X89.046 Y100.066 E7.39975
G1 X89.378 Y99.073 E7.44154
G1 X89.768 Y98.181 E7.48039
G1 X90.251 Y97.295 E7.52067
G1 X90.852 Y96.397 E7.5638
G1 X91.419 Y95.693 E7.59988
G1 X92.192 Y94.89 E7.64436
G0 F3600 X92.455 Y95.192
G1 F600 X93.136 Y94.599 E7.6804
G1 X93.924 Y94.025 E7.71931
G1 X94.821 Y93.49 E7.761
G1 X95.698 Y93.069 E7.79983
G1 X96.543 Y92.749 E7.83589
G1 X97.549 Y92.468 E7.87758
G1 X98.516 Y92.29 E7.91682
G1 X99.655 Y92.194 E7.96244
G1 X100.312 Y92.179 E7.98867
G1 X129.304 Y92.179 E9.1458
G1 X130.184 Y92.192 E9.18093
G1 X131.155 Y92.251 E9.21976
G1 X132.084 Y92.39 E9.25725
G1 X133.032 Y92.618 E9.29616
G1 X133.954 Y92.928 E9.33499
G1 X134.879 Y93.334 E9.37531
G1 X135.671 Y93.769 E9.41137
G1 X136.48 Y94.307 E9.45015
G1 X137.295 Y94.964 E9.49193
G1 X137.945 Y95.591 E9.52797
G1 X138.607 Y96.352 E9.56823
G1 X139.199 Y97.17 E9.60853
G1 X139.661 Y97.946 E9.64458
G1 X140.115 Y98.888 E9.68631
G1 X140.444 Y99.766 E9.72374
G1 X140.713 Y100.738 E9.76399
G1 X140.89 Y101.704 E9.80319
G1 X140.985 Y102.834 E9.84845
G1 X141 Y103.509 E9.87539
G1 X140.999 Y132.579 E11.03564
G1 X140.988 Y133.342 E11.0661
G1 X140.931 Y134.314 E11.10496
G1 X140.8 Y135.208 E11.14102
G1 X140.577 Y136.155 E11.17985
G1 X140.247 Y137.147 E11.22158
G1 X139.886 Y137.975 E11.25763
G1 X139.386 Y138.891 E11.29928
G1 X138.843 Y139.701 E11.3382
G1 X138.277 Y140.405 E11.37425
G1 X137.606 Y141.108 E11.41304
G1 X136.817 Y141.796 E11.45482
G1 X136.086 Y142.327 E11.49088
G1 X135.254 Y142.829 E11.52967
G1 X134.313 Y143.285 E11.5714
G1 X133.469 Y143.605 E11.60743
G1 X132.497 Y143.88 E11.64774
G1 X131.496 Y144.066 E11.68838
G1 X130.345 Y144.164 E11.73449
G1 X129.67 Y144.179 E11.76143
G1 X100.564 Y144.178 E12.92312
G1 X99.831 Y144.167 E12.95238
G1 X98.86 Y144.11 E12.9912
G1 X97.966 Y143.978 E13.02727
G1 X96.984 Y143.745 E13.06755
G1 X96.027 Y143.424 E13.10783
G1 X95.2 Y143.063 E13.14385
G1 X94.313 Y142.58 E13.18416
G1 X93.474 Y142.019 E13.22444
G1 X92.77 Y141.453 E13.2605
G1 X92.017 Y140.729 E13.30219
G1 X91.424 Y140.048 E13.33823
G1 X90.831 Y139.231 E13.37852
G1 X90.314 Y138.364 E13.41881
G1 X89.892 Y137.487 E13.45765
G1 X89.572 Y136.643 E13.49368
G1 X89.298 Y135.671 E13.53399
G1 X89.112 Y134.667 E13.57474
G1 X89.014 Y133.488 E13.62196
G1 X89 Y132.837 E13.64795
G1 X89.001 Y103.704 E14.81071
G1 X89.012 Y103.004 E14.83865
G1 X89.07 Y102.032 E14.87751
G1 X89.202 Y101.139 E14.91354
G1 X89.426 Y100.192 E14.95238
G1 X89.745 Y99.233 E14.99272
G1 X90.135 Y98.341 E15.03158
G1 X90.602 Y97.487 E15.07043
G1 X91.164 Y96.648 E15.11073
G1 X91.731 Y95.944 E15.14681
G1 X92.455 Y95.192 E15.18847
G0 F3600 X92.718 Y95.494
G1 F600 X93.399 Y94.901 E15.22451
G1 X94.159 Y94.349 E15.262
G1 X94.995 Y93.85 E15.30086
G1 X95.84 Y93.443 E15.33829
G1 X96.685 Y93.123 E15.37436
G1 X97.622 Y92.861 E15.41319
G1 X98.55 Y92.689 E15.45086
G1 X99.689 Y92.593 E15.49648
G1 X100.321 Y92.579 E15.52171
G1 X129.298 Y92.579 E16.67825
G1 X130.16 Y92.591 E16.71265
G1 X131.097 Y92.647 E16.75012
G1 X131.99 Y92.779 E16.78615
G1 X132.938 Y93.007 E16.82506
G1 X133.794 Y93.295 E16.86111
G1 X134.686 Y93.685 E16.89996
G1 X135.478 Y94.12 E16.93603
G1 X136.258 Y94.64 E16.97344
G1 X137.017 Y95.252 E17.01236
G1 X137.667 Y95.879 E17.0484
G1 X138.305 Y96.614 E17.08725
G1 X138.855 Y97.375 E17.12473
G1 X139.317 Y98.151 E17.16077
G1 X139.74 Y99.028 E17.19963
G1 X140.069 Y99.906 E17.23705
G1 X140.32 Y100.811 E17.27454
G1 X140.491 Y101.738 E17.31216
G1 X140.586 Y102.868 E17.35742
G1 X140.6 Y103.509 E17.38301
G1 X140.599 Y132.574 E18.54306
G1 X140.589 Y133.319 E18.5728
G1 X140.535 Y134.256 E18.61026
G1 X140.404 Y135.15 E18.64632
G1 X140.188 Y136.063 E18.68376
G1 X139.88 Y136.987 E18.72264
G1 X139.519 Y137.815 E18.75869
G1 X139.053 Y138.669 E18.79752
G1 X138.531 Y139.45 E18.83501
G1 X137.965 Y140.154 E18.87106
G1 X137.317 Y140.831 E18.90847
G1 X136.582 Y141.472 E18.94739
G1 X135.851 Y142.003 E18.98345
G1 X135.048 Y142.486 E19.02085
G1 X134.171 Y142.911 E19.05975
G1 X133.327 Y143.231 E19.09578
G1 X132.389 Y143.495 E19.13467
G1 X131.462 Y143.667 E19.1723
G1 X130.311 Y143.765 E19.2184
G1 X129.67 Y143.779 E19.24399
G1 X100.57 Y143.778 E20.40544
G1 X99.854 Y143.768 E20.43402
G1 X98.918 Y143.714 E20.47144
G1 X98.024 Y143.582 E20.5075
G1 X97.111 Y143.366 E20.54495
G1 X96.187 Y143.057 E20.58384
G1 X95.36 Y142.696 E20.61985
G1 X94.505 Y142.229 E20.65873
G1 X93.725 Y141.707 E20.69619
G1 X93.021 Y141.141 E20.73225
G1 X92.319 Y140.466 E20.77112
G1 X91.726 Y139.785 E20.80716
G1 X91.174 Y139.026 E20.84462
G1 X90.674 Y138.19 E20.88349
G1 X90.266 Y137.345 E20.92095
G1 X89.946 Y136.501 E20.95697
G1 X89.683 Y135.563 E20.99585
G1 X89.511 Y134.634 E21.03356
G1 X89.413 Y133.455 E21.08078
G1 X89.4 Y132.837 E21.10545
G1 X89.401 Y103.71 E22.26797
G1 X89.411 Y103.027 E22.29524
G1 X89.466 Y102.09 E22.3327
G1 X89.598 Y101.197 E22.36873
G1 X89.815 Y100.284 E22.40618
G1 X90.112 Y99.393 E22.44367
G1 X90.502 Y98.501 E22.48252
G1 X90.953 Y97.679 E22.51994
G1 X91.476 Y96.899 E22.55743
G1 X92.043 Y96.195 E22.5935
G1 X92.718 Y95.494 E22.63234
G0 F3600 X92.981 Y95.796
G1 F600 X93.662 Y95.203 E22.66839
G1 X94.394 Y94.673 E22.70446
G1 X95.169 Y94.21 E22.74049
G1 X95.982 Y93.817 E22.77653
G1 X96.827 Y93.497 E22.81259
G1 X97.696 Y93.254 E22.84861
G1 X98.584 Y93.088 E22.88466
G1 X99.723 Y92.992 E22.93028
G1 X100.33 Y92.979 E22.95451
G1 X129.293 Y92.979 E24.11049
G1 X130.137 Y92.99 E24.14418
G1 X131.039 Y93.043 E24.18024
G1 X131.932 Y93.175 E24.21627
G1 X132.81 Y93.386 E24.25231
G1 X133.666 Y93.674 E24.28836
G1 X134.493 Y94.036 E24.32439
G1 X135.285 Y94.471 E24.36045
G1 X136.036 Y94.973 E24.39651
G1 X136.739 Y95.54 E24.43255
G1 X137.389 Y96.167 E24.4686
G1 X137.981 Y96.849 E24.50464
G1 X138.511 Y97.58 E24.54068
G1 X138.973 Y98.356 E24.57673
G1 X139.366 Y99.169 E24.61277
G1 X139.684 Y100.014 E24.6488
G1 X139.927 Y100.884 E24.68486
G1 X140.092 Y101.772 E24.7209
G1 X140.187 Y102.902 E24.76616
G1 X140.2 Y103.509 E24.7904
G1 X140.199 Y132.569 E25.95024
G1 X140.19 Y133.296 E25.97926
G1 X140.139 Y134.198 E26.01532
G1 X140.008 Y135.092 E26.05138
G1 X139.799 Y135.97 E26.08741
G1 X139.513 Y136.827 E26.12346
G1 X139.152 Y137.655 E26.15952
G1 X138.72 Y138.447 E26.19552
G1 X138.219 Y139.199 E26.23159
G1 X137.653 Y139.903 E26.26764
G1 X137.028 Y140.554 E26.30366
G1 X136.347 Y141.148 E26.33973
G1 X135.616 Y141.679 E26.37579
G1 X134.842 Y142.143 E26.41181
G1 X134.029 Y142.537 E26.44786
G1 X133.185 Y142.857 E26.48389
G1 X132.315 Y143.102 E26.51996
G1 X131.428 Y143.268 E26.55598
G1 X130.277 Y143.366 E26.60209
G1 X129.67 Y143.379 E26.62632
G1 X100.575 Y143.378 E27.78756
G1 X99.877 Y143.369 E27.81542
G1 X98.976 Y143.318 E27.85144
G1 X98.082 Y143.186 E27.88751
G1 X97.204 Y142.977 E27.92353
G1 X96.347 Y142.69 E27.9596
G1 X95.52 Y142.329 E27.99562
G1 X94.727 Y141.896 E28.03168
G1 X93.976 Y141.395 E28.06771
G1 X93.272 Y140.829 E28.10376
G1 X92.621 Y140.203 E28.13981
G1 X92.028 Y139.522 E28.17585
G1 X91.498 Y138.791 E28.21189
G1 X91.034 Y138.016 E28.24794
G1 X90.64 Y137.203 E28.284
G1 X90.32 Y136.359 E28.32003
G1 X90.076 Y135.489 E28.35609
G1 X89.91 Y134.601 E28.39215
G1 X89.813 Y133.446 E28.43841
G1 X89.8 Y132.837 E28.46272
G1 X89.801 Y103.715 E29.62504
G1 X89.81 Y103.05 E29.65158
G1 X89.862 Y102.148 E29.68764
G1 X89.994 Y101.255 E29.72367
G1 X90.204 Y100.377 E29.7597
G1 X90.491 Y99.52 E29.79578
G1 X90.853 Y98.693 E29.83181
G1 X91.286 Y97.901 E29.86783
G1 X91.788 Y97.15 E29.90389
G1 X92.355 Y96.446 E29.93997
G1 X92.981 Y95.796 E29.97598
G1 F2400 E27.97598
G0 F3600 X99.335 Y107.679
G0 X104.5 Y107.679
;TYPE:SUPPORT
G1 F2400 E29.97598
G1 F600 X125.5 Y107.679 E30.81414
G1 X125.5 Y128.679 E31.65229
G1 X104.5 Y128.679 E32.49045
G1 X104.5 Y107.679 E33.32861
G1 F2400 E31.32861
G0 F3600 X104.571 Y112
G1 F2400 E33.32861
G1 F600 X125.429 Y112 E34.16109
G1 F2400 E32.16109
G0 F3600 X120 Y107.75
G1 F2400 E34.16109
G1 F600 X120 Y128.608 E34.99358
G1 F2400 E32.99358
G0 F3600 X125.428 Y128
G1 F2400 E34.99358
G1 F600 X104.57 Y128 E35.82607
G1 F2400 E33.82607
G0 F3600 X112 Y128.608
G1 F2400 E35.82607
G1 F600 X112 Y107.75 E36.65856
G1 F2400 E34.65856
G0 F3600 X112 Y102.514
G0 X99.347 Y102.526
G0 X99.335 Y120
G0 X104.57 Y120
G1 F2400 E36.65856
G1 F600 X125.428 Y120 E37.49104
G1 F2400 E35.49104
;MESH:talking book-dummy button.stl
G0 F3600 X130.665 Y120
G0 X130.653 Y133.832
G0 X126.5 Y133.844
G0 X126.5 Y130.679
;TYPE:WALL-INNER
G1 F2400 E37.49104
G1 F600 X103.5 Y130.679 E38.40902
G1 X103.102 Y130.597 E38.42524
G1 X102.792 Y130.387 E38.44019
G1 X102.582 Y130.077 E38.45513
G1 X102.514 Y129.852 E38.46451
G1 X102.5 Y129.679 E38.47144
G1 X102.5 Y106.679 E39.38942
G1 X102.582 Y106.281 E39.40564
G1 X102.792 Y105.971 E39.42058
G1 X103.102 Y105.761 E39.43553
G1 X103.327 Y105.693 E39.44491
G1 X103.5 Y105.679 E39.45184
G1 X126.5 Y105.679 E40.36982
G1 X126.898 Y105.761 E40.38603
G1 X127.208 Y105.971 E40.40098
G1 X127.418 Y106.281 E40.41592
G1 X127.5 Y106.679 E40.43214
G1 X127.5 Y129.679 E41.35012
G1 X127.486 Y129.852 E41.35705
G1 X127.418 Y130.077 E41.36643
G1 X127.208 Y130.387 E41.38138
G1 X126.898 Y130.597 E41.39632
G1 X126.673 Y130.665 E41.4057
G1 X126.5 Y130.679 E41.41263
G0 F3600 X126.5 Y130.279
G1 F600 X103.5 Y130.279 E42.33061
G1 X103.261 Y130.23 E42.34035
G1 X103.075 Y130.104 E42.34931
G1 X102.949 Y129.918 E42.35828
G1 X102.908 Y129.783 E42.36391
G1 X102.9 Y129.679 E42.36807
G1 X102.9 Y106.679 E43.28605
G1 X102.949 Y106.44 E43.29579
G1 X103.075 Y106.254 E43.30476
G1 X103.261 Y106.128 E43.31372
G1 X103.396 Y106.087 E43.31935
G1 X103.5 Y106.079 E43.32352
G1 X126.5 Y106.079 E44.2415
G1 X126.739 Y106.128 E44.25124
G1 X126.925 Y106.254 E44.2602
G1 X127.051 Y106.44 E44.26917
G1 X127.1 Y106.679 E44.27891
G1 X127.1 Y129.679 E45.19689
G1 X127.092 Y129.783 E45.20105
G1 X127.051 Y129.918 E45.20668
G1 X126.925 Y130.104 E45.21565
G1 X126.739 Y130.23 E45.22461
G1 X126.604 Y130.271 E45.23024
G1 X126.5 Y130.279 E45.23441
G1 F2400 E43.23441
G0 F3600 X129 Y132.179
G1 F2400 E45.23441
G1 F600 X129 Y104.179 E46.35195
G1 X101 Y104.179 E47.46949
G1 X101 Y132.179 E48.58703
G1 X129 Y132.179 E49.70457
G0 F3600 X129.4 Y132.579
G1 F600 X129.4 Y103.779 E50.85404
G1 X100.6 Y103.779 E52.00351
G1 X100.6 Y132.579 E53.15298
G1 X129.4 Y132.579 E54.30245
G0 F3600 X129.8 Y132.979
;TYPE:WALL-OUTER
G1 F600 X129.8 Y103.379 E55.42478
G1 X100.2 Y103.379 E56.54711
G1 X100.2 Y132.979 E57.66944
G1 X129.8 Y132.979 E58.79177
G1 F2400 E56.79177
G0 F3600 X129.8 Y133.844
G0 X103.5 Y133.844
G0 X103.5 Y129.879
G1 F2400 E58.79177
G1 F600 X103.42 Y129.863 E58.79486
G1 X103.358 Y129.821 E58.7977
G1 X103.302 Y129.738 E58.8015
G1 X103.3 Y106.679 E59.67582
G1 X103.316 Y106.599 E59.67891
G1 X103.358 Y106.537 E59.68175
G1 X103.441 Y106.481 E59.68555
G1 X126.5 Y106.479 E60.55986
G1 X126.58 Y106.495 E60.56296
G1 X126.642 Y106.537 E60.5658
G1 X126.684 Y106.599 E60.56864
G1 X126.7 Y106.679 E60.57173
G1 X126.698 Y129.738 E61.44605
G1 X126.642 Y129.821 E61.44984
G1 X126.559 Y129.877 E61.45364
G1 X103.5 Y129.879 E62.32796
G1 F2400 E60.32796
G0 F3600 X103.5 Y133.844
G0 X128.64 Y133.844
G0 X128.64 Y131.819
;TYPE:SKIN
G1 F2400 E62.32796
G1 F600 X101.36 Y131.819 E63.41676
G1 X101.36 Y104.539 E64.50557
G1 X128.64 Y104.539 E65.59437
G1 X128.64 Y131.819 E66.68317
G1 F2400 E64.68317
G0 F3600 X128.64 Y133.844
G0 X103.504 Y133.844
G0 X103.504 Y131.039
G1 F2400 E66.68317
G1 F600 X126.519 Y131.039 E67.60175
G1 X126.734 Y131.021 E67.61036
G1 X127.018 Y130.937 E67.62218
G1 X127.073 Y130.911 E67.62461
G1 X127.462 Y130.641 E67.64351
G1 X127.732 Y130.252 E67.66241
G1 X127.758 Y130.197 E67.66484
G1 X127.842 Y129.913 E67.67666
G1 X127.86 Y129.7 E67.68519
G1 X127.86 Y106.683 E68.60385
G1 X127.761 Y106.175 E68.62451
G1 X127.73 Y106.101 E68.62771
G1 X127.462 Y105.717 E68.6464
G1 X127.078 Y105.448 E68.66511
G1 X127.004 Y105.417 E68.66831
G1 X126.496 Y105.319 E68.68896
G1 X103.481 Y105.319 E69.60754
G1 X103.266 Y105.337 E69.61615
G1 X102.982 Y105.421 E69.62797
G1 X102.926 Y105.447 E69.63044
G1 X102.538 Y105.717 E69.6493
G1 X102.269 Y106.101 E69.66802
G1 X102.238 Y106.175 E69.67122
G1 X102.14 Y106.683 E69.69187
G1 X102.14 Y129.704 E70.61068
G1 X102.158 Y129.913 E70.61906
G1 X102.242 Y130.197 E70.63088
G1 X102.268 Y130.252 E70.63331
G1 X102.538 Y130.641 E70.6522
G1 X102.922 Y130.91 E70.67092
G1 X102.996 Y130.941 E70.67412
G1 X103.504 Y131.039 E70.69477
G1 F2400 E68.69477
G0 F3600 X101.636 Y131.618
G1 F2400 E70.69477
G1 F600 X101.56 Y131.541 E70.69909
G0 F3600 X101.56 Y130.975
G1 F600 X102.202 Y131.618 E70.73535
G0 F3600 X102.768 Y131.618
G1 F600 X101.56 Y130.41 E70.80354
G0 F3600 X101.56 Y129.844
G1 F600 X102.152 Y130.436 E70.83695
G0 F3600 X101.94 Y129.659
G1 F600 X101.56 Y129.278 E70.85843
G0 F3600 X101.94 Y129.093
G1 F600 X101.56 Y128.713 E70.87988
G0 F3600 X101.94 Y128.527
G1 F600 X101.56 Y128.147 E70.90133
G0 F3600 X101.94 Y127.962
G1 F600 X101.56 Y127.581 E70.9228
G0 F3600 X101.94 Y127.396
G1 F600 X101.56 Y127.016 E70.94425
G0 F3600 X101.94 Y126.83
G1 F600 X101.56 Y126.45 E70.9657
G0 F3600 X101.94 Y126.265
G1 F600 X101.56 Y125.884 E70.98718
G0 F3600 X101.94 Y125.699
G1 F600 X101.56 Y125.319 E71.00863
G0 F3600 X101.94 Y125.133
G1 F600 X101.56 Y124.753 E71.03008
G0 F3600 X101.94 Y124.568
