;FLAVOR:Marlin
;TIME:1996
;Filament used: 1.17829m
;Layer height: 0.16
;MINX:38.81
;MINY:86.1
;MINZ:0.2
;MAXX:96.61
;MAXY:143.9
;MAXZ:9.88
;Generated with Cura_SteamEngine 5.4.0-alpha+testing_1
M140 S60
M105
M190 S60
M104 S200
M105
M109 S200
M82 ;absolute extrusion mode
 G28 ; home all axes
 M420 S1
 M117 ; Purge extruder
 G92 E0 ; reset extruder
 G1 Z1.0 F3000 ; move z up little to prevent scratching of surface
 G1 X2 Y20 Z0.3 F5000.0 ; move to start-line position
 G1 X2 Y200.0 Z0.3 F1500.0 E15 ; draw 1st line
 G1 X2 Y200.0 Z0.4 F5000.0 ; move to side a little
 G1 X2 Y20 Z0.4 F1500.0 E30 ; draw 2nd line
 G92 E0 ; reset extruder
 G1 Z1.0 F3000 ; move z up little to prevent scratching of surface
G92 E0
G92 E0
G1 F2400 E-2
;LAYER_COUNT:60
;LAYER:0
M107
G0 F3600 X44.858 Y87.45 Z0.2
;TYPE:SKIRT
G1 F2400 E0
G1 F600 X45.735 Y87.029 E0.03883
G1 X46.611 Y86.696 E0.07623
G1 X47.651 Y86.404 E0.11934
G1 X48.692 Y86.212 E0.16159
G1 X49.831 Y86.116 E0.20722
G1 X50.513 Y86.1 E0.23444
G1 X84.52 Y86.1 E1.59174
G1 X85.418 Y86.114 E1.62758
G1 X86.424 Y86.176 E1.66781
G1 X87.353 Y86.315 E1.7053
G1 X88.336 Y86.55 E1.74564
G1 X89.325 Y86.883 E1.78729
G1 X90.282 Y87.304 E1.82902
G1 X91.074 Y87.739 E1.86508
G1 X91.941 Y88.317 E1.90667
G1 X92.783 Y88.997 E1.94987
G1 X93.457 Y89.649 E1.9873
G1 X94.119 Y90.41 E2.02755
G1 X94.753 Y91.286 E2.07071
G1 X95.215 Y92.062 E2.10676
G1 X95.7 Y93.069 E2.15137
G1 X96.04 Y93.98 E2.19018
G1 X96.309 Y94.952 E2.23043
G1 X96.499 Y95.991 E2.27259
G1 X96.594 Y97.121 E2.31785
G1 X96.61 Y97.83 E2.34615
G1 X96.609 Y131.906 E3.7062
G1 X96.597 Y132.686 E3.73733
G1 X96.537 Y133.693 E3.7776
G1 X96.406 Y134.587 E3.81366
G1 X96.167 Y135.602 E3.85528
G1 X95.824 Y136.628 E3.89846
G1 X95.463 Y137.456 E3.93451
G1 X94.947 Y138.404 E3.97759
G1 X94.365 Y139.273 E4.01933
G1 X93.799 Y139.977 E4.05538
G1 X93.079 Y140.73 E4.09696
G1 X92.262 Y141.441 E4.14019
G1 X91.531 Y141.972 E4.17625
G1 X90.638 Y142.51 E4.21786
G1 X89.665 Y142.98 E4.26099
G1 X88.788 Y143.311 E4.2984
G1 X87.816 Y143.586 E4.33872
G1 X86.74 Y143.786 E4.3824
G1 X85.589 Y143.884 E4.42851
G1 X84.898 Y143.9 E4.45609
G1 X50.768 Y143.899 E5.8183
G1 X50.018 Y143.887 E5.84823
G1 X49.012 Y143.827 E5.88846
G1 X48.118 Y143.695 E5.92453
G1 X47.067 Y143.445 E5.96764
G1 X46.077 Y143.112 E6.00933
G1 X45.25 Y142.751 E6.04535
G1 X44.301 Y142.234 E6.08848
G1 X43.433 Y141.652 E6.13019
G1 X42.729 Y141.086 E6.16624
G1 X41.925 Y140.313 E6.21076
G1 X41.332 Y139.632 E6.2468
G1 X40.697 Y138.757 E6.28995
G1 X40.18 Y137.89 E6.33024
G1 X39.728 Y136.95 E6.37187
G1 X39.397 Y136.073 E6.40928
G1 X39.123 Y135.101 E6.44959
G1 X38.923 Y134.021 E6.49343
G1 X38.824 Y132.818 E6.5416
G1 X38.81 Y132.158 E6.56795
G1 X38.811 Y98.019 E7.93051
G1 X38.823 Y97.301 E7.95917
G1 X38.884 Y96.295 E7.9994
G1 X39.016 Y95.402 E8.03543
G1 X39.256 Y94.387 E8.07705
G1 X39.588 Y93.394 E8.11884
G1 X39.978 Y92.502 E8.1577
G1 X40.461 Y91.616 E8.19797
G1 X41.062 Y90.718 E8.2411
G1 X41.629 Y90.014 E8.27718
G1 X42.402 Y89.211 E8.32167
G1 X43.083 Y88.618 E8.35771
G1 X43.929 Y88.002 E8.39948
G1 X44.858 Y87.45 E8.44261
G0 F3600 X45.031 Y87.811
G1 F600 X45.908 Y87.39 E8.48143
G1 X46.753 Y87.07 E8.5175
G1 X47.759 Y86.789 E8.55918
G1 X48.726 Y86.611 E8.59843
G1 X49.865 Y86.515 E8.64405
G1 X50.522 Y86.5 E8.67028
G1 X84.514 Y86.5 E10.02697
G1 X85.394 Y86.513 E10.0621
G1 X86.365 Y86.572 E10.10092
G1 X87.294 Y86.711 E10.13842
G1 X88.242 Y86.939 E10.17733
G1 X89.164 Y87.249 E10.21615
G1 X90.089 Y87.655 E10.25647
G1 X90.881 Y88.09 E10.29254
G1 X91.69 Y88.628 E10.33131
G1 X92.505 Y89.285 E10.3731
G1 X93.155 Y89.912 E10.40914
G1 X93.817 Y90.673 E10.4494
G1 X94.409 Y91.491 E10.4897
G1 X94.871 Y92.267 E10.52575
G1 X95.325 Y93.209 E10.56748
G1 X95.654 Y94.087 E10.6049
G1 X95.923 Y95.059 E10.64516
G1 X96.1 Y96.025 E10.68435
G1 X96.195 Y97.155 E10.72961
G1 X96.21 Y97.83 E10.75656
G1 X96.209 Y131.9 E12.11637
G1 X96.198 Y132.663 E12.14682
G1 X96.141 Y133.635 E12.18569
G1 X96.01 Y134.529 E12.22175
G1 X95.787 Y135.476 E12.26058
G1 X95.457 Y136.468 E12.30231
G1 X95.096 Y137.296 E12.33836
G1 X94.596 Y138.212 E12.38001
G1 X94.053 Y139.022 E12.41893
G1 X93.487 Y139.726 E12.45498
G1 X92.816 Y140.429 E12.49377
G1 X92.027 Y141.117 E12.53555
G1 X91.296 Y141.648 E12.57161
G1 X90.464 Y142.15 E12.6104
G1 X89.523 Y142.606 E12.65213
G1 X88.679 Y142.926 E12.68816
G1 X87.707 Y143.201 E12.72847
G1 X86.706 Y143.387 E12.76911
G1 X85.555 Y143.485 E12.81521
G1 X84.889 Y143.5 E12.8418
G1 X50.774 Y143.499 E14.20341
G1 X50.041 Y143.488 E14.23267
G1 X49.07 Y143.431 E14.27149
G1 X48.176 Y143.299 E14.30755
G1 X47.194 Y143.066 E14.34784
G1 X46.237 Y142.745 E14.38812
G1 X45.41 Y142.384 E14.42414
G1 X44.523 Y141.901 E14.46445
G1 X43.684 Y141.34 E14.50473
G1 X42.98 Y140.774 E14.54079
G1 X42.227 Y140.05 E14.58248
G1 X41.634 Y139.369 E14.61852
G1 X41.041 Y138.552 E14.65881
G1 X40.524 Y137.685 E14.6991
G1 X40.102 Y136.808 E14.73794
G1 X39.782 Y135.964 E14.77397
G1 X39.508 Y134.992 E14.81428
G1 X39.322 Y133.988 E14.85503
G1 X39.224 Y132.809 E14.90225
G1 X39.21 Y132.158 E14.92824
G1 X39.211 Y98.025 E16.29056
G1 X39.222 Y97.325 E16.3185
G1 X39.28 Y96.353 E16.35736
G1 X39.412 Y95.46 E16.39339
G1 X39.636 Y94.513 E16.43223
G1 X39.955 Y93.554 E16.47257
G1 X40.345 Y92.662 E16.51143
G1 X40.812 Y91.808 E16.55028
G1 X41.374 Y90.969 E16.59058
G1 X41.941 Y90.265 E16.62666
G1 X42.665 Y89.513 E16.66832
G1 X43.346 Y88.92 E16.70436
G1 X44.134 Y88.346 E16.74327
G1 X45.031 Y87.811 E16.78496
G0 F3600 X45.205 Y88.171
G1 F600 X46.05 Y87.764 E16.82239
G1 X46.895 Y87.444 E16.85846
G1 X47.832 Y87.182 E16.89729
G1 X48.76 Y87.01 E16.93496
G1 X49.899 Y86.914 E16.98058
G1 X50.531 Y86.9 E17.00581
G1 X84.508 Y86.9 E18.3619
G1 X85.37 Y86.912 E18.39631
G1 X86.307 Y86.968 E18.43378
G1 X87.2 Y87.1 E18.4698
G1 X88.148 Y87.328 E18.50872
G1 X89.004 Y87.616 E18.54477
G1 X89.896 Y88.006 E18.58362
G1 X90.688 Y88.441 E18.61969
G1 X91.468 Y88.961 E18.6571
G1 X92.227 Y89.573 E18.69602
G1 X92.877 Y90.2 E18.73206
G1 X93.515 Y90.935 E18.77091
G1 X94.065 Y91.696 E18.80838
G1 X94.527 Y92.472 E18.84443
G1 X94.95 Y93.349 E18.88329
G1 X95.279 Y94.227 E18.92071
G1 X95.53 Y95.132 E18.9582
G1 X95.701 Y96.059 E18.99582
G1 X95.796 Y97.189 E19.04108
G1 X95.81 Y97.83 E19.06667
G1 X95.809 Y131.895 E20.42628
G1 X95.799 Y132.64 E20.45601
G1 X95.745 Y133.577 E20.49347
G1 X95.614 Y134.471 E20.52954
G1 X95.398 Y135.384 E20.56698
G1 X95.09 Y136.308 E20.60586
G1 X94.729 Y137.136 E20.64191
G1 X94.263 Y137.99 E20.68074
G1 X93.741 Y138.771 E20.71823
G1 X93.175 Y139.475 E20.75428
G1 X92.527 Y140.152 E20.79169
G1 X91.792 Y140.793 E20.83061
G1 X91.061 Y141.324 E20.86667
G1 X90.258 Y141.807 E20.90407
G1 X89.381 Y142.232 E20.94297
G1 X88.537 Y142.552 E20.97899
G1 X87.599 Y142.816 E21.01789
G1 X86.672 Y142.988 E21.05552
G1 X85.521 Y143.086 E21.10162
G1 X84.889 Y143.1 E21.12685
G1 X50.78 Y143.099 E22.48822
G1 X50.064 Y143.089 E22.5168
G1 X49.128 Y143.035 E22.55422
G1 X48.234 Y142.903 E22.59028
G1 X47.321 Y142.687 E22.62773
G1 X46.397 Y142.378 E22.66662
G1 X45.57 Y142.017 E22.70263
G1 X44.715 Y141.55 E22.74152
G1 X43.935 Y141.028 E22.77897
G1 X43.231 Y140.462 E22.81503
G1 X42.529 Y139.787 E22.8539
G1 X41.936 Y139.106 E22.88994
G1 X41.384 Y138.347 E22.9274
G1 X40.884 Y137.511 E22.96627
G1 X40.476 Y136.666 E23.00373
G1 X40.156 Y135.822 E23.03975
G1 X39.893 Y134.884 E23.07863
G1 X39.721 Y133.955 E23.11634
G1 X39.623 Y132.776 E23.16356
G1 X39.61 Y132.158 E23.18823
G1 X39.611 Y98.031 E24.55031
G1 X39.621 Y97.348 E24.57758
G1 X39.676 Y96.411 E24.61504
G1 X39.808 Y95.518 E24.65107
G1 X40.025 Y94.605 E24.68852
G1 X40.322 Y93.714 E24.72601
G1 X40.712 Y92.822 E24.76486
G1 X41.163 Y92 E24.80229
G1 X41.686 Y91.22 E24.83977
G1 X42.253 Y90.516 E24.87585
G1 X42.928 Y89.815 E24.91469
G1 X43.609 Y89.222 E24.95073
G1 X44.369 Y88.67 E24.98822
G1 X45.205 Y88.171 E25.02707
G0 F3600 X45.379 Y88.531
G1 F600 X46.192 Y88.138 E25.06312
G1 X47.037 Y87.818 E25.09918
G1 X47.906 Y87.575 E25.13519
G1 X48.794 Y87.409 E25.17125
G1 X49.933 Y87.313 E25.21687
G1 X50.54 Y87.3 E25.2411
G1 X84.503 Y87.3 E26.59664
G1 X85.347 Y87.311 E26.63033
G1 X86.249 Y87.364 E26.66639
G1 X87.142 Y87.496 E26.70242
G1 X88.02 Y87.707 E26.73846
G1 X88.876 Y87.995 E26.77451
G1 X89.703 Y88.357 E26.81054
G1 X90.495 Y88.792 E26.8466
G1 X91.246 Y89.294 E26.88266
G1 X91.949 Y89.861 E26.9187
G1 X92.599 Y90.488 E26.95475
G1 X93.191 Y91.17 E26.99079
G1 X93.721 Y91.901 E27.02683
G1 X94.183 Y92.677 E27.06288
G1 X94.576 Y93.49 E27.09892
G1 X94.894 Y94.335 E27.13495
G1 X95.137 Y95.205 E27.171
G1 X95.302 Y96.093 E27.20705
G1 X95.397 Y97.223 E27.25231
G1 X95.41 Y97.83 E27.27655
G1 X95.409 Y131.89 E28.63595
G1 X95.4 Y132.617 E28.66497
G1 X95.349 Y133.519 E28.70103
G1 X95.218 Y134.413 E28.73709
G1 X95.009 Y135.291 E28.77311
G1 X94.723 Y136.148 E28.80917
G1 X94.362 Y136.976 E28.84523
G1 X93.93 Y137.768 E28.88123
G1 X93.429 Y138.52 E28.9173
G1 X92.863 Y139.224 E28.95335
G1 X92.238 Y139.875 E28.98937
G1 X91.557 Y140.469 E29.02544
G1 X90.826 Y141 E29.0615
G1 X90.052 Y141.464 E29.09752
G1 X89.239 Y141.858 E29.13357
G1 X88.395 Y142.178 E29.1696
G1 X87.525 Y142.423 E29.20567
G1 X86.638 Y142.589 E29.24169
G1 X85.487 Y142.687 E29.2878
G1 X84.88 Y142.7 E29.31203
G1 X50.785 Y142.699 E30.67283
G1 X50.087 Y142.69 E30.70069
G1 X49.186 Y142.639 E30.73671
G1 X48.292 Y142.507 E30.77278
G1 X47.414 Y142.298 E30.8088
G1 X46.557 Y142.011 E30.84487
G1 X45.73 Y141.65 E30.88089
G1 X44.937 Y141.217 E30.91695
G1 X44.186 Y140.716 E30.95298
G1 X43.482 Y140.15 E30.98904
G1 X42.831 Y139.524 E31.02508
G1 X42.238 Y138.843 E31.06112
G1 X41.708 Y138.112 E31.09716
G1 X41.244 Y137.337 E31.13321
G1 X40.85 Y136.524 E31.16927
G1 X40.53 Y135.68 E31.2053
G1 X40.286 Y134.81 E31.24136
G1 X40.12 Y133.922 E31.27742
G1 X40.023 Y132.767 E31.32368
G1 X40.01 Y132.158 E31.34799
G1 X40.011 Y98.036 E32.70987
G1 X40.02 Y97.371 E32.73642
G1 X40.072 Y96.469 E32.77248
G1 X40.204 Y95.576 E32.8085
G1 X40.414 Y94.698 E32.84454
G1 X40.701 Y93.841 E32.88061
G1 X41.063 Y93.014 E32.91664
G1 X41.496 Y92.222 E32.95266
G1 X41.998 Y91.471 E32.98872
G1 X42.565 Y90.767 E33.0248
G1 X43.191 Y90.117 E33.06081
G1 X43.872 Y89.524 E33.09686
G1 X44.604 Y88.994 E33.13293
G1 X45.379 Y88.531 E33.16896
G1 F2400 E31.16896
G0 F3600 X55.706 Y102.996
;TYPE:SUPPORT
G1 F2400 E33.16896
G1 F600 X79.715 Y102.996 E34.12721
G1 X79.716 Y127.006 E35.0855
G1 X55.706 Y127.005 E36.04379
G1 X55.706 Y102.996 E37.00204
G0 F3600 X56 Y103.067
G1 F600 X56 Y126.934 E37.95462
G1 F2400 E35.95462
G0 F3600 X54.841 Y126.934
G0 X54.841 Y120
G0 X55.776 Y120
G1 F2400 E37.95462
G1 F600 X79.644 Y120 E38.90725
G1 F2400 E36.90725
G0 F3600 X80.58 Y119.999
G0 X80.58 Y111.999
G0 X79.645 Y112
G1 F2400 E38.90725
G1 F600 X55.776 Y112 E39.85991
G1 F2400 E37.85991
G0 F3600 X54.841 Y112
G0 X54.841 Y104
G0 X55.776 Y104
G1 F2400 E39.85991
G1 F600 X79.645 Y104 E40.81257
G1 F2400 E38.81257
G0 F3600 X80.58 Y103.999
G0 X80.568 Y102.142
G0 X72 Y102.13
G0 X72 Y103.067
G1 F2400 E40.81257
G1 F600 X72 Y126.934 E41.76516
G1 F2400 E39.76516
G0 F3600 X72 Y127.871
G0 X64 Y127.871
G0 X64 Y126.934
G1 F2400 E41.76516
G1 F600 X64 Y103.067 E42.71774
G1 F2400 E40.71774
;MESH:talking book-dummy button 9mm fillet up down.stl
G0 F3600 X64 Y102.13
G0 X80.568 Y102.142
G0 X82.187 Y129.477
G0 X83.013 Y131.113
;TYPE:WALL-INNER
G1 F2400 E42.71774
G1 F617 X82.84 Y131.122 E42.72447
G1 F625 X52.579 Y131.123 E43.88394
G1 F494.8 X51.805 Y130.905 E43.92285
G1 F489.8 X51.596 Y130.304 E43.95396
G1 F617 X51.587 Y130.131 E43.96068
G1 F625 X51.588 Y99.87 E45.12016
G1 F493.8 X51.806 Y99.096 E45.15915
G1 F488.8 X52.407 Y98.887 E45.19032
G1 F617 X52.58 Y98.878 E45.19705
G1 F625 X82.841 Y98.877 E46.35652
G1 F493.8 X83.615 Y99.095 E46.39551
G1 X83.833 Y99.869 E46.43451
G1 F623.4 X83.832 Y130.13 E47.597
G1 F617 X83.823 Y130.302 E47.60368
G1 F489.8 X83.614 Y130.904 E47.63484
G1 F488.8 X83.013 Y131.113 E47.66601
G0 F3600 X82.944 Y130.722
G1 F600 X82.84 Y130.73 E47.67018
G1 X52.579 Y130.731 E48.87796
G1 X52.154 Y130.556 E48.8963
G1 X51.987 Y130.235 E48.91074
G1 X51.979 Y130.131 E48.91491
G1 X51.98 Y99.87 E50.12269
G1 X52.155 Y99.445 E50.14103
G1 X52.476 Y99.278 E50.15548
G1 X52.58 Y99.27 E50.15964
G1 X82.841 Y99.269 E51.36742
G1 X83.266 Y99.444 E51.38576
G1 X83.441 Y99.869 E51.40411
G1 X83.44 Y130.13 E52.61189
G1 X83.432 Y130.234 E52.61605
G1 X83.265 Y130.555 E52.6305
G1 X82.944 Y130.722 E52.64494
G0 F3600 X84.116 Y131.406
G1 F408.2 X84.116 Y131.112 E52.66219
G1 F489.8 X84.214 Y130.336 E52.70043
G1 F613.8 X84.216 Y115.102 E53.29477
G1 F620.2 X84.218 Y99.868 E53.88303
G1 F551.7 X84.167 Y99.379 E53.90437
G1 F446.9 X84.116 Y98.888 E53.93082
G1 F408.2 X84.116 Y98.594 E53.94807
G1 X83.822 Y98.594 E53.96532
G1 F446.9 X83.332 Y98.544 E53.99171
G1 F551.7 X82.841 Y98.493 E54.01314
G1 F621.8 X67.607 Y98.495 E54.59988
G1 F613.8 X52.373 Y98.497 E55.19422
G1 F488.8 X51.598 Y98.594 E55.23249
G1 F408.2 X51.304 Y98.594 E55.24974
G1 X51.304 Y98.888 E55.26698
G1 F446.9 X51.253 Y99.379 E55.29343
G1 F551.7 X51.202 Y99.87 E55.31486
G1 F620.2 X51.204 Y115.104 E55.90312
G1 F613.8 X51.206 Y130.338 E56.49746
G1 F489.8 X51.304 Y131.112 E56.53561
G1 F408.9 X51.304 Y131.406 E56.55283
G1 X51.598 Y131.406 E56.57005
G1 F447.8 X52.088 Y131.456 E56.59639
G1 F553 X52.579 Y131.507 E56.61777
G1 F621.8 X67.813 Y131.505 E57.20451
G1 F613.8 X83.047 Y131.503 E57.79885
G1 F488.8 X83.822 Y131.406 E57.83712
G1 F408.2 X84.116 Y131.406 E57.85436
G0 F3600 X84.61 Y131.9
G1 F600 X84.61 Y98.1 E59.2034
G1 X50.81 Y98.1 E60.55243
G1 X50.811 Y131.899 E61.90142
G1 X84.61 Y131.9 E63.25041
G0 F3600 X85.01 Y132.3
;TYPE:WALL-OUTER
G1 F600 X85.01 Y97.7 E64.56232
G1 X50.41 Y97.7 E65.87423
G1 X50.411 Y132.299 E67.18611
G1 X85.01 Y132.3 E68.49798
G1 F2400 E66.49798
G0 F3600 X82.875 Y130.328
G1 F2400 E68.49798
G1 F600 X52.579 Y130.331 E69.6467
G1 X52.437 Y130.273 E69.65252
G1 X52.381 Y130.166 E69.6571
G1 X52.38 Y99.87 E70.80582
G1 X52.438 Y99.728 E70.81164
G1 X52.545 Y99.672 E70.81621
G1 X82.841 Y99.669 E71.96493
G1 X82.983 Y99.727 E71.97075
G1 X83.041 Y99.869 E71.97657
G1 X83.038 Y130.165 E73.12529
G1 X82.982 Y130.272 E73.12987
G1 X82.875 Y130.328 E73.13444
G1 F2400 E71.13444
;MESH:NOMESH
G0 F300 X82.875 Y130.328 Z0.32
G0 F3600 X82.187 Y129.477
G0 X54.853 Y127.858
G0 X54.841 Y102.996
G0 X55.706 Y102.996
;TIME_ELAPSED:195.918884
;LAYER:1
M106 S85
;TYPE:SUPPORT
G1 F2400 E73.13444
G1 F1200 X79.715 Y102.996 E73.61357
G1 X79.716 Y127.006 E74.09272
G1 X55.706 Y127.005 E74.57186
G1 X55.706 Y102.996 E75.05099
G0 F4500 X56 Y103.067
G1 F1200 X56 Y126.934 E75.52728
G1 F2400 E73.52728
G0 F4500 X56 Y127.871
G0 X64 Y127.871
G0 X64 Y126.934
G1 F2400 E75.52728
G1 F1200 X64 Y103.067 E76.00357
G1 F2400 E74.00357
G0 F4500 X64 Y102.13
G0 X72 Y102.13
G0 X72 Y103.067
G1 F2400 E76.00357
G1 F1200 X72 Y126.934 E76.47986
G1 F2400 E74.47986
;MESH:talking book-dummy button 9mm fillet up down.stl
G0 F4500 X72 Y127.871
G0 X81.974 Y129.264
G0 X82.808 Y130.953
;TYPE:WALL-INNER
G1 F2400 E76.47986
G1 F1209.7 X82.627 Y130.962 E76.48435
G1 F1222 X52.795 Y130.962 E77.21511
G1 F1348.3 X52.087 Y130.624 E77.23253
G1 F1330.4 X51.759 Y130.098 E77.24648
G1 F1207.2 X51.749 Y129.916 E77.251
G1 F1219.5 X51.748 Y100.083 E77.98328
G1 F1345.3 X52.086 Y99.375 E78.00074
G1 F1330.4 X52.613 Y99.047 E78.0147
G1 F1209.7 X52.794 Y99.038 E78.01919
G1 F1222 X82.626 Y99.038 E78.74995
G1 F1345.3 X83.333 Y99.377 E78.7674
G1 X83.672 Y100.084 E78.78485
G1 F1219.5 X83.673 Y129.917 E79.51713
G1 F1209.7 X83.664 Y130.098 E79.52161
G1 F1333.3 X83.335 Y130.625 E79.53556
G1 F1330.4 X82.808 Y130.953 E79.54953
G0 F4500 X82.731 Y130.509
G1 F1500 X82.627 Y130.517 E79.55161
G1 X52.795 Y130.517 E80.14694
G1 X52.37 Y130.341 E80.15612
G1 X52.203 Y130.02 E80.16334
G1 X52.195 Y129.916 E80.16542
G1 X52.194 Y100.083 E80.76077
G1 X52.369 Y99.658 E80.76994
G1 X52.69 Y99.491 E80.77716
G1 X52.794 Y99.483 E80.77924
G1 X82.626 Y99.484 E81.37457
G1 X83.051 Y99.659 E81.38375
G1 X83.226 Y100.084 E81.39292
G1 X83.227 Y129.917 E81.98827
G1 X83.22 Y130.021 E81.99035
G1 X83.052 Y130.342 E81.99758
G1 X82.731 Y130.509 E82.0048
G1 F2400 E80.0048
G0 F4500 X84.21 Y131.5
G1 F2400 E82.0048
G1 F1500 X84.21 Y130.987 E82.01504
